; generated by Slic3r 0.9.10b on 2014-04-11 at 00:05:25

; layer_height = 0.15
; perimeters = 3
; top_solid_layers = 7
; bottom_solid_layers = 7
; fill_density = 0.33
; perimeter_speed = 30
; infill_speed = 60
; travel_speed = 130
; nozzle_diameter = 0.35
; filament_diameter = 1.75
; extrusion_multiplier = 1.0
; perimeters extrusion width = 0.59mm
; infill extrusion width = 0.67mm
; solid infill extrusion width = 0.59mm
; top infill extrusion width = 0.59mm
; first layer extrusion width = 0.36mm

G21 ; set units to millimeters
M107
M190 S60 ; wait for bed temperature to be reached
M104 S200 ; set temperature
G28 ; home all axes
G1 Z5 F5000 ; lift nozzle
M109 S200 ; wait for temperature to be reached
G90 ; use absolute coordinates
G92 E0
M82 ; use absolute distances for extrusion
G1 F1800.000 E-1.00000
G92 E0
G1 Z0.430 F7800.000
G1 X72.850 Y85.566
G1 F1800.000 E1.00000
G1 X73.460 Y85.076 F540.000 E1.02095
G1 X75.480 Y83.606 E1.08786
G1 X76.130 Y83.186 E1.10858
G1 X76.830 Y82.826 E1.12966
G1 X79.120 Y81.806 E1.19680
G1 X79.840 Y81.526 E1.21749
G1 X80.600 Y81.326 E1.23853
G1 X83.050 Y80.806 E1.30560
G1 X83.810 Y80.686 E1.32621
G1 X84.590 Y80.646 E1.34712
G1 X87.590 Y80.656 E1.42747
G1 X117.680 Y82.626 E2.23500
G1 X118.750 Y82.776 E2.26394
G1 X120.800 Y83.216 E2.32009
G1 X121.550 Y83.426 E2.34095
G1 X122.270 Y83.706 E2.36163
G1 X124.170 Y84.556 E2.41738
G1 X124.860 Y84.896 E2.43798
G1 X125.500 Y85.316 E2.45848
G1 X127.200 Y86.546 E2.51467
G1 X127.800 Y87.036 E2.53542
G1 X128.360 Y87.586 E2.55644
G1 X129.740 Y89.116 E2.61161
G1 X130.230 Y89.726 E2.63257
G1 X130.650 Y90.376 E2.65329
G1 X131.710 Y92.206 E2.70993
G1 X132.060 Y92.896 E2.73065
G1 X132.340 Y93.616 E2.75134
G1 X132.990 Y95.606 E2.80740
G1 X133.200 Y96.376 E2.82877
G1 X133.320 Y97.166 E2.85017
G1 X133.530 Y99.246 E2.90616
G1 X133.570 Y99.996 E2.92627
G1 X133.530 Y100.746 E2.94638
G1 X133.320 Y102.826 E3.00237
G1 X133.200 Y103.616 E3.02377
G1 X132.990 Y104.386 E3.04514
G1 X132.340 Y106.376 E3.10121
G1 X132.060 Y107.106 E3.12214
G1 X131.700 Y107.806 E3.14322
G1 X130.640 Y109.626 E3.19963
G1 X130.230 Y110.256 E3.21976
G1 X129.750 Y110.846 E3.24013
G1 X128.370 Y112.386 E3.29550
G1 X127.810 Y112.946 E3.31671
G1 X127.200 Y113.446 E3.33783
G1 X125.500 Y114.676 E3.39403
G1 X124.860 Y115.096 E3.41453
G1 X124.170 Y115.436 E3.43513
G1 X122.270 Y116.286 E3.49087
G1 X121.530 Y116.576 E3.51215
G1 X120.770 Y116.776 E3.53320
G1 X118.720 Y117.206 E3.58929
G1 X117.680 Y117.356 E3.61743
G1 X87.590 Y119.336 E4.42499
G1 X84.590 Y119.346 E4.50533
G1 X83.810 Y119.306 E4.52625
G1 X83.050 Y119.186 E4.54685
G1 X80.600 Y118.666 E4.61392
G1 X79.840 Y118.466 E4.63497
G1 X79.120 Y118.186 E4.65566
G1 X76.830 Y117.166 E4.72279
G1 X76.130 Y116.806 E4.74387
G1 X75.480 Y116.386 E4.76460
G1 X73.460 Y114.916 E4.83150
G1 X72.850 Y114.426 E4.85246
G1 X72.300 Y113.876 E4.87329
G1 X70.620 Y112.006 E4.94061
G1 X70.130 Y111.396 E4.96156
G1 X69.710 Y110.746 E4.98228
G1 X68.460 Y108.576 E5.04935
G1 X68.110 Y107.896 E5.06983
G1 X67.840 Y107.176 E5.09042
G1 X67.060 Y104.796 E5.15750
G1 X66.850 Y104.036 E5.17861
G1 X66.730 Y103.256 E5.19975
G1 X66.470 Y100.766 E5.26679
G1 X66.430 Y99.996 E5.28744
G1 X66.470 Y99.226 E5.30809
G1 X66.730 Y96.736 E5.37513
G1 X66.850 Y95.956 E5.39627
G1 X67.060 Y95.196 E5.41738
G1 X67.840 Y92.806 E5.48471
G1 X68.110 Y92.086 E5.50530
G1 X68.470 Y91.396 E5.52614
G1 X69.720 Y89.236 E5.59298
G1 X70.140 Y88.586 E5.61370
G1 X70.620 Y87.986 E5.63428
G1 X72.300 Y86.116 E5.70160
G1 X72.812 Y85.604 E5.72099
G1 X73.090 Y85.836 F7800.000
G1 X73.670 Y85.366 F540.000 E5.74098
G1 X75.690 Y83.896 E5.80789
G1 X76.310 Y83.496 E5.82765
G1 X76.970 Y83.156 E5.84753
G1 X79.260 Y82.136 E5.91466
G1 X79.950 Y81.866 E5.93451
G1 X80.670 Y81.676 E5.95445
G1 X83.120 Y81.156 E6.02152
G1 X83.850 Y81.046 E6.04129
G1 X84.590 Y81.006 E6.06114
G1 X87.560 Y81.016 E6.14067
G1 X117.650 Y82.986 E6.94821
G1 X118.670 Y83.126 E6.97579
G1 X120.720 Y83.566 E7.03193
G1 X121.440 Y83.766 E7.05195
G1 X122.130 Y84.026 E7.07169
G1 X124.030 Y84.876 E7.12743
G1 X124.680 Y85.206 E7.14696
G1 X125.290 Y85.606 E7.16649
G1 X126.990 Y86.836 E7.22268
G1 X127.570 Y87.306 E7.24268
G1 X128.090 Y87.826 E7.26237
G1 X129.470 Y89.356 E7.31755
G1 X129.940 Y89.936 E7.33754
G1 X130.340 Y90.546 E7.35708
G1 X131.400 Y92.376 E7.41371
G1 X131.740 Y93.036 E7.43359
G1 X132.000 Y93.726 E7.45334
G1 X132.650 Y95.716 E7.50940
G1 X132.850 Y96.456 E7.52993
G1 X132.970 Y97.206 E7.55027
G1 X133.180 Y99.286 E7.60626
G1 X133.210 Y99.996 E7.62529
G1 X133.180 Y100.706 E7.64432
G1 X132.970 Y102.786 E7.70030
G1 X132.850 Y103.536 E7.72065
G1 X132.650 Y104.276 E7.74117
G1 X132.000 Y106.266 E7.79724
G1 X131.730 Y106.956 E7.81708
G1 X131.390 Y107.626 E7.83720
G1 X130.330 Y109.446 E7.89360
G1 X129.940 Y110.046 E7.91277
G1 X129.490 Y110.606 E7.93201
G1 X128.110 Y112.146 E7.98738
G1 X127.570 Y112.686 E8.00784
G1 X126.990 Y113.156 E8.02783
G1 X125.290 Y114.386 E8.08402
G1 X124.680 Y114.786 E8.10356
G1 X124.030 Y115.116 E8.12308
G1 X122.130 Y115.966 E8.17882
G1 X121.420 Y116.236 E8.19916
G1 X120.690 Y116.426 E8.21936
G1 X118.640 Y116.856 E8.27546
G1 X117.650 Y116.996 E8.30223
G1 X87.560 Y118.976 E9.10979
G1 X84.590 Y118.986 E9.18933
G1 X83.850 Y118.946 E9.20917
G1 X83.120 Y118.836 E9.22894
G1 X80.670 Y118.316 E9.29602
G1 X79.950 Y118.126 E9.31596
G1 X79.260 Y117.856 E9.33580
G1 X76.970 Y116.836 E9.40293
G1 X76.310 Y116.496 E9.42282
G1 X75.690 Y116.096 E9.44258
G1 X73.670 Y114.626 E9.50948
G1 X73.090 Y114.156 E9.52947
G1 X72.570 Y113.636 E9.54917
G1 X70.890 Y111.766 E9.61649
G1 X70.420 Y111.186 E9.63648
G1 X70.020 Y110.566 E9.65624
G1 X68.770 Y108.396 E9.72330
G1 X68.440 Y107.746 E9.74282
G1 X68.180 Y107.066 E9.76232
G1 X67.400 Y104.686 E9.82939
G1 X67.200 Y103.966 E9.84940
G1 X67.080 Y103.216 E9.86974
G1 X66.820 Y100.726 E9.93679
G1 X66.790 Y99.996 E9.95636
G1 X66.820 Y99.266 E9.97592
G1 X67.080 Y96.776 E10.04297
G1 X67.200 Y96.036 E10.06304
G1 X67.400 Y95.316 E10.08305
G1 X68.180 Y92.926 E10.15038
G1 X68.440 Y92.236 E10.17013
G1 X68.780 Y91.576 E10.19001
G1 X70.030 Y89.416 E10.25684
G1 X70.430 Y88.796 E10.27660
G1 X70.890 Y88.226 E10.29622
G1 X72.570 Y86.356 E10.36354
G1 X73.052 Y85.874 E10.38179
G1 X73.330 Y86.096 F7800.000
G1 X73.880 Y85.656 F540.000 E10.40066
G1 X75.900 Y84.186 E10.46756
G1 X76.490 Y83.806 E10.48635
G1 X77.120 Y83.486 E10.50528
G1 X79.410 Y82.466 E10.57241
G1 X80.070 Y82.206 E10.59141
G1 X80.750 Y82.026 E10.61025
G1 X83.200 Y81.506 E10.67732
G1 X83.890 Y81.396 E10.69603
G1 X84.590 Y81.356 E10.71481
G1 X87.100 Y81.356 E10.78203
G1 X87.540 Y81.376 E10.79382
G1 X117.630 Y83.346 E11.60136
G1 X118.600 Y83.476 E11.62757
G1 X120.650 Y83.916 E11.68372
G1 X121.330 Y84.106 E11.70263
G1 X121.980 Y84.356 E11.72128
G1 X123.880 Y85.206 E11.77702
G1 X124.500 Y85.516 E11.79558
G1 X125.080 Y85.896 E11.81415
G1 X126.780 Y87.126 E11.87034
G1 X127.330 Y87.566 E11.88921
G1 X127.830 Y88.066 E11.90814
G1 X129.210 Y89.596 E11.96332
G1 X129.650 Y90.146 E11.98218
G1 X130.030 Y90.726 E12.00075
G1 X131.090 Y92.556 E12.05739
G1 X131.410 Y93.186 E12.07631
G1 X131.660 Y93.836 E12.09496
G1 X132.310 Y95.826 E12.15103
G1 X132.500 Y96.526 E12.17045
G1 X132.610 Y97.246 E12.18996
G1 X132.820 Y99.326 E12.24594
G1 X132.860 Y99.996 E12.26392
G1 X132.820 Y100.666 E12.28189
G1 X132.610 Y102.746 E12.33788
G1 X132.500 Y103.466 E12.35738
G1 X132.310 Y104.166 E12.37681
G1 X131.660 Y106.156 E12.43287
G1 X131.410 Y106.816 E12.45177
G1 X131.080 Y107.446 E12.47082
G1 X130.020 Y109.266 E12.52722
G1 X129.650 Y109.836 E12.54542
G1 X129.220 Y110.366 E12.56369
G1 X127.840 Y111.906 E12.61907
G1 X127.330 Y112.416 E12.63839
G1 X126.780 Y112.866 E12.65742
G1 X125.080 Y114.096 E12.71361
G1 X124.500 Y114.476 E12.73218
G1 X123.880 Y114.786 E12.75074
G1 X121.980 Y115.636 E12.80649
G1 X121.310 Y115.896 E12.82573
G1 X120.620 Y116.076 E12.84483
G1 X118.570 Y116.506 E12.90092
G1 X117.630 Y116.636 E12.92634
G1 X87.100 Y118.636 E13.74568
G1 X84.590 Y118.636 E13.81290
G1 X83.890 Y118.596 E13.83168
G1 X83.200 Y118.486 E13.85039
G1 X80.750 Y117.966 E13.91746
G1 X80.070 Y117.786 E13.93630
G1 X79.410 Y117.526 E13.95530
G1 X77.120 Y116.506 E14.02243
G1 X76.490 Y116.186 E14.04136
G1 X75.900 Y115.806 E14.06015
G1 X73.880 Y114.336 E14.12705
G1 X73.330 Y113.896 E14.14592
G1 X72.830 Y113.396 E14.16485
G1 X71.150 Y111.526 E14.23217
G1 X70.710 Y110.976 E14.25104
G1 X70.330 Y110.386 E14.26983
G1 X69.080 Y108.216 E14.33689
G1 X68.770 Y107.606 E14.35522
G1 X68.520 Y106.956 E14.37387
G1 X67.740 Y104.576 E14.44094
G1 X67.550 Y103.886 E14.46011
G1 X67.440 Y103.186 E14.47908
G1 X67.180 Y100.696 E14.54613
G1 X67.140 Y99.996 E14.56490
G1 X67.180 Y99.296 E14.58368
G1 X67.440 Y96.806 E14.65073
G1 X67.550 Y96.106 E14.66970
G1 X67.740 Y95.426 E14.68861
G1 X68.520 Y93.036 E14.75594
G1 X68.770 Y92.376 E14.77484
G1 X69.090 Y91.756 E14.79352
G1 X70.340 Y89.596 E14.86036
G1 X70.720 Y89.006 E14.87915
G1 X71.150 Y88.466 E14.89764
G1 X72.830 Y86.596 E14.96496
G1 X73.292 Y86.134 E14.98245
G1 X73.570 Y86.366 F7800.000
G1 X74.090 Y85.946 F540.000 E15.00036
G1 X76.110 Y84.476 E15.06726
G1 X76.670 Y84.116 E15.08509
G1 X77.260 Y83.806 E15.10294
G1 X79.550 Y82.786 E15.17007
G1 X80.180 Y82.546 E15.18812
G1 X80.820 Y82.376 E15.20586
G1 X83.270 Y81.856 E15.27293
G1 X83.930 Y81.756 E15.29081
G1 X84.590 Y81.716 E15.30852
G1 X87.100 Y81.716 E15.37573
G1 X87.520 Y81.736 E15.38699
G1 X117.610 Y83.706 E16.19453
G1 X118.520 Y83.826 E16.21911
G1 X120.570 Y84.266 E16.27526
G1 X121.220 Y84.446 E16.29333
G1 X121.840 Y84.686 E16.31113
G1 X123.740 Y85.536 E16.36687
G1 X124.320 Y85.826 E16.38424
G1 X124.870 Y86.186 E16.40184
G1 X126.570 Y87.416 E16.45803
G1 X127.090 Y87.836 E16.47593
G1 X127.560 Y88.306 E16.49373
G1 X128.940 Y89.836 E16.54891
G1 X129.360 Y90.356 E16.56681
G1 X129.720 Y90.906 E16.58442
G1 X130.780 Y92.736 E16.64105
G1 X131.080 Y93.336 E16.65902
G1 X131.320 Y93.956 E16.67682
G1 X131.970 Y95.946 E16.73288
G1 X132.150 Y96.606 E16.75120
G1 X132.260 Y97.276 E16.76939
G1 X132.470 Y99.356 E16.82537
G1 X132.500 Y99.996 E16.84253
G1 X132.470 Y100.636 E16.85969
G1 X132.260 Y102.716 E16.91568
G1 X132.150 Y103.386 E16.93386
G1 X131.970 Y104.046 E16.95218
G1 X131.320 Y106.036 E17.00824
G1 X131.080 Y106.666 E17.02630
G1 X130.770 Y107.266 E17.04438
G1 X129.710 Y109.086 E17.10079
G1 X129.360 Y109.626 E17.11802
G1 X128.950 Y110.126 E17.13534
G1 X127.570 Y111.666 E17.19071
G1 X127.100 Y112.146 E17.20870
G1 X126.570 Y112.576 E17.22698
G1 X124.870 Y113.806 E17.28317
G1 X124.320 Y114.166 E17.30078
G1 X123.740 Y114.456 E17.31814
G1 X121.840 Y115.306 E17.37389
G1 X121.200 Y115.556 E17.39229
G1 X120.550 Y115.726 E17.41028
G1 X118.500 Y116.156 E17.46637
G1 X117.610 Y116.276 E17.49042
G1 X87.100 Y118.276 E18.30924
G1 X84.590 Y118.276 E18.37645
G1 X83.930 Y118.236 E18.39416
G1 X83.270 Y118.136 E18.41204
G1 X80.820 Y117.616 E18.47911
G1 X80.180 Y117.446 E18.49685
G1 X79.550 Y117.206 E18.51490
G1 X77.260 Y116.186 E18.58203
G1 X76.670 Y115.876 E18.59988
G1 X76.110 Y115.516 E18.61771
G1 X74.090 Y114.046 E18.68461
G1 X73.570 Y113.626 E18.70252
G1 X73.100 Y113.156 E18.72032
G1 X71.420 Y111.286 E18.78764
G1 X71.000 Y110.766 E18.80554
G1 X70.640 Y110.206 E18.82337
G1 X69.390 Y108.036 E18.89043
G1 X69.090 Y107.456 E18.90792
G1 X68.860 Y106.846 E18.92538
G1 X68.080 Y104.466 E18.99245
G1 X67.900 Y103.816 E19.01051
G1 X67.800 Y103.146 E19.02865
G1 X67.540 Y100.656 E19.09570
G1 X67.500 Y99.996 E19.11340
G1 X67.540 Y99.336 E19.13111
G1 X67.800 Y96.846 E19.19816
G1 X67.900 Y96.186 E19.21603
G1 X68.080 Y95.536 E19.23410
G1 X68.860 Y93.146 E19.30142
G1 X69.090 Y92.526 E19.31913
G1 X69.400 Y91.936 E19.33698
G1 X70.650 Y89.776 E19.40381
G1 X71.010 Y89.216 E19.42164
G1 X71.420 Y88.706 E19.43917
G1 X73.100 Y86.836 E19.50649
G1 X73.532 Y86.404 E19.52285
G1 F1800.000 E18.52285
G92 E0
G1 X78.433 Y91.762 F7800.000
G1 F1800.000 E1.00000
G1 X80.308 Y90.400 F540.000 E1.06206
G1 X82.425 Y89.458 E1.12412
G1 X84.691 Y88.976 E1.18618
G1 X87.009 Y88.976 E1.24823
G1 X89.275 Y89.458 E1.31029
G1 X91.392 Y90.400 E1.37235
G1 X93.267 Y91.762 E1.43441
G1 X94.818 Y93.485 E1.49647
G1 X95.976 Y95.491 E1.55853
G1 X96.692 Y97.695 E1.62058
G1 X96.935 Y100.000 E1.68264
G1 X96.692 Y102.305 E1.74470
G1 X95.976 Y104.509 E1.80676
G1 X94.818 Y106.515 E1.86882
G1 X93.267 Y108.238 E1.93088
G1 X91.392 Y109.600 E1.99293
G1 X89.275 Y110.542 E2.05499
G1 X87.009 Y111.024 E2.11705
G1 X84.691 Y111.024 E2.17911
G1 X82.425 Y110.542 E2.24117
G1 X80.308 Y109.600 E2.30323
G1 X78.433 Y108.238 E2.36529
G1 X76.882 Y106.515 E2.42734
G1 X75.724 Y104.509 E2.48940
G1 X75.008 Y102.305 E2.55146
G1 X74.765 Y100.000 E2.61352
G1 X75.008 Y97.695 E2.67558
G1 X75.724 Y95.491 E2.73764
G1 X76.882 Y93.485 E2.79969
G1 X78.397 Y91.802 E2.86031
G1 X76.591 Y106.727 F7800.000
G1 X75.395 Y104.655 F540.000 E2.92439
G1 X74.656 Y102.379 E2.98846
G1 X74.405 Y100.000 E3.05253
G1 X74.656 Y97.621 E3.11661
G1 X75.395 Y95.345 E3.18068
G1 X76.591 Y93.273 E3.24475
G1 X78.192 Y91.495 E3.30882
G1 X80.128 Y90.089 E3.37290
G1 X82.313 Y89.116 E3.43697
G1 X84.654 Y88.618 E3.50104
G1 X87.046 Y88.618 E3.56512
G1 X89.387 Y89.116 E3.62919
G1 X91.572 Y90.089 E3.69326
G1 X93.508 Y91.495 E3.75734
G1 X95.109 Y93.273 E3.82141
G1 X96.305 Y95.345 E3.88548
G1 X97.044 Y97.621 E3.94955
G1 X97.295 Y100.000 E4.01363
G1 X97.044 Y102.379 E4.07770
G1 X96.305 Y104.655 E4.14177
G1 X95.109 Y106.727 E4.20585
G1 X93.508 Y108.505 E4.26992
G1 X91.572 Y109.911 E4.33399
G1 X89.387 Y110.884 E4.39806
G1 X87.046 Y111.382 E4.46214
G1 X84.654 Y111.382 E4.52621
G1 X82.313 Y110.884 E4.59028
G1 X80.128 Y109.911 E4.65436
G1 X78.192 Y108.505 E4.71843
G1 X76.627 Y106.767 E4.78106
G1 X76.300 Y106.938 F7800.000
G1 X75.066 Y104.801 F378.000 E4.84715
G1 X74.304 Y102.454 E4.91324
G1 X74.046 Y100.000 E4.97933
G1 X74.304 Y97.546 E5.04541
G1 X75.066 Y95.199 E5.11150
G1 X76.300 Y93.062 E5.17759
G1 X77.951 Y91.228 E5.24368
G1 X79.948 Y89.777 E5.30976
G1 X82.202 Y88.773 E5.37585
G1 X84.616 Y88.260 E5.44194
G1 X87.084 Y88.260 E5.50803
G1 X89.498 Y88.773 E5.57411
G1 X91.752 Y89.777 E5.64020
G1 X93.749 Y91.228 E5.70629
G1 X95.400 Y93.062 E5.77238
G1 X96.634 Y95.199 E5.83846
G1 X97.396 Y97.546 E5.90455
G1 X97.654 Y100.000 E5.97064
G1 X97.396 Y102.454 E6.03672
G1 X96.634 Y104.801 E6.10281
G1 X95.400 Y106.938 E6.16890
G1 X93.749 Y108.772 E6.23499
G1 X91.752 Y110.223 E6.30107
G1 X89.498 Y111.227 E6.36716
G1 X87.084 Y111.740 E6.43325
G1 X84.616 Y111.740 E6.49934
G1 X82.202 Y111.227 E6.56542
G1 X79.948 Y110.223 E6.63151
G1 X77.951 Y108.772 E6.69760
G1 X76.336 Y106.978 E6.76225
G1 X76.457 Y106.617 F7800.000
G1 F1800.000 E5.76225
G92 E0
G1 X107.248 Y101.892 F7800.000
G1 F1800.000 E1.00000
G1 X107.050 Y100.000 F540.000 E1.05095
G1 X107.248 Y98.108 E1.10190
G1 X107.836 Y96.299 E1.15285
G1 X108.788 Y94.651 E1.20380
G1 X110.061 Y93.237 E1.25475
G1 X111.600 Y92.119 E1.30570
G1 X113.338 Y91.345 E1.35665
G1 X115.199 Y90.949 E1.40760
G1 X117.101 Y90.949 E1.45855
G1 X118.962 Y91.345 E1.50950
G1 X120.700 Y92.119 E1.56044
G1 X122.239 Y93.237 E1.61139
G1 X123.512 Y94.651 E1.66234
G1 X124.464 Y96.299 E1.71329
G1 X125.052 Y98.108 E1.76424
G1 X125.250 Y100.000 E1.81519
G1 X125.052 Y101.892 E1.86614
G1 X124.464 Y103.701 E1.91709
G1 X123.512 Y105.349 E1.96804
G1 X122.239 Y106.763 E2.01899
G1 X120.700 Y107.881 E2.06994
G1 X118.962 Y108.655 E2.12089
G1 X117.101 Y109.051 E2.17184
G1 X115.199 Y109.051 E2.22279
G1 X113.338 Y108.655 E2.27374
G1 X111.600 Y107.881 E2.32469
G1 X110.061 Y106.763 E2.37564
G1 X108.788 Y105.349 E2.42659
G1 X107.836 Y103.701 E2.47754
G1 X107.265 Y101.943 E2.52705
G1 X119.073 Y108.997 F7800.000
G1 X117.139 Y109.408 F540.000 E2.58001
G1 X115.161 Y109.408 E2.63298
G1 X113.227 Y108.997 E2.68594
G1 X111.420 Y108.193 E2.73890
G1 X109.820 Y107.030 E2.79187
G1 X108.496 Y105.561 E2.84483
G1 X107.508 Y103.848 E2.89780
G1 X106.896 Y101.967 E2.95076
G1 X106.690 Y100.000 E3.00372
G1 X106.896 Y98.033 E3.05669
G1 X107.508 Y96.152 E3.10965
G1 X108.496 Y94.439 E3.16261
G1 X109.820 Y92.970 E3.21558
G1 X111.420 Y91.807 E3.26854
G1 X113.227 Y91.003 E3.32151
G1 X115.161 Y90.592 E3.37447
G1 X117.139 Y90.592 E3.42744
G1 X119.073 Y91.003 E3.48040
