; generated by Slic3r 0.9.10b on 2014-02-06 at 00:02:57

; layer_height = 0.4
; perimeters = 3
; top_solid_layers = 3
; bottom_solid_layers = 3
; fill_density = 0.2
; perimeter_speed = 30
; infill_speed = 60
; travel_speed = 130
; nozzle_diameter = 0.5
; filament_diameter = 1.75
; extrusion_multiplier = 1.0
; perimeters extrusion width = 0.53mm
; infill extrusion width = 0.53mm
; solid infill extrusion width = 0.53mm
; top infill extrusion width = 0.53mm
; first layer extrusion width = 0.70mm

G21 ; set units to millimeters
M107
M104 S190 ; set temperature
G28 ; home all axes
G1 Z5 F5000 ; lift nozzle
M109 S190 ; wait for temperature to be reached
G90 ; use absolute coordinates
G92 E0
M82 ; use absolute distances for extrusion
G1 F1800.000 E-1.00000
G92 E0
G1 Z0.700 F7800.000
G1 X73.350 Y34.850
G1 F1800.000 E1.00000
G1 X73.960 Y33.700 F540.000 E1.12447
G1 X74.790 Y32.690 E1.24946
G1 X75.800 Y31.860 E1.37446
G1 X76.950 Y31.250 E1.49892
G1 X78.200 Y30.870 E1.62384
G1 X79.500 Y30.740 E1.74876
G1 X120.500 Y30.740 E5.66892
G1 X121.800 Y30.870 E5.79384
G1 X123.050 Y31.250 E5.91876
G1 X124.200 Y31.860 E6.04322
G1 X125.210 Y32.690 E6.16822
G1 X126.040 Y33.700 E6.29321
G1 X126.650 Y34.850 E6.41768
G1 X127.030 Y36.100 E6.54260
G1 X127.160 Y37.400 E6.66751
G1 X127.160 Y45.400 E7.43242
G1 X127.030 Y46.700 E7.55734
G1 X126.650 Y47.950 E7.68226
G1 X126.040 Y49.100 E7.80673
G1 X125.210 Y50.110 E7.93172
G1 X124.200 Y50.940 E8.05671
G1 X123.050 Y51.550 E8.18118
G1 X121.800 Y51.930 E8.30610
G1 X120.500 Y52.060 E8.43102
G1 X79.500 Y52.060 E12.35118
G1 X78.200 Y51.930 E12.47610
G1 X76.950 Y51.550 E12.60101
G1 X75.800 Y50.940 E12.72548
G1 X74.790 Y50.110 E12.85047
G1 X73.960 Y49.100 E12.97547
G1 X73.350 Y47.950 E13.09994
G1 X72.970 Y46.700 E13.22485
G1 X72.840 Y45.400 E13.34977
G1 X72.840 Y37.400 E14.11468
G1 X72.970 Y36.100 E14.23960
G1 X73.321 Y34.944 E14.35509
G1 F1800.000 E13.35509
G92 E0
G1 X80.486 Y43.487 F7800.000
G1 F1800.000 E1.00000
G1 X119.514 Y43.487 F540.000 E4.73168
G1 X119.514 Y44.414 E4.82039
G1 X80.486 Y44.414 E8.55207
G1 X80.486 Y43.585 E8.63135
G1 X79.829 Y42.830 F7800.000
G1 X120.171 Y42.830 F378.000 E12.48869
G1 X120.171 Y45.071 E12.70304
G1 X79.829 Y45.071 E16.56038
G1 X79.829 Y42.928 E16.76531
G1 X80.398 Y43.158 F7800.000
G1 F1800.000 E15.76531
G92 E0
G1 X80.486 Y38.386 F7800.000
G1 F1800.000 E1.00000
G1 X119.514 Y38.386 F540.000 E4.73168
G1 X119.514 Y39.313 E4.82039
G1 X80.486 Y39.313 E8.55207
G1 X80.486 Y38.484 E8.63135
G1 X79.829 Y37.729 F7800.000
G1 X120.171 Y37.729 F378.000 E12.48869
G1 X120.171 Y39.970 E12.70304
G1 X79.829 Y39.970 E16.56038
G1 X79.829 Y37.827 E16.76531
G1 X80.398 Y38.057 F7800.000
M106 S650
M104 S200 ; set temperature
G1 F1800.000 E15.76531
G92 E0
G1 Z1.100 F7800.000
G1 X80.279 Y43.497
G1 F1800.000 E1.00000
G1 X119.721 Y43.497 F947.374 E4.40833
G1 X119.721 Y44.621 E4.50542
G1 X80.279 Y44.621 E7.91375
G1 X80.279 Y43.575 E8.00411
G1 X79.760 Y42.977 F7800.000
G1 X120.240 Y42.977 F663.161 E11.50224
G1 X120.240 Y45.140 E11.68914
G1 X79.760 Y45.140 E15.18728
G1 X79.760 Y43.055 E15.36745
G1 X80.210 Y43.237 F7800.000
G1 F1800.000 E14.36745
G92 E0
G1 X119.721 Y38.179 F7800.000
G1 F1800.000 E1.00000
G1 X119.721 Y39.303 F947.374 E1.09709
G1 X80.279 Y39.303 E4.50542
G1 X80.279 Y38.179 E4.60251
G1 X119.643 Y38.179 E8.00410
G1 X120.240 Y37.660 F7800.000
G1 X120.240 Y39.823 F663.161 E8.19101
G1 X79.760 Y39.823 E11.68914
G1 X79.760 Y37.660 E11.87605
G1 X120.162 Y37.660 E15.36745
G1 X119.980 Y38.110 F7800.000
G1 F1800.000 E14.36745
G92 E0
G1 X118.563 Y44.019 F7800.000
G1 F1800.000 E1.00000
G1 X118.484 Y44.098 F631.582 E1.00969
G1 X117.826 Y44.019 E1.06709
G1 X117.747 Y44.098 E1.07679
G1 X117.089 Y44.019 E1.13418
G1 X117.010 Y44.098 E1.14388
G1 X116.352 Y44.019 E1.20127
G1 X116.273 Y44.098 E1.21097
G1 X115.615 Y44.019 E1.26836
G1 X115.536 Y44.098 E1.27806
G1 X114.879 Y44.019 E1.33545
G1 X114.799 Y44.098 E1.34515
G1 X114.142 Y44.019 E1.40254
G1 X114.063 Y44.098 E1.41224
G1 X113.405 Y44.019 E1.46963
G1 X113.326 Y44.098 E1.47933
G1 X112.668 Y44.019 E1.53672
G1 X112.589 Y44.098 E1.54642
G1 X111.931 Y44.019 E1.60381
G1 X111.852 Y44.098 E1.61351
G1 X111.195 Y44.019 E1.67090
G1 X111.115 Y44.098 E1.68060
G1 X110.458 Y44.019 E1.73799
G1 X110.379 Y44.098 E1.74769
G1 X109.721 Y44.019 E1.80508
G1 X109.642 Y44.098 E1.81478
G1 X108.984 Y44.019 E1.87217
G1 X108.905 Y44.098 E1.88187
G1 X108.247 Y44.019 E1.93926
G1 X108.168 Y44.098 E1.94896
G1 X107.510 Y44.019 E2.00635
G1 X107.431 Y44.098 E2.01605
G1 X106.774 Y44.019 E2.07344
G1 X106.695 Y44.098 E2.08314
G1 X106.037 Y44.019 E2.14053
G1 X105.958 Y44.098 E2.15023
G1 X105.300 Y44.019 E2.20762
G1 X105.221 Y44.098 E2.21732
G1 X104.563 Y44.019 E2.27471
G1 X104.484 Y44.098 E2.28441
G1 X103.826 Y44.019 E2.34180
G1 X103.747 Y44.098 E2.35150
G1 X103.090 Y44.019 E2.40889
G1 X103.010 Y44.098 E2.41859
G1 X102.353 Y44.019 E2.47598
G1 X102.274 Y44.098 E2.48568
G1 X101.616 Y44.019 E2.54307
G1 X101.537 Y44.098 E2.55277
G1 X100.879 Y44.019 E2.61016
G1 X100.800 Y44.098 E2.61986
G1 X100.142 Y44.019 E2.67725
G1 X100.063 Y44.098 E2.68695
G1 X99.406 Y44.019 E2.74435
G1 X99.326 Y44.098 E2.75404
G1 X98.669 Y44.019 E2.81144
G1 X98.590 Y44.098 E2.82113
G1 X97.932 Y44.019 E2.87853
G1 X97.853 Y44.098 E2.88822
G1 X97.195 Y44.019 E2.94562
G1 X97.116 Y44.098 E2.95531
G1 X96.458 Y44.019 E3.01271
G1 X96.379 Y44.098 E3.02240
G1 X95.722 Y44.019 E3.07980
G1 X95.642 Y44.098 E3.08949
G1 X94.985 Y44.019 E3.14689
G1 X94.906 Y44.098 E3.15658
G1 X94.248 Y44.019 E3.21398
G1 X94.169 Y44.098 E3.22367
G1 X93.511 Y44.019 E3.28107
G1 X93.432 Y44.098 E3.29076
G1 X92.774 Y44.019 E3.34816
G1 X92.695 Y44.098 E3.35785
G1 X92.037 Y44.019 E3.41525
G1 X91.958 Y44.098 E3.42494
G1 X91.301 Y44.019 E3.48234
G1 X91.222 Y44.098 E3.49203
G1 X90.564 Y44.019 E3.54943
G1 X90.485 Y44.098 E3.55912
G1 X89.827 Y44.019 E3.61652
G1 X89.748 Y44.098 E3.62621
G1 X89.090 Y44.019 E3.68361
G1 X89.011 Y44.098 E3.69330
G1 X88.353 Y44.019 E3.75070
G1 X88.274 Y44.098 E3.76039
G1 X87.617 Y44.019 E3.81779
G1 X87.537 Y44.098 E3.82748
G1 X86.880 Y44.019 E3.88488
G1 X86.801 Y44.098 E3.89457
G1 X86.143 Y44.019 E3.95197
G1 X86.064 Y44.098 E3.96166
G1 X85.406 Y44.019 E4.01906
G1 X85.327 Y44.098 E4.02875
G1 X84.669 Y44.019 E4.08615
G1 X84.590 Y44.098 E4.09584
G1 X83.933 Y44.019 E4.15324
G1 X83.853 Y44.098 E4.16293
G1 X83.196 Y44.019 E4.22033
G1 X83.117 Y44.098 E4.23002
G1 X82.459 Y44.019 E4.28742
G1 X82.380 Y44.098 E4.29711
G1 X81.722 Y44.019 E4.35451
G1 X81.643 Y44.098 E4.36420
G1 X80.985 Y44.019 E4.42160
G1 X80.906 Y44.098 E4.43129
G1 F1800.000 E3.43129
G92 E0
G1 X118.723 Y38.702 F7800.000
G1 F1800.000 E1.00000
G1 X118.643 Y38.781 F631.582 E1.00967
G1 X117.986 Y38.702 F7800.000
G1 X117.907 Y38.781 F631.582 E1.01934
G1 X117.249 Y38.702 F7800.000
G1 X117.170 Y38.781 F631.582 E1.02901
G1 X116.512 Y38.702 F7800.000
G1 X116.433 Y38.781 F631.582 E1.03868
G1 X115.775 Y38.702 F7800.000
G1 X115.696 Y38.781 F631.582 E1.04835
G1 X115.038 Y38.702 F7800.000
G1 X114.959 Y38.781 F631.582 E1.05802
G1 X114.302 Y38.702 F7800.000
G1 X114.223 Y38.781 F631.582 E1.06768
G1 X113.565 Y38.702 F7800.000
G1 X113.486 Y38.781 F631.582 E1.07735
G1 X112.828 Y38.702 F7800.000
G1 X112.749 Y38.781 F631.582 E1.08702
G1 X112.091 Y38.702 F7800.000
G1 X112.012 Y38.781 F631.582 E1.09669
G1 X111.354 Y38.702 F7800.000
G1 X111.275 Y38.781 F631.582 E1.10636
G1 X110.618 Y38.702 F7800.000
G1 X110.538 Y38.781 F631.582 E1.11603
G1 X109.881 Y38.702 F7800.000
G1 X109.802 Y38.781 F631.582 E1.12570
G1 X109.144 Y38.702 F7800.000
G1 X109.065 Y38.781 F631.582 E1.13537
G1 X108.407 Y38.702 F7800.000
G1 X108.328 Y38.781 F631.582 E1.14504
G1 X107.670 Y38.702 F7800.000
G1 X107.591 Y38.781 F631.582 E1.15471
G1 X106.934 Y38.702 F7800.000
G1 X106.854 Y38.781 F631.582 E1.16438
G1 X106.197 Y38.702 F7800.000
G1 X106.118 Y38.781 F631.582 E1.17405
G1 X105.460 Y38.702 F7800.000
G1 X105.381 Y38.781 F631.582 E1.18372
G1 X104.723 Y38.702 F7800.000
G1 X104.644 Y38.781 F631.582 E1.19339
G1 X103.986 Y38.702 F7800.000
G1 X103.907 Y38.781 F631.582 E1.20306
G1 X103.249 Y38.702 F7800.000
G1 X103.170 Y38.781 F631.582 E1.21272
G1 X102.513 Y38.702 F7800.000
G1 X102.434 Y38.781 F631.582 E1.22239
G1 X101.776 Y38.702 F7800.000
G1 X101.697 Y38.781 F631.582 E1.23206
G1 X101.039 Y38.702 F7800.000
G1 X100.960 Y38.781 F631.582 E1.24173
G1 X100.302 Y38.702 F7800.000
G1 X100.223 Y38.781 F631.582 E1.25140
G1 X99.565 Y38.702 F7800.000
G1 X99.486 Y38.781 F631.582 E1.26107
G1 X98.829 Y38.702 F7800.000
G1 X98.749 Y38.781 F631.582 E1.27074
G1 X98.092 Y38.702 F7800.000
G1 X98.013 Y38.781 F631.582 E1.28041
G1 X97.355 Y38.702 F7800.000
G1 X97.276 Y38.781 F631.582 E1.29008
G1 X96.618 Y38.702 F7800.000
G1 X96.539 Y38.781 F631.582 E1.29975
G1 X95.881 Y38.702 F7800.000
G1 X95.802 Y38.781 F631.582 E1.30942
G1 X95.145 Y38.702 F7800.000
G1 X95.065 Y38.781 F631.582 E1.31909
G1 X94.408 Y38.702 F7800.000
G1 X94.329 Y38.781 F631.582 E1.32876
G1 X93.671 Y38.702 F7800.000
G1 X93.592 Y38.781 F631.582 E1.33842
G1 X92.934 Y38.702 F7800.000
G1 X92.855 Y38.781 F631.582 E1.34809
G1 X92.197 Y38.702 F7800.000
G1 X92.118 Y38.781 F631.582 E1.35776
G1 X91.461 Y38.702 F7800.000
G1 X91.381 Y38.781 F631.582 E1.36743
G1 X90.724 Y38.702 F7800.000
G1 X90.645 Y38.781 F631.582 E1.37710
G1 X89.987 Y38.702 F7800.000
G1 X89.908 Y38.781 F631.582 E1.38677
G1 X89.250 Y38.702 F7800.000
G1 X89.171 Y38.781 F631.582 E1.39644
G1 X88.513 Y38.702 F7800.000
G1 X88.434 Y38.781 F631.582 E1.40611
G1 X87.776 Y38.702 F7800.000
G1 X87.697 Y38.781 F631.582 E1.41578
G1 X87.040 Y38.702 F7800.000
G1 X86.961 Y38.781 F631.582 E1.42545
G1 X86.303 Y38.702 F7800.000
G1 X86.224 Y38.781 F631.582 E1.43512
G1 X85.566 Y38.702 F7800.000
G1 X85.487 Y38.781 F631.582 E1.44479
G1 X84.829 Y38.702 F7800.000
G1 X84.750 Y38.781 F631.582 E1.45446
G1 X84.092 Y38.702 F7800.000
G1 X84.013 Y38.781 F631.582 E1.46412
G1 X83.356 Y38.702 F7800.000
G1 X83.276 Y38.781 F631.582 E1.47379
G1 X82.619 Y38.702 F7800.000
G1 X82.540 Y38.781 F631.582 E1.48346
G1 X81.882 Y38.702 F7800.000
G1 X81.803 Y38.781 F631.582 E1.49313
G1 X81.145 Y38.702 F7800.000
G1 X81.066 Y38.781 F631.582 E1.50280
G1 F1800.000 E0.50280
G92 E0
G1 Z1.500 F7800.000
G1 X80.279 Y43.728
G1 F1800.000 E1.00000
G1 X119.721 Y43.728 F1110.668 E4.40833
G1 X119.721 Y44.621 E4.48546
G1 X80.279 Y44.621 E7.89379
G1 X80.279 Y43.806 E7.96419
G1 X79.760 Y43.208 F7800.000
G1 X120.240 Y43.208 F777.468 E11.46233
G1 X120.240 Y45.140 E11.62927
G1 X79.760 Y45.140 E15.12741
G1 X79.760 Y43.286 E15.28762
G1 X80.210 Y43.468 F7800.000
G1 F1800.000 E14.28762
G92 E0
G1 X80.279 Y39.072 F7800.000
G1 F1800.000 E1.00000
G1 X80.279 Y38.179 F1110.668 E1.07714
G1 X119.721 Y38.179 E4.48546
G1 X119.721 Y39.072 E4.56260
G1 X80.357 Y39.072 E7.96419
G1 X79.760 Y39.592 F7800.000
G1 X79.760 Y37.660 F777.468 E8.13114
G1 X120.240 Y37.660 E11.62927
G1 X120.240 Y39.592 E11.79622
G1 X79.838 Y39.592 E15.28762
G1 X80.020 Y39.142 F7800.000
G1 F1800.000 E14.28762
G92 E0
G1 X80.762 Y44.256 F7800.000
G1 F1800.000 E1.00000
G1 X80.644 Y44.138 F740.445 E1.00754
G1 X80.984 Y44.093 E1.02308
G1 X81.147 Y44.256 E1.03354
G1 X81.369 Y44.093 E1.04603
G1 X81.533 Y44.256 E1.05648
G1 X81.755 Y44.093 E1.06897
G1 X81.918 Y44.256 E1.07943
G1 X82.140 Y44.093 E1.09192
G1 X82.303 Y44.256 E1.10237
G1 X82.525 Y44.093 E1.11486
G1 X82.688 Y44.256 E1.12532
G1 X82.911 Y44.093 E1.13781
G1 X83.074 Y44.256 E1.14826
G1 X83.296 Y44.093 E1.16075
G1 X83.459 Y44.256 E1.17121
G1 X83.681 Y44.093 E1.18370
G1 X83.844 Y44.256 E1.19415
G1 X84.067 Y44.093 E1.20664
G1 X84.230 Y44.256 E1.21710
G1 X84.452 Y44.093 E1.22959
G1 X84.615 Y44.256 E1.24004
G1 X84.837 Y44.093 E1.25253
G1 X85.000 Y44.256 E1.26299
G1 X85.223 Y44.093 E1.27548
G1 X85.386 Y44.256 E1.28594
G1 X85.608 Y44.093 E1.29842
G1 X85.771 Y44.256 E1.30888
G1 X85.993 Y44.093 E1.32137
G1 X86.156 Y44.256 E1.33183
G1 X86.378 Y44.093 E1.34431
G1 X86.542 Y44.256 E1.35477
G1 X86.764 Y44.093 E1.36726
G1 X86.927 Y44.256 E1.37772
G1 X87.149 Y44.093 E1.39020
G1 X87.312 Y44.256 E1.40066
G1 X87.534 Y44.093 E1.41315
G1 X87.698 Y44.256 E1.42361
G1 X87.920 Y44.093 E1.43610
G1 X88.083 Y44.256 E1.44655
G1 X88.305 Y44.093 E1.45904
G1 X88.468 Y44.256 E1.46950
G1 X88.690 Y44.093 E1.48199
G1 X88.854 Y44.256 E1.49244
G1 X89.076 Y44.093 E1.50493
G1 X89.239 Y44.256 E1.51539
G1 X89.461 Y44.093 E1.52788
G1 X89.624 Y44.256 E1.53833
G1 X89.846 Y44.093 E1.55082
G1 X90.009 Y44.256 E1.56128
G1 X90.232 Y44.093 E1.57377
G1 X90.395 Y44.256 E1.58422
G1 X90.617 Y44.093 E1.59671
G1 X90.780 Y44.256 E1.60717
G1 X91.002 Y44.093 E1.61966
G1 X91.165 Y44.256 E1.63011
G1 X91.388 Y44.093 E1.64260
G1 X91.551 Y44.256 E1.65306
G1 X91.773 Y44.093 E1.66555
G1 X91.936 Y44.256 E1.67600
G1 X92.158 Y44.093 E1.68849
G1 X92.321 Y44.256 E1.69895
G1 X92.544 Y44.093 E1.71144
G1 X92.707 Y44.256 E1.72189
G1 X92.929 Y44.093 E1.73438
G1 X93.092 Y44.256 E1.74484
G1 X93.314 Y44.093 E1.75733
G1 X93.477 Y44.256 E1.76778
G1 X93.699 Y44.093 E1.78027
G1 X93.863 Y44.256 E1.79073
G1 X94.085 Y44.093 E1.80322
G1 X94.248 Y44.256 E1.81367
G1 X94.470 Y44.093 E1.82616
G1 X94.633 Y44.256 E1.83662
G1 X94.855 Y44.093 E1.84911
G1 X95.019 Y44.256 E1.85956
G1 X95.241 Y44.093 E1.87205
G1 X95.404 Y44.256 E1.88251
G1 X95.626 Y44.093 E1.89500
G1 X95.789 Y44.256 E1.90545
G1 X96.011 Y44.093 E1.91794
G1 X96.175 Y44.256 E1.92840
G1 X96.397 Y44.093 E1.94089
G1 X96.560 Y44.256 E1.95135
G1 X96.782 Y44.093 E1.96383
G1 X96.945 Y44.256 E1.97429
G1 X97.167 Y44.093 E1.98678
G1 X97.330 Y44.256 E1.99724
G1 X97.553 Y44.093 E2.00972
G1 X97.716 Y44.256 E2.02018
G1 X97.938 Y44.093 E2.03267
G1 X98.101 Y44.256 E2.04313
G1 X98.323 Y44.093 E2.05561
G1 X98.486 Y44.256 E2.06607
G1 X98.709 Y44.093 E2.07856
G1 X98.872 Y44.256 E2.08902
G1 X99.094 Y44.093 E2.10151
G1 X99.257 Y44.256 E2.11196
G1 X99.479 Y44.093 E2.12445
G1 X99.642 Y44.256 E2.13491
G1 X99.865 Y44.093 E2.14740
G1 X100.028 Y44.256 E2.15785
G1 X100.250 Y44.093 E2.17034
G1 X100.413 Y44.256 E2.18080
G1 X100.635 Y44.093 E2.19329
G1 X100.798 Y44.256 E2.20374
G1 X101.020 Y44.093 E2.21623
G1 X101.184 Y44.256 E2.22669
G1 X101.406 Y44.093 E2.23918
G1 X101.569 Y44.256 E2.24963
G1 X101.791 Y44.093 E2.26212
G1 X101.954 Y44.256 E2.27258
G1 X102.176 Y44.093 E2.28507
G1 X102.340 Y44.256 E2.29552
G1 X102.562 Y44.093 E2.30801
G1 X102.725 Y44.256 E2.31847
G1 X102.947 Y44.093 E2.33096
G1 X103.110 Y44.256 E2.34141
G1 X103.332 Y44.093 E2.35390
G1 X103.496 Y44.256 E2.36436
G1 X103.718 Y44.093 E2.37685
G1 X103.881 Y44.256 E2.38730
G1 X104.103 Y44.093 E2.39979
G1 X104.266 Y44.256 E2.41025
G1 X104.488 Y44.093 E2.42274
G1 X104.651 Y44.256 E2.43319
G1 X104.874 Y44.093 E2.44568
G1 X105.037 Y44.256 E2.45614
G1 X105.259 Y44.093 E2.46863
G1 X105.422 Y44.256 E2.47908
G1 X105.644 Y44.093 E2.49157
G1 X105.807 Y44.256 E2.50203
G1 X106.030 Y44.093 E2.51452
G1 X106.193 Y44.256 E2.52497
G1 X106.415 Y44.093 E2.53746
G1 X106.578 Y44.256 E2.54792
G1 X106.800 Y44.093 E2.56041
G1 X106.963 Y44.256 E2.57086
G1 X107.186 Y44.093 E2.58335
G1 X107.349 Y44.256 E2.59381
G1 X107.571 Y44.093 E2.60630
G1 X107.734 Y44.256 E2.61675
G1 X107.956 Y44.093 E2.62924
G1 X108.119 Y44.256 E2.63970
G1 X108.341 Y44.093 E2.65219
G1 X108.505 Y44.256 E2.66264
G1 X108.727 Y44.093 E2.67513
G1 X108.890 Y44.256 E2.68559
G1 X109.112 Y44.093 E2.69808
G1 X109.275 Y44.256 E2.70853
G1 X109.497 Y44.093 E2.72102
G1 X109.661 Y44.256 E2.73148
G1 X109.883 Y44.093 E2.74397
G1 X110.046 Y44.256 E2.75442
G1 X110.268 Y44.093 E2.76691
G1 X110.431 Y44.256 E2.77737
G1 X110.653 Y44.093 E2.78986
G1 X110.817 Y44.256 E2.80031
G1 X111.039 Y44.093 E2.81280
G1 X111.202 Y44.256 E2.82326
G1 X111.424 Y44.093 E2.83575
G1 X111.587 Y44.256 E2.84621
G1 X111.809 Y44.093 E2.85869
G1 X111.973 Y44.256 E2.86915
G1 X112.195 Y44.093 E2.88164
G1 X112.358 Y44.256 E2.89210
G1 X112.580 Y44.093 E2.90458
G1 X112.743 Y44.256 E2.91504
G1 X112.965 Y44.093 E2.92753
G1 X113.128 Y44.256 E2.93799
G1 X113.351 Y44.093 E2.95047
G1 X113.514 Y44.256 E2.96093
G1 X113.736 Y44.093 E2.97342
G1 X113.899 Y44.256 E2.98388
G1 X114.121 Y44.093 E2.99636
G1 X114.284 Y44.256 E3.00682
G1 X114.507 Y44.093 E3.01931
G1 X114.670 Y44.256 E3.02977
G1 X114.892 Y44.093 E3.04225
