; generated by Slic3r 0.9.10b on 2014-02-02 at 04:58:47

; layer_height = 0.5
; perimeters = 3
; top_solid_layers = 3
; bottom_solid_layers = 3
; fill_density = 0.8
; perimeter_speed = 30
; infill_speed = 60
; travel_speed = 130
; nozzle_diameter = 0.5
; filament_diameter = 1.75
; extrusion_multiplier = 1.7
; perimeters extrusion width = 0.53mm
; infill extrusion width = 0.53mm
; solid infill extrusion width = 0.53mm
; top infill extrusion width = 0.53mm
; first layer extrusion width = 0.80mm

G21 ; set units to millimeters
M107
M104 S190 ; set temperature
G28 ; home all axes
G1 Z5 F5000 ; lift nozzle
M109 S190 ; wait for temperature to be reached
G90 ; use absolute coordinates
G92 E0
M82 ; use absolute distances for extrusion
G1 F1800.000 E-1.00000
G92 E0
G1 Z0.400 F7800.000
G1 X72.472 Y73.000
G1 F1800.000 E1.00000
G1 X73.522 Y72.060 F540.000 E1.29309
G1 X74.742 Y71.350 E1.58665
G1 X76.092 Y70.910 E1.88194
G1 X77.492 Y70.760 E2.17476
G1 X122.492 Y70.760 E11.53331
G1 X123.892 Y70.910 E11.82613
G1 X125.242 Y71.350 E12.12142
G1 X126.462 Y72.060 E12.41498
G1 X127.502 Y73.000 E12.70652
G1 X128.332 Y74.150 E13.00147
G1 X139.612 Y93.790 E17.71169
G1 X139.902 Y94.360 E17.84470
G1 X140.142 Y94.960 E17.97909
G1 X140.782 Y96.830 E18.39013
G1 X141.052 Y97.900 E18.61963
G1 X141.152 Y99.010 E18.85141
G1 X141.152 Y100.980 E19.26111
G1 X141.052 Y102.090 E19.49289
G1 X140.782 Y103.160 E19.72239
G1 X140.142 Y105.030 E20.13344
G1 X139.912 Y105.630 E20.26707
G1 X139.612 Y106.200 E20.40103
G1 X128.332 Y125.850 E25.11305
G1 X127.502 Y127.000 E25.40800
G1 X126.462 Y127.940 E25.69954
G1 X125.242 Y128.650 E25.99310
G1 X123.892 Y129.090 E26.28839
G1 X122.492 Y129.240 E26.58121
G1 X77.492 Y129.240 E35.93977
G1 X76.092 Y129.090 E36.23259
G1 X74.742 Y128.650 E36.52788
G1 X73.522 Y127.940 E36.82144
G1 X72.472 Y127.000 E37.11453
G1 X71.652 Y125.850 E37.40826
G1 X60.382 Y106.200 E42.11925
G1 X60.082 Y105.630 E42.25321
G1 X59.852 Y105.030 E42.38684
G1 X59.212 Y103.160 E42.79789
G1 X58.942 Y102.090 E43.02739
G1 X58.842 Y100.980 E43.25917
G1 X58.842 Y99.010 E43.66886
G1 X58.942 Y97.900 E43.90064
G1 X59.212 Y96.830 E44.13014
G1 X59.852 Y94.960 E44.54119
G1 X60.082 Y94.360 E44.67482
G1 X60.382 Y93.790 E44.80878
G1 X71.652 Y74.150 E49.51797
G1 X72.408 Y73.090 E49.78876
G1 F1800.000 E48.78876
G92 E0
G1 X125.134 Y97.555 F7800.000
G1 F1800.000 E1.00000
G1 X127.214 Y96.043 F540.000 E1.53472
G1 X129.786 Y96.043 E2.06946
G1 X131.866 Y97.555 E2.60418
G1 X132.660 Y100.000 E3.13889
G1 X131.866 Y102.445 E3.67361
G1 X129.786 Y103.957 E4.20833
G1 X127.214 Y103.957 E4.74307
G1 X125.134 Y102.445 E5.27779
G1 X124.340 Y100.000 E5.81251
G1 X125.100 Y97.660 E6.32428
G1 X125.760 Y98.009 F7800.000
G1 X127.453 Y96.779 F540.000 E6.75958
G1 X129.547 Y96.779 E7.19490
G1 X131.240 Y98.009 E7.63020
G1 X131.887 Y100.000 E8.06551
G1 X131.240 Y101.991 E8.50082
G1 X129.547 Y103.221 E8.93612
G1 X127.453 Y103.221 E9.37144
G1 X125.760 Y101.991 E9.80674
G1 X125.113 Y100.000 E10.24204
G1 X125.726 Y98.114 E10.65440
G1 X126.480 Y98.162 F7800.000
G1 F1800.000 E9.65440
G92 E0
G1 X75.660 Y100.000 F7800.000
G1 F1800.000 E1.00000
G1 X74.866 Y102.445 F540.000 E1.53473
G1 X72.786 Y103.957 E2.06944
G1 X70.214 Y103.957 E2.60416
G1 X68.134 Y102.445 E3.13887
G1 X67.340 Y100.000 E3.67360
G1 X68.134 Y97.555 E4.20833
G1 X70.214 Y96.043 E4.74304
G1 X72.786 Y96.043 E5.27776
G1 X74.866 Y97.555 E5.81247
G1 X75.626 Y99.895 E6.32425
G1 X74.887 Y100.000 F7800.000
G1 X74.240 Y101.991 F540.000 E6.75956
G1 X72.547 Y103.221 E7.19486
G1 X70.453 Y103.221 E7.63016
G1 X68.760 Y101.991 E8.06546
G1 X68.113 Y100.000 E8.50077
G1 X68.760 Y98.009 E8.93608
G1 X70.453 Y96.779 E9.37138
G1 X72.547 Y96.779 E9.80668
G1 X74.240 Y98.009 E10.24198
G1 X74.853 Y99.895 E10.65435
G1 X74.215 Y100.299 F7800.000
G1 F1800.000 E9.65435
G92 E0
G1 X87.161 Y112.839 F7800.000
G1 F1800.000 E1.00000
G1 X87.161 Y87.161 F540.000 E6.34022
G1 X112.839 Y87.161 E11.68044
G1 X112.839 Y112.839 E17.02065
G1 X87.271 Y112.839 E22.33792
G1 X87.897 Y112.103 F7800.000
G1 X87.897 Y87.897 F540.000 E27.37217
G1 X112.103 Y87.897 E32.40642
G1 X112.103 Y112.103 E37.44066
G1 X88.007 Y112.103 E42.45196
G1 X88.632 Y111.368 F7800.000
G1 X88.632 Y88.632 F378.000 E47.18024
G1 X111.368 Y88.632 E51.90852
G1 X111.368 Y111.368 E56.63680
G1 X88.743 Y111.368 E61.34212
G1 X89.000 Y110.731 F7800.000
G1 F1800.000 E60.34212
G92 E0
G1 X79.339 Y104.161 F7800.000
G1 F1800.000 E1.00000
G1 X74.086 Y104.161 F540.000 E2.09243
G1 X74.023 Y103.967 E2.13488
G1 X75.491 Y102.900 E2.51234
G1 X76.434 Y100.000 E3.14648
G1 X75.491 Y97.100 E3.78062
G1 X74.023 Y96.033 E4.15807
G1 X74.086 Y95.839 E4.20053
G1 X79.339 Y95.839 E5.29296
G1 X79.339 Y79.339 E8.72442
G1 X120.661 Y79.339 E17.31805
G1 X120.661 Y95.839 E20.74952
G1 X125.914 Y95.839 E21.84193
G1 X125.977 Y96.033 E21.88439
G1 X124.508 Y97.100 E22.26185
G1 X123.566 Y100.000 E22.89598
G1 X124.508 Y102.900 E23.53012
G1 X125.977 Y103.967 E23.90757
G1 X125.914 Y104.161 E23.95003
G1 X120.661 Y104.161 E25.04245
G1 X120.661 Y120.661 E28.47392
G1 X79.339 Y120.661 E37.06754
G1 X79.339 Y104.271 E40.47606
G1 F1800.000 E39.47606
G92 E0
G1 X78.603 Y78.603 F7800.000
G1 F1800.000 E1.00000
G1 X121.397 Y78.603 F540.000 E9.89960
G1 X121.397 Y95.103 E13.33107
G1 X127.397 Y95.103 E14.57887
G1 X127.397 Y95.260 E14.61143
G1 X128.903 Y95.135 E14.92580
G1 X130.573 Y95.558 E15.28403
G1 X130.568 Y95.600 E15.29272
G1 X131.806 Y96.409 E15.60035
G1 X132.793 Y97.677 E15.93451
G1 X133.315 Y99.197 E16.26870
G1 X133.315 Y100.803 E16.60288
G1 X132.793 Y102.323 E16.93706
G1 X131.806 Y103.591 E17.27123
G1 X130.568 Y104.400 E17.57886
G1 X130.573 Y104.442 E17.58754
G1 X128.903 Y104.865 E17.94577
G1 X127.397 Y104.740 E18.26014
G1 X127.397 Y104.897 E18.29270
G1 X121.397 Y104.897 E19.54051
G1 X121.397 Y121.397 E22.97198
G1 X78.603 Y121.397 E31.87157
G1 X78.603 Y104.897 E35.30304
G1 X72.603 Y104.897 E36.55085
G1 X72.603 Y104.740 E36.58341
G1 X71.097 Y104.865 E36.89778
G1 X69.427 Y104.442 E37.25600
G1 X69.432 Y104.400 E37.26469
G1 X68.194 Y103.591 E37.57233
G1 X67.207 Y102.323 E37.90649
G1 X66.685 Y100.803 E38.24067
G1 X66.685 Y99.197 E38.57486
G1 X67.207 Y97.677 E38.90904
G1 X68.194 Y96.409 E39.24320
G1 X69.432 Y95.600 E39.55084
G1 X69.427 Y95.558 E39.55952
G1 X71.097 Y95.135 E39.91775
G1 X72.603 Y95.260 E40.23212
G1 X72.603 Y95.103 E40.26468
G1 X78.603 Y95.103 E41.51249
G1 X78.603 Y78.714 E44.92101
G1 X77.868 Y77.868 F7800.000
G1 X122.132 Y77.868 F378.000 E54.12657
G1 X122.132 Y94.368 E57.55804
G1 X128.132 Y94.368 E58.80585
G1 X128.132 Y94.461 E58.82523
G1 X128.965 Y94.392 E58.99895
G1 X130.760 Y94.847 E59.38420
G1 X132.311 Y95.860 E59.76943
G1 X133.449 Y97.322 E60.15465
G1 X134.050 Y99.074 E60.53989
G1 X134.050 Y100.926 E60.92513
G1 X133.449 Y102.678 E61.31037
G1 X132.311 Y104.140 E61.69559
G1 X130.760 Y105.153 E62.08083
G1 X128.965 Y105.608 E62.46607
G1 X128.132 Y105.539 E62.63979
G1 X128.132 Y105.632 E62.65917
G1 X122.132 Y105.632 E63.90698
G1 X122.132 Y122.132 E67.33845
G1 X77.868 Y122.132 E76.54402
G1 X77.868 Y105.632 E79.97549
G1 X71.868 Y105.632 E81.22329
G1 X71.868 Y105.539 E81.24267
G1 X71.035 Y105.608 E81.41639
G1 X69.240 Y105.153 E81.80163
G1 X67.689 Y104.140 E82.18687
G1 X66.551 Y102.678 E82.57209
G1 X65.950 Y100.926 E82.95733
G1 X65.950 Y99.074 E83.34258
G1 X66.551 Y97.322 E83.72782
G1 X67.689 Y95.860 E84.11304
G1 X69.240 Y94.847 E84.49827
G1 X71.035 Y94.392 E84.88352
G1 X71.868 Y94.461 E85.05723
G1 X71.868 Y94.368 E85.07662
G1 X77.868 Y94.368 E86.32442
G1 X77.868 Y77.978 E89.73294
G1 X78.505 Y78.236 F7800.000
G1 F1800.000 E88.73294
G92 E0
G1 X79.294 Y103.628 F7800.000
G1 F1800.000 E1.00000
G1 X76.669 Y101.003 F1080.000 E1.77584
G1 X76.412 Y101.792 E1.94922
G1 X78.248 Y103.628 E2.49187
G1 X77.203 Y103.628 E2.71034
G1 X76.156 Y102.581 E3.01981
G1 X75.899 Y103.370 E3.19318
G1 X76.158 Y103.628 E3.26946
G1 F1800.000 E2.26946
G92 E0
G1 X79.872 Y104.206 F7800.000
G1 F1800.000 E1.00000
G1 X86.628 Y110.962 F1080.000 E2.99653
G1 X86.628 Y109.916 E3.21499
G1 X76.925 Y100.214 E6.08258
G1 X76.627 Y98.871 E6.37003
G1 X86.628 Y108.871 E9.32556
G1 X86.628 Y107.826 E9.54402
G1 X76.124 Y97.322 E12.64824
G1 X76.220 Y96.372 E12.84774
G1 X86.628 Y106.780 E15.92373
G1 X86.628 Y105.735 E16.14220
G1 X77.265 Y96.372 E18.90923
G1 X78.311 Y96.372 E19.12769
G1 X86.628 Y104.689 E21.58577
G1 X86.628 Y103.644 E21.80424
G1 X79.356 Y96.372 E23.95336
G1 X79.872 Y95.843 E24.10785
G1 X86.628 Y102.599 E26.10438
G1 X86.628 Y101.553 E26.32285
G1 X79.872 Y94.798 E28.31938
G1 X79.872 Y93.752 E28.53784
G1 X86.628 Y100.508 E30.53437
G1 X86.628 Y99.463 E30.75283
G1 X79.872 Y92.707 E32.74936
G1 X79.872 Y91.662 E32.96783
G1 X86.628 Y98.417 E34.96436
G1 X86.628 Y97.372 E35.18282
G1 X79.872 Y90.616 E37.17935
G1 X79.872 Y89.571 E37.39782
G1 X86.628 Y96.326 E39.39435
G1 X86.628 Y95.281 E39.61281
G1 X79.872 Y88.526 E41.60934
G1 X79.872 Y87.480 E41.82780
G1 X86.628 Y94.236 E43.82433
G1 X86.628 Y93.190 E44.04280
G1 X79.872 Y86.435 E46.03933
G1 X79.872 Y85.389 E46.25779
G1 X86.628 Y92.145 E48.25432
G1 X86.628 Y91.099 E48.47278
G1 X79.872 Y84.344 E50.46931
G1 X79.872 Y83.299 E50.68778
G1 X86.628 Y90.054 E52.68431
G1 X86.628 Y89.009 E52.90277
G1 X79.872 Y82.253 E54.89930
G1 X79.872 Y81.208 E55.11776
G1 X86.628 Y87.963 E57.11429
G1 X86.628 Y86.918 E57.33276
G1 X79.872 Y80.162 E59.32929
G1 X80.627 Y79.872 E59.49836
G1 X87.383 Y86.628 E61.49489
G1 X88.428 Y86.628 E61.71335
G1 X81.673 Y79.872 E63.70988
G1 X82.718 Y79.872 E63.92835
G1 X89.474 Y86.628 E65.92488
G1 X90.519 Y86.628 E66.14334
G1 X83.764 Y79.872 E68.13987
G1 X84.809 Y79.872 E68.35833
G1 X91.564 Y86.628 E70.35486
G1 X92.610 Y86.628 E70.57333
G1 X85.854 Y79.872 E72.56986
G1 X86.900 Y79.872 E72.78832
G1 X93.655 Y86.628 E74.78485
G1 X94.701 Y86.628 E75.00331
G1 X87.945 Y79.872 E76.99984
G1 X88.991 Y79.872 E77.21831
G1 X95.746 Y86.628 E79.21484
G1 X96.791 Y86.628 E79.43330
G1 X90.036 Y79.872 E81.42983
G1 X91.081 Y79.872 E81.64829
G1 X97.837 Y86.628 E83.64482
G1 X98.882 Y86.628 E83.86329
G1 X92.127 Y79.872 E85.85982
G1 X93.172 Y79.872 E86.07828
G1 X99.928 Y86.628 E88.07481
G1 X100.973 Y86.628 E88.29328
G1 X94.217 Y79.872 E90.28980
G1 X95.263 Y79.872 E90.50827
G1 X102.018 Y86.628 E92.50480
G1 X103.064 Y86.628 E92.72326
G1 X96.308 Y79.872 E94.71979
G1 X97.354 Y79.872 E94.93826
G1 X104.109 Y86.628 E96.93479
G1 X105.154 Y86.628 E97.15325
G1 X98.399 Y79.872 E99.14978
G1 X99.444 Y79.872 E99.36824
G1 X106.200 Y86.628 E101.36477
G1 X107.245 Y86.628 E101.58324
G1 X100.490 Y79.872 E103.57977
G1 X101.535 Y79.872 E103.79823
G1 X108.291 Y86.628 E105.79476
G1 X109.336 Y86.628 E106.01322
G1 X102.581 Y79.872 E108.00975
G1 X103.626 Y79.872 E108.22822
G1 X110.381 Y86.628 E110.22475
G1 X111.427 Y86.628 E110.44321
G1 X104.671 Y79.872 E112.43974
G1 X105.717 Y79.872 E112.65821
G1 X112.472 Y86.628 E114.65474
G1 F1800.000 E113.65474
G92 E0
G1 X119.307 Y79.872 F7800.000
G1 F1800.000 E1.00000
G1 X120.128 Y80.693 F1080.000 E1.24267
G1 X120.128 Y81.739 E1.46113
G1 X118.261 Y79.872 E2.01276
G1 X117.216 Y79.872 E2.23122
G1 X120.128 Y82.784 E3.09180
G1 X120.128 Y83.830 E3.31027
G1 X116.170 Y79.872 E4.47980
G1 X115.125 Y79.872 E4.69826
G1 X120.128 Y84.875 E6.17675
G1 X120.128 Y85.920 E6.39522
G1 X114.080 Y79.872 E8.18266
G1 X113.034 Y79.872 E8.40112
G1 X120.128 Y86.966 E10.49752
G1 X120.128 Y88.011 E10.71598
G1 X111.989 Y79.872 E13.12134
G1 X110.944 Y79.872 E13.33980
G1 X120.128 Y89.056 E16.05411
G1 X120.128 Y90.102 E16.27257
G1 X109.898 Y79.872 E19.29583
G1 X108.853 Y79.872 E19.51429
G1 X120.128 Y91.147 E22.84651
G1 X120.128 Y92.193 E23.06497
G1 X107.807 Y79.872 E26.70614
G1 X106.762 Y79.872 E26.92460
G1 X120.128 Y93.238 E30.87473
G1 X120.128 Y94.283 E31.09319
G1 X113.372 Y87.528 E33.08972
G1 X113.372 Y88.573 E33.30818
G1 X120.128 Y95.329 E35.30471
G1 F1800.000 E34.30471
G92 E0
G1 X123.262 Y96.372 F7800.000
G1 F1800.000 E1.00000
G1 X123.958 Y97.068 F1080.000 E1.20573
G1 X123.702 Y97.857 E1.37910
G1 X122.217 Y96.372 E1.81802
G1 X121.171 Y96.372 E2.03648
G1 X123.445 Y98.646 E2.70860
G1 X123.189 Y99.435 E2.88197
G1 X113.372 Y89.619 E5.78326
G1 X113.372 Y90.664 E6.00173
G1 X123.149 Y100.441 E8.89111
G1 X123.652 Y101.989 E9.23135
G1 X113.372 Y91.709 E12.26941
G1 X113.372 Y92.755 E12.48788
G1 X124.155 Y103.537 E15.67461
G1 X123.200 Y103.628 E15.87510
G1 X113.372 Y93.800 E18.77956
G1 X113.372 Y94.846 E18.99803
G1 X122.154 Y103.628 E21.59354
G1 X121.109 Y103.628 E21.81200
G1 X113.372 Y95.891 E24.09856
G1 X113.372 Y96.936 E24.31702
G1 X120.128 Y103.692 E26.31355
G1 X120.128 Y104.737 E26.53201
G1 X113.372 Y97.982 E28.52854
G1 X113.372 Y99.027 E28.74701
G1 X120.128 Y105.783 E30.74354
G1 X120.128 Y106.828 E30.96200
G1 X113.372 Y100.072 E32.95853
G1 X113.372 Y101.118 E33.17699
G1 X120.128 Y107.873 E35.17352
G1 X120.128 Y108.919 E35.39199
G1 X113.372 Y102.163 E37.38852
G1 X113.372 Y103.209 E37.60698
G1 X120.128 Y109.964 E39.60351
G1 X120.128 Y111.009 E39.82197
G1 X113.372 Y104.254 E41.81850
G1 X113.372 Y105.299 E42.03697
G1 X120.128 Y112.055 E44.03350
G1 X120.128 Y113.100 E44.25196
G1 X113.372 Y106.345 E46.24849
G1 X113.372 Y107.390 E46.46695
G1 X120.128 Y114.146 E48.46348
G1 X120.128 Y115.191 E48.68195
G1 X113.372 Y108.436 E50.67848
G1 X113.372 Y109.481 E50.89694
G1 X120.128 Y116.236 E52.89347
G1 X120.128 Y117.282 E53.11193
G1 X113.372 Y110.526 E55.10846
G1 X113.372 Y111.572 E55.32693
G1 X120.128 Y118.327 E57.32346
G1 X120.128 Y119.373 E57.54192
G1 X113.372 Y112.617 E59.53845
G1 X113.082 Y113.372 E59.70752
G1 X119.838 Y120.128 E61.70405
G1 X118.792 Y120.128 E61.92252
G1 X112.037 Y113.372 E63.91905
G1 X110.991 Y113.372 E64.13751
G1 X117.747 Y120.128 E66.13404
G1 X116.701 Y120.128 E66.35250
G1 X109.946 Y113.372 E68.34903
G1 X108.901 Y113.372 E68.56750
G1 X115.656 Y120.128 E70.56403
G1 X114.611 Y120.128 E70.78249
G1 X107.855 Y113.372 E72.77902
G1 X106.810 Y113.372 E72.99748
G1 X113.565 Y120.128 E74.99401
G1 X112.520 Y120.128 E75.21248
G1 X105.764 Y113.372 E77.20901
G1 X104.719 Y113.372 E77.42747
G1 X111.474 Y120.128 E79.42400
G1 X110.429 Y120.128 E79.64246
G1 X103.674 Y113.372 E81.63899
G1 X102.628 Y113.372 E81.85746
G1 X109.384 Y120.128 E83.85399
G1 X108.338 Y120.128 E84.07245
G1 X101.583 Y113.372 E86.06898
G1 X100.537 Y113.372 E86.28744
G1 X107.293 Y120.128 E88.28397
G1 X106.248 Y120.128 E88.50244
G1 X99.492 Y113.372 E90.49897
G1 X98.447 Y113.372 E90.71743
G1 X105.202 Y120.128 E92.71396
G1 X104.157 Y120.128 E92.93243
G1 X97.401 Y113.372 E94.92896
G1 X96.356 Y113.372 E95.14742
G1 X103.111 Y120.128 E97.14395
G1 X102.066 Y120.128 E97.36241
G1 X95.311 Y113.372 E99.35894
G1 X94.265 Y113.372 E99.57741
G1 X101.021 Y120.128 E101.57394
G1 X99.975 Y120.128 E101.79240
G1 X93.220 Y113.372 E103.78893
G1 X92.174 Y113.372 E104.00739
G1 X98.930 Y120.128 E106.00392
G1 X97.884 Y120.128 E106.22239
G1 X91.129 Y113.372 E108.21892
G1 X90.084 Y113.372 E108.43738
G1 X96.839 Y120.128 E110.43391
G1 X95.794 Y120.128 E110.65237
G1 X89.038 Y113.372 E112.64890
G1 X87.993 Y113.372 E112.86737
G1 X94.748 Y120.128 E114.86390
G1 X93.703 Y120.128 E115.08236
G1 X86.947 Y113.372 E117.07889
G1 X86.628 Y113.053 F7800.000
G1 X79.872 Y106.297 F1080.000 E119.07542
G1 X79.872 Y107.342 E119.29388
G1 X92.658 Y120.128 E123.07248
G1 X91.612 Y120.128 E123.29095
G1 X79.872 Y108.388 E126.76059
G1 X79.872 Y109.433 E126.97905
G1 X90.567 Y120.128 E130.13974
G1 X89.521 Y120.128 E130.35821
G1 X79.872 Y110.479 E133.20994
G1 X79.872 Y111.524 E133.42840
G1 X88.476 Y120.128 E135.97119
G1 X87.431 Y120.128 E136.18965
G1 X79.872 Y112.569 E138.42347
G1 X79.872 Y113.615 E138.64194
G1 X86.385 Y120.128 E140.56681
G1 X85.340 Y120.128 E140.78527
G1 X79.872 Y114.660 E142.40119
G1 X79.872 Y115.705 E142.61966
G1 X84.295 Y120.128 E143.92662
G1 X83.249 Y120.128 E144.14508
G1 X79.872 Y116.751 E145.14309
G1 X79.872 Y117.796 E145.36156
G1 X82.204 Y120.128 E146.05061
G1 X81.158 Y120.128 E146.26907
G1 X79.872 Y118.842 E146.64917
G1 X79.872 Y119.887 E146.86764
G1 X80.113 Y120.128 E146.93878
G1 F1800.000 E145.93878
G92 E0
G1 X86.628 Y112.007 F7800.000
G1 F1800.000 E1.00000
G1 X79.872 Y105.252 F1080.000 E2.99653
M104 S185 ; set temperature
G1 F1800.000 E1.99653
G92 E0
