; generated by Slic3r 0.9.10b on 2014-02-26 at 21:56:59

; layer_height = 0.2
; perimeters = 2
; top_solid_layers = 3
; bottom_solid_layers = 3
; fill_density = 0.3
; perimeter_speed = 30
; infill_speed = 60
; travel_speed = 130
; nozzle_diameter = 0.35
; filament_diameter = 1.75
; extrusion_multiplier = 1.0
; perimeters extrusion width = 0.52mm
; infill extrusion width = 0.52mm
; solid infill extrusion width = 0.52mm
; top infill extrusion width = 0.52mm
; first layer extrusion width = 0.40mm

G21 ; set units to millimeters
M107 ; disable fan
M190 S60 ; wait for bed temperature to be reached
M104 S185 ; set temperature
G28 ; home all axes
G1 Z5 F5000 ; lift nozzle
M109 S185 ; wait for temperature to be reached
G90 ; use absolute coordinates
G92 E0 ; reset extrusion distance
M82 ; use absolute distances for extrusion
G1 F1800.000 E-1.00000 ; retract
G92 E0 ; reset extrusion distance
G1 Z0.200 F7800.000 ; move to next layer (0)
G1 X71.669 Y71.669 ; move to first skirt point
G1 F1800.000 E1.00000 ; compensate retraction
G1 X72.219 Y71.159 F540.000 E1.02428 ; skirt
G1 X77.149 Y67.119 E1.23059 ; skirt
G1 X77.749 Y66.679 E1.25467 ; skirt
G1 X78.379 Y66.299 E1.27848 ; skirt
G1 X83.999 Y63.299 E1.48469 ; skirt
G1 X84.669 Y62.989 E1.50858 ; skirt
G1 X85.359 Y62.739 E1.53234 ; skirt
G1 X91.449 Y60.889 E1.73835 ; skirt
G1 X92.169 Y60.709 E1.76237 ; skirt
G1 X92.909 Y60.599 E1.78659 ; skirt
G1 X99.499 Y59.959 E2.00090 ; skirt
G1 X100.739 Y59.979 E2.04104 ; skirt
G1 X107.079 Y60.599 E2.24723 ; skirt
G1 X107.809 Y60.709 E2.27113 ; skirt
G1 X108.539 Y60.889 E2.29546 ; skirt
G1 X114.629 Y62.739 E2.50148 ; skirt
G1 X115.319 Y62.989 E2.52523 ; skirt
G1 X115.989 Y63.299 E2.54913 ; skirt
G1 X121.609 Y66.299 E2.75533 ; skirt
G1 X122.239 Y66.679 E2.77915 ; skirt
G1 X122.839 Y67.119 E2.80323 ; skirt
G1 X127.769 Y71.159 E3.00954 ; skirt
G1 X128.319 Y71.669 E3.03382 ; skirt
G1 X128.829 Y72.219 E3.05809 ; skirt
G1 X132.869 Y77.149 E3.26440 ; skirt
G1 X133.309 Y77.749 E3.28849 ; skirt
G1 X133.689 Y78.379 E3.31230 ; skirt
G1 X136.689 Y83.999 E3.51850 ; skirt
G1 X136.999 Y84.669 E3.54240 ; skirt
G1 X137.249 Y85.359 E3.56615 ; skirt
G1 X139.099 Y91.449 E3.77217 ; skirt
G1 X139.279 Y92.169 E3.79619 ; skirt
G1 X139.389 Y92.899 E3.82009 ; skirt
G1 X140.019 Y99.249 E4.02663 ; skirt
G1 X140.059 Y99.999 E4.05094 ; skirt
G1 X140.019 Y100.749 E4.07525 ; skirt
G1 X139.389 Y107.089 E4.28148 ; skirt
G1 X139.279 Y107.819 E4.30537 ; skirt
G1 X139.099 Y108.539 E4.32939 ; skirt
G1 X137.249 Y114.629 E4.53541 ; skirt
G1 X136.999 Y115.319 E4.55916 ; skirt
G1 X136.689 Y115.989 E4.58306 ; skirt
G1 X133.689 Y121.609 E4.78926 ; skirt
G1 X133.309 Y122.239 E4.81308 ; skirt
G1 X132.869 Y122.839 E4.83716 ; skirt
G1 X128.829 Y127.769 E5.04347 ; skirt
G1 X128.319 Y128.319 E5.06775 ; skirt
G1 X127.769 Y128.829 E5.09202 ; skirt
G1 X122.839 Y132.869 E5.29833 ; skirt
G1 X122.239 Y133.309 E5.32242 ; skirt
G1 X121.609 Y133.689 E5.34623 ; skirt
G1 X115.989 Y136.689 E5.55243 ; skirt
G1 X115.319 Y136.999 E5.57633 ; skirt
G1 X114.629 Y137.249 E5.60008 ; skirt
G1 X108.539 Y139.099 E5.80610 ; skirt
G1 X107.819 Y139.279 E5.83012 ; skirt
G1 X107.089 Y139.389 E5.85402 ; skirt
G1 X100.749 Y140.019 E6.06024 ; skirt
G1 X99.999 Y140.059 E6.08455 ; skirt
G1 X99.249 Y140.019 E6.10886 ; skirt
G1 X92.899 Y139.389 E6.31541 ; skirt
G1 X92.169 Y139.279 E6.33930 ; skirt
G1 X91.449 Y139.099 E6.36332 ; skirt
G1 X85.359 Y137.249 E6.56934 ; skirt
G1 X84.669 Y136.999 E6.59309 ; skirt
G1 X83.999 Y136.689 E6.61699 ; skirt
G1 X78.379 Y133.689 E6.82319 ; skirt
G1 X77.749 Y133.309 E6.84701 ; skirt
G1 X77.149 Y132.869 E6.87109 ; skirt
G1 X72.219 Y128.829 E7.07740 ; skirt
G1 X71.669 Y128.319 E7.10168 ; skirt
G1 X71.159 Y127.769 E7.12595 ; skirt
G1 X67.119 Y122.839 E7.33226 ; skirt
G1 X66.679 Y122.239 E7.35635 ; skirt
G1 X66.299 Y121.609 E7.38016 ; skirt
G1 X63.299 Y115.989 E7.58636 ; skirt
G1 X62.989 Y115.319 E7.61026 ; skirt
G1 X62.739 Y114.629 E7.63401 ; skirt
G1 X60.889 Y108.539 E7.84003 ; skirt
G1 X60.709 Y107.809 E7.86437 ; skirt
G1 X60.599 Y107.079 E7.88826 ; skirt
G1 X59.979 Y100.739 E8.09445 ; skirt
G1 X59.939 Y99.999 E8.11844 ; skirt
G1 X59.979 Y99.269 E8.14210 ; skirt
G1 X60.599 Y92.919 E8.34862 ; skirt
G1 X60.709 Y92.179 E8.37283 ; skirt
G1 X60.889 Y91.449 E8.39717 ; skirt
G1 X62.739 Y85.359 E8.60318 ; skirt
G1 X62.989 Y84.669 E8.62694 ; skirt
G1 X63.299 Y83.999 E8.65083 ; skirt
G1 X66.299 Y78.379 E8.85704 ; skirt
G1 X66.679 Y77.749 E8.88085 ; skirt
G1 X67.119 Y77.149 E8.90493 ; skirt
G1 X71.159 Y72.219 E9.11124 ; skirt
G1 X71.629 Y71.712 E9.13363 ; skirt
G1 X71.939 Y71.939 F7800.000 ; move to first skirt point
G1 X72.469 Y71.469 F540.000 E9.15656 ; skirt
G1 X77.399 Y67.429 E9.36287 ; skirt
G1 X77.959 Y67.009 E9.38553 ; skirt
G1 X78.559 Y66.649 E9.40818 ; skirt
G1 X84.179 Y63.649 E9.61438 ; skirt
G1 X84.819 Y63.349 E9.63726 ; skirt
G1 X85.479 Y63.109 E9.65999 ; skirt
G1 X91.569 Y61.259 E9.86600 ; skirt
G1 X92.249 Y61.089 E9.88869 ; skirt
G1 X92.949 Y60.989 E9.91158 ; skirt
G1 X99.519 Y60.349 E10.12524 ; skirt
G1 X100.699 Y60.369 E10.16344 ; skirt
G1 X107.039 Y60.989 E10.36963 ; skirt
G1 X107.739 Y61.089 E10.39252 ; skirt
G1 X108.419 Y61.259 E10.41521 ; skirt
G1 X114.509 Y63.109 E10.62122 ; skirt
G1 X115.169 Y63.349 E10.64396 ; skirt
G1 X115.809 Y63.649 E10.66683 ; skirt
G1 X121.429 Y66.649 E10.87304 ; skirt
G1 X122.029 Y67.009 E10.89569 ; skirt
G1 X122.589 Y67.429 E10.91834 ; skirt
G1 X127.519 Y71.469 E11.12465 ; skirt
G1 X128.049 Y71.939 E11.14758 ; skirt
G1 X128.519 Y72.469 E11.17051 ; skirt
G1 X132.559 Y77.399 E11.37682 ; skirt
G1 X132.979 Y77.959 E11.39948 ; skirt
G1 X133.339 Y78.559 E11.42213 ; skirt
G1 X136.339 Y84.179 E11.62833 ; skirt
G1 X136.639 Y84.819 E11.65121 ; skirt
G1 X136.879 Y85.479 E11.67394 ; skirt
G1 X138.729 Y91.569 E11.87995 ; skirt
G1 X138.899 Y92.249 E11.90264 ; skirt
G1 X138.999 Y92.939 E11.92521 ; skirt
G1 X139.629 Y99.289 E12.13175 ; skirt
G1 X139.669 Y99.999 E12.15477 ; skirt
G1 X139.629 Y100.709 E12.17779 ; skirt
G1 X138.999 Y107.049 E12.38401 ; skirt
G1 X138.899 Y107.739 E12.40658 ; skirt
G1 X138.729 Y108.419 E12.42927 ; skirt
G1 X136.879 Y114.509 E12.63528 ; skirt
G1 X136.639 Y115.169 E12.65801 ; skirt
G1 X136.339 Y115.809 E12.68089 ; skirt
G1 X133.339 Y121.429 E12.88709 ; skirt
G1 X132.979 Y122.029 E12.90974 ; skirt
G1 X132.559 Y122.589 E12.93240 ; skirt
G1 X128.519 Y127.519 E13.13871 ; skirt
G1 X128.049 Y128.049 E13.16164 ; skirt
G1 X127.519 Y128.519 E13.18457 ; skirt
G1 X122.589 Y132.559 E13.39088 ; skirt
G1 X122.029 Y132.979 E13.41354 ; skirt
G1 X121.429 Y133.339 E13.43618 ; skirt
G1 X115.809 Y136.339 E13.64239 ; skirt
G1 X115.169 Y136.639 E13.66526 ; skirt
G1 X114.509 Y136.879 E13.68800 ; skirt
G1 X108.419 Y138.729 E13.89401 ; skirt
G1 X107.739 Y138.899 E13.91670 ; skirt
G1 X107.049 Y138.999 E13.93927 ; skirt
G1 X100.709 Y139.629 E14.14549 ; skirt
G1 X99.999 Y139.669 E14.16851 ; skirt
G1 X99.289 Y139.629 E14.19152 ; skirt
G1 X92.939 Y138.999 E14.39807 ; skirt
G1 X92.249 Y138.899 E14.42064 ; skirt
G1 X91.569 Y138.729 E14.44332 ; skirt
G1 X85.479 Y136.879 E14.64934 ; skirt
G1 X84.819 Y136.639 E14.67207 ; skirt
G1 X84.179 Y136.339 E14.69495 ; skirt
G1 X78.559 Y133.339 E14.90115 ; skirt
G1 X77.959 Y132.979 E14.92380 ; skirt
G1 X77.399 Y132.559 E14.94646 ; skirt
G1 X72.469 Y128.519 E15.15277 ; skirt
G1 X71.939 Y128.049 E15.17570 ; skirt
G1 X71.469 Y127.519 E15.19863 ; skirt
G1 X67.429 Y122.589 E15.40494 ; skirt
G1 X67.009 Y122.029 E15.42759 ; skirt
G1 X66.649 Y121.429 E15.45024 ; skirt
G1 X63.649 Y115.809 E15.65644 ; skirt
G1 X63.349 Y115.169 E15.67932 ; skirt
G1 X63.109 Y114.509 E15.70205 ; skirt
G1 X61.259 Y108.419 E15.90807 ; skirt
G1 X61.089 Y107.739 E15.93076 ; skirt
G1 X60.989 Y107.039 E15.95364 ; skirt
G1 X60.369 Y100.699 E16.15984 ; skirt
G1 X60.329 Y99.999 E16.18253 ; skirt
G1 X60.369 Y99.299 E16.20522 ; skirt
G1 X60.989 Y92.949 E16.41174 ; skirt
G1 X61.089 Y92.249 E16.43463 ; skirt
G1 X61.259 Y91.569 E16.45731 ; skirt
G1 X63.109 Y85.479 E16.66333 ; skirt
G1 X63.349 Y84.819 E16.68606 ; skirt
G1 X63.649 Y84.179 E16.70894 ; skirt
G1 X66.649 Y78.559 E16.91514 ; skirt
G1 X67.009 Y77.959 E16.93779 ; skirt
G1 X67.429 Y77.399 E16.96045 ; skirt
G1 X71.469 Y72.469 E17.16676 ; skirt
G1 X71.900 Y71.983 E17.18780 ; skirt
G1 X72.219 Y72.219 F7800.000 ; move to first skirt point
G1 X72.709 Y71.769 F540.000 E17.20933 ; skirt
G1 X77.639 Y67.729 E17.41564 ; skirt
G1 X78.179 Y67.329 E17.43739 ; skirt
G1 X78.749 Y66.989 E17.45887 ; skirt
G1 X84.369 Y63.989 E17.66508 ; skirt
G1 X84.969 Y63.709 E17.68651 ; skirt
G1 X85.589 Y63.479 E17.70791 ; skirt
G1 X91.679 Y61.629 E17.91393 ; skirt
G1 X92.329 Y61.469 E17.93559 ; skirt
G1 X92.989 Y61.369 E17.95720 ; skirt
G1 X99.189 Y60.759 E18.15885 ; skirt
G1 X99.549 Y60.739 E18.17052 ; skirt
G1 X100.659 Y60.749 E18.20645 ; skirt
G1 X106.999 Y61.369 E18.41264 ; skirt
G1 X107.659 Y61.469 E18.43425 ; skirt
G1 X108.309 Y61.629 E18.45592 ; skirt
G1 X114.399 Y63.479 E18.66193 ; skirt
G1 X115.019 Y63.709 E18.68334 ; skirt
G1 X115.619 Y63.989 E18.70477 ; skirt
G1 X121.239 Y66.989 E18.91097 ; skirt
G1 X121.809 Y67.329 E18.93245 ; skirt
G1 X122.349 Y67.729 E18.95420 ; skirt
G1 X127.279 Y71.769 E19.16051 ; skirt
G1 X127.769 Y72.219 E19.18205 ; skirt
G1 X128.219 Y72.709 E19.20358 ; skirt
G1 X132.259 Y77.639 E19.40989 ; skirt
G1 X132.659 Y78.179 E19.43164 ; skirt
G1 X132.999 Y78.749 E19.45313 ; skirt
G1 X135.999 Y84.369 E19.65933 ; skirt
G1 X136.279 Y84.969 E19.68076 ; skirt
G1 X136.509 Y85.589 E19.70216 ; skirt
G1 X138.359 Y91.679 E19.90818 ; skirt
G1 X138.519 Y92.319 E19.92953 ; skirt
G1 X138.619 Y92.979 E19.95114 ; skirt
G1 X139.249 Y99.329 E20.15768 ; skirt
G1 X139.279 Y99.999 E20.17939 ; skirt
G1 X139.249 Y100.669 E20.20110 ; skirt
G1 X138.619 Y107.009 E20.40732 ; skirt
G1 X138.519 Y107.669 E20.42893 ; skirt
G1 X138.359 Y108.309 E20.45028 ; skirt
G1 X136.509 Y114.399 E20.65630 ; skirt
G1 X136.279 Y115.019 E20.67770 ; skirt
G1 X135.999 Y115.619 E20.69913 ; skirt
G1 X132.999 Y121.239 E20.90534 ; skirt
G1 X132.659 Y121.809 E20.92682 ; skirt
G1 X132.259 Y122.349 E20.94857 ; skirt
G1 X128.219 Y127.279 E21.15488 ; skirt
G1 X127.769 Y127.769 E21.17642 ; skirt
G1 X127.279 Y128.219 E21.19795 ; skirt
G1 X122.349 Y132.259 E21.40426 ; skirt
G1 X121.809 Y132.659 E21.42601 ; skirt
G1 X121.239 Y132.999 E21.44749 ; skirt
G1 X115.619 Y135.999 E21.65370 ; skirt
G1 X115.019 Y136.279 E21.67513 ; skirt
G1 X114.399 Y136.509 E21.69653 ; skirt
G1 X108.309 Y138.359 E21.90255 ; skirt
G1 X107.669 Y138.519 E21.92390 ; skirt
G1 X107.009 Y138.619 E21.94551 ; skirt
G1 X100.669 Y139.249 E22.15173 ; skirt
G1 X99.999 Y139.279 E22.17344 ; skirt
G1 X99.329 Y139.249 E22.19515 ; skirt
G1 X92.979 Y138.619 E22.40169 ; skirt
G1 X92.319 Y138.519 E22.42330 ; skirt
G1 X91.679 Y138.359 E22.44465 ; skirt
G1 X85.589 Y136.509 E22.65067 ; skirt
G1 X84.969 Y136.279 E22.67207 ; skirt
G1 X84.369 Y135.999 E22.69350 ; skirt
G1 X78.749 Y132.999 E22.89971 ; skirt
G1 X78.179 Y132.659 E22.92119 ; skirt
G1 X77.639 Y132.259 E22.94294 ; skirt
G1 X72.709 Y128.219 E23.14925 ; skirt
G1 X72.219 Y127.769 E23.17078 ; skirt
G1 X71.769 Y127.279 E23.19232 ; skirt
G1 X67.729 Y122.349 E23.39863 ; skirt
G1 X67.329 Y121.809 E23.42038 ; skirt
G1 X66.989 Y121.239 E23.44186 ; skirt
G1 X63.989 Y115.619 E23.64806 ; skirt
G1 X63.709 Y115.019 E23.66949 ; skirt
G1 X63.479 Y114.399 E23.69090 ; skirt
G1 X61.629 Y108.309 E23.89691 ; skirt
G1 X61.469 Y107.659 E23.91858 ; skirt
G1 X61.369 Y106.999 E23.94019 ; skirt
G1 X60.749 Y100.659 E24.14638 ; skirt
G1 X60.719 Y99.999 E24.16776 ; skirt
G1 X60.749 Y99.339 E24.18915 ; skirt
G1 X61.369 Y92.989 E24.39566 ; skirt
G1 X61.469 Y92.329 E24.41727 ; skirt
G1 X61.629 Y91.679 E24.43894 ; skirt
G1 X63.479 Y85.589 E24.64495 ; skirt
G1 X63.709 Y84.969 E24.66636 ; skirt
G1 X63.989 Y84.369 E24.68779 ; skirt
G1 X66.989 Y78.749 E24.89399 ; skirt
G1 X67.329 Y78.179 E24.91547 ; skirt
G1 X67.729 Y77.639 E24.93723 ; skirt
G1 X71.769 Y72.709 E25.14353 ; skirt
G1 X72.180 Y72.262 E25.16318 ; skirt
G1 X72.489 Y72.489 F7800.000 ; move to first skirt point
G1 X72.959 Y72.069 F540.000 E25.18358 ; skirt
G1 X77.889 Y68.029 E25.38989 ; skirt
G1 X78.389 Y67.659 E25.41002 ; skirt
G1 X78.929 Y67.329 E25.43051 ; skirt
G1 X84.549 Y64.329 E25.63671 ; skirt
G1 X85.119 Y64.069 E25.65699 ; skirt
G1 X85.699 Y63.859 E25.67695 ; skirt
G1 X91.789 Y62.009 E25.88297 ; skirt
G1 X92.399 Y61.849 E25.90338 ; skirt
G1 X93.019 Y61.759 E25.92366 ; skirt
G1 X99.569 Y61.119 E26.13668 ; skirt
G1 X100.619 Y61.139 E26.17067 ; skirt
G1 X106.959 Y61.759 E26.37686 ; skirt
G1 X107.589 Y61.849 E26.39746 ; skirt
G1 X108.199 Y62.009 E26.41788 ; skirt
G1 X114.289 Y63.859 E26.62389 ; skirt
G1 X114.869 Y64.069 E26.64386 ; skirt
G1 X115.439 Y64.329 E26.66414 ; skirt
G1 X121.059 Y67.329 E26.87034 ; skirt
G1 X121.599 Y67.659 E26.89082 ; skirt
G1 X122.099 Y68.029 E26.91096 ; skirt
G1 X127.029 Y72.069 E27.11727 ; skirt
G1 X127.499 Y72.489 E27.13767 ; skirt
G1 X127.919 Y72.959 E27.15807 ; skirt
G1 X131.959 Y77.889 E27.36438 ; skirt
G1 X132.329 Y78.389 E27.38451 ; skirt
G1 X132.659 Y78.929 E27.40500 ; skirt
G1 X135.659 Y84.549 E27.61120 ; skirt
G1 X135.919 Y85.119 E27.63148 ; skirt
G1 X136.129 Y85.699 E27.65144 ; skirt
G1 X137.979 Y91.789 E27.85746 ; skirt
G1 X138.139 Y92.399 E27.87787 ; skirt
G1 X138.229 Y93.019 E27.89815 ; skirt
G1 X138.859 Y99.369 E28.10469 ; skirt
G1 X138.889 Y99.999 E28.12511 ; skirt
G1 X138.859 Y100.629 E28.14552 ; skirt
G1 X138.229 Y106.969 E28.35175 ; skirt
G1 X138.139 Y107.589 E28.37203 ; skirt
G1 X137.979 Y108.199 E28.39244 ; skirt
G1 X136.129 Y114.289 E28.59845 ; skirt
G1 X135.919 Y114.869 E28.61842 ; skirt
G1 X135.659 Y115.439 E28.63870 ; skirt
G1 X132.659 Y121.059 E28.84490 ; skirt
G1 X132.329 Y121.599 E28.86539 ; skirt
G1 X131.959 Y122.099 E28.88552 ; skirt
G1 X127.919 Y127.029 E29.09183 ; skirt
G1 X127.499 Y127.499 E29.11223 ; skirt
G1 X127.029 Y127.919 E29.13263 ; skirt
G1 X122.099 Y131.959 E29.33894 ; skirt
G1 X121.599 Y132.329 E29.35908 ; skirt
G1 X121.059 Y132.659 E29.37956 ; skirt
G1 X115.439 Y135.659 E29.58576 ; skirt
G1 X114.869 Y135.919 E29.60604 ; skirt
G1 X114.289 Y136.129 E29.62601 ; skirt
G1 X108.199 Y137.979 E29.83202 ; skirt
G1 X107.589 Y138.139 E29.85243 ; skirt
G1 X106.969 Y138.229 E29.87271 ; skirt
G1 X100.629 Y138.859 E30.07894 ; skirt
G1 X99.999 Y138.889 E30.09935 ; skirt
G1 X99.369 Y138.859 E30.11977 ; skirt
G1 X93.019 Y138.229 E30.32631 ; skirt
G1 X92.399 Y138.139 E30.34659 ; skirt
G1 X91.789 Y137.979 E30.36700 ; skirt
G1 X85.699 Y136.129 E30.57302 ; skirt
G1 X85.119 Y135.919 E30.59298 ; skirt
G1 X84.549 Y135.659 E30.61326 ; skirt
G1 X78.929 Y132.659 E30.81946 ; skirt
G1 X78.389 Y132.329 E30.83995 ; skirt
G1 X77.889 Y131.959 E30.86008 ; skirt
G1 X72.959 Y127.919 E31.06639 ; skirt
G1 X72.489 Y127.499 E31.08679 ; skirt
G1 X72.069 Y127.029 E31.10720 ; skirt
G1 X68.029 Y122.099 E31.31350 ; skirt
G1 X67.659 Y121.599 E31.33364 ; skirt
G1 X67.329 Y121.059 E31.35412 ; skirt
G1 X64.329 Y115.439 E31.56032 ; skirt
G1 X64.069 Y114.869 E31.58060 ; skirt
G1 X63.859 Y114.289 E31.60057 ; skirt
G1 X62.009 Y108.199 E31.80658 ; skirt
G1 X61.849 Y107.589 E31.82700 ; skirt
G1 X61.759 Y106.959 E31.84760 ; skirt
G1 X61.139 Y100.619 E32.05379 ; skirt
G1 X61.109 Y99.999 E32.07388 ; skirt
G1 X61.139 Y99.379 E32.09397 ; skirt
G1 X61.759 Y93.029 E32.30048 ; skirt
G1 X61.849 Y92.399 E32.32108 ; skirt
G1 X62.009 Y91.789 E32.34150 ; skirt
G1 X63.859 Y85.699 E32.54751 ; skirt
G1 X64.069 Y85.119 E32.56748 ; skirt
G1 X64.329 Y84.549 E32.58775 ; skirt
G1 X67.329 Y78.929 E32.79396 ; skirt
G1 X67.659 Y78.389 E32.81444 ; skirt
G1 X68.029 Y77.889 E32.83458 ; skirt
G1 X72.069 Y72.959 E33.04088 ; skirt
G1 X72.450 Y72.533 E33.05940 ; skirt
G1 F1800.000 E32.05940 ; retract
G92 E0 ; reset extrusion distance
G1 X101.536 Y71.382 F7800.000 ; move to first perimeter point
G1 F1800.000 E1.00000 ; compensate retraction
G1 X104.919 Y71.715 F540.000 E1.11004 ; perimeter
G1 X110.330 Y73.357 E1.29306 ; perimeter
G1 X115.316 Y76.021 E1.47602 ; perimeter
G1 X119.686 Y79.607 E1.65901 ; perimeter
G1 X123.272 Y83.977 E1.84200 ; perimeter
