; generated by Slic3r 0.9.10b on 2014-02-02 at 03:30:17

; layer_height = 0.5
; perimeters = 3
; top_solid_layers = 3
; bottom_solid_layers = 3
; fill_density = 0.8
; perimeter_speed = 30
; infill_speed = 60
; travel_speed = 130
; nozzle_diameter = 0.5
; filament_diameter = 1.75
; extrusion_multiplier = 1.5
; perimeters extrusion width = 0.53mm
; infill extrusion width = 0.53mm
; solid infill extrusion width = 0.53mm
; top infill extrusion width = 0.53mm
; first layer extrusion width = 0.80mm

G21 ; set units to millimeters
M107
M104 S190 ; set temperature
G28 ; home all axes
G1 Z5 F5000 ; lift nozzle
M109 S190 ; wait for temperature to be reached
G90 ; use absolute coordinates
G92 E0
M82 ; use absolute distances for extrusion
G1 F1800.000 E-1.00000
G92 E0
G1 Z0.400 F7800.000
G1 X49.780 Y34.480
G1 F1800.000 E1.00000
G1 X50.140 Y33.990 F540.000 E1.11157
G1 X50.920 Y33.020 E1.33998
G1 X51.410 Y32.480 E1.47378
G1 X51.950 Y31.990 E1.60759
G1 X52.920 Y31.210 E1.83599
G1 X53.410 Y30.850 E1.94757
G1 X53.930 Y30.540 E2.05866
G1 X55.020 Y29.950 E2.28610
G1 X55.650 Y29.650 E2.41414
G1 X56.290 Y29.420 E2.53893
G1 X57.490 Y29.060 E2.76883
G1 X58.130 Y28.900 E2.88989
G1 X58.780 Y28.810 E3.01030
G1 X60.010 Y28.690 E3.23708
G1 X60.660 Y28.650 E3.35658
G1 X132.970 Y28.650 E16.62554
G1 X133.620 Y28.690 E16.74504
G1 X136.100 Y28.930 E17.20225
G1 X136.750 Y29.020 E17.32266
G1 X137.390 Y29.180 E17.44372
G1 X139.780 Y29.900 E17.90175
G1 X140.420 Y30.130 E18.02655
G1 X141.030 Y30.420 E18.15049
G1 X143.220 Y31.600 E18.60698
G1 X143.770 Y31.930 E18.72468
G1 X144.280 Y32.300 E18.84030
G1 X146.210 Y33.870 E19.29683
G1 X146.720 Y34.340 E19.42410
G1 X147.190 Y34.850 E19.55136
G1 X148.760 Y36.780 E20.00790
G1 X149.130 Y37.290 E20.12352
G1 X149.460 Y37.840 E20.24122
G1 X150.640 Y40.030 E20.69771
G1 X150.930 Y40.640 E20.82165
G1 X151.160 Y41.280 E20.94645
G1 X151.880 Y43.670 E21.40448
G1 X152.040 Y44.290 E21.52198
G1 X152.130 Y44.930 E21.64058
G1 X152.380 Y47.400 E22.09614
G1 X152.420 Y48.080 E22.22114
G1 X152.420 Y151.900 E41.27221
G1 X152.380 Y152.580 E41.39721
G1 X152.130 Y155.060 E41.85460
G1 X152.030 Y155.700 E41.97346
G1 X151.880 Y156.330 E42.09230
G1 X151.150 Y158.740 E42.55438
G1 X150.920 Y159.380 E42.67917
G1 X150.630 Y159.990 E42.80312
G1 X149.460 Y162.160 E43.25550
G1 X149.130 Y162.700 E43.37163
G1 X148.760 Y163.210 E43.48725
G1 X147.190 Y165.140 E43.94379
G1 X146.720 Y165.650 E44.07106
G1 X146.210 Y166.120 E44.19832
G1 X144.280 Y167.690 E44.65486
G1 X143.770 Y168.060 E44.77048
G1 X143.220 Y168.390 E44.88818
G1 X141.030 Y169.570 E45.34467
G1 X140.420 Y169.860 E45.46861
G1 X139.780 Y170.090 E45.59340
G1 X137.390 Y170.810 E46.05144
G1 X136.770 Y170.970 E46.16894
G1 X136.130 Y171.060 E46.28753
G1 X133.650 Y171.310 E46.74492
G1 X132.970 Y171.350 E46.86992
G1 X60.660 Y171.350 E60.13888
G1 X59.950 Y171.310 E60.26937
G1 X58.720 Y171.180 E60.49633
G1 X58.100 Y171.080 E60.61157
G1 X57.490 Y170.930 E60.72684
G1 X56.290 Y170.570 E60.95674
G1 X55.650 Y170.340 E61.08154
G1 X55.020 Y170.040 E61.20958
G1 X53.930 Y169.450 E61.43702
G1 X53.410 Y169.140 E61.54811
G1 X52.920 Y168.780 E61.65968
G1 X51.950 Y168.000 E61.88809
G1 X51.410 Y167.510 E62.02189
G1 X50.920 Y166.970 E62.15570
G1 X50.140 Y166.000 E62.38410
G1 X49.770 Y165.500 E62.49824
G1 X49.450 Y164.960 E62.61342
G1 X48.860 Y163.860 E62.84248
G1 X48.580 Y163.260 E62.96398
G1 X48.350 Y162.630 E63.08704
G1 X47.990 Y161.440 E63.31518
G1 X47.830 Y160.800 E63.43624
G1 X47.740 Y160.140 E63.55847
G1 X47.620 Y158.900 E63.78708
G1 X47.580 Y158.250 E63.90658
G1 X47.580 Y41.730 E85.28811
G1 X47.620 Y41.080 E85.40762
G1 X47.740 Y39.850 E85.63439
G1 X47.830 Y39.200 E85.75481
G1 X47.990 Y38.560 E85.87586
G1 X48.350 Y37.360 E86.10576
G1 X48.580 Y36.720 E86.23055
G1 X48.880 Y36.090 E86.35860
G1 X49.470 Y35.000 E86.58603
G1 X49.723 Y34.575 E86.67688
G1 F1800.000 E85.67688
G92 E0
G1 X59.792 Y106.934 F7800.000
G1 F1800.000 E1.00000
G1 X60.760 Y106.839 F540.000 E1.17862
G1 X132.890 Y106.839 E14.41441
G1 X135.097 Y107.056 E14.82144
G1 X137.133 Y107.674 E15.21183
G1 X139.009 Y108.677 E15.60219
G1 X140.654 Y110.026 E15.99258
G1 X142.003 Y111.671 E16.38295
G1 X143.006 Y113.547 E16.77332
G1 X143.624 Y115.583 E17.16371
G1 X143.841 Y117.790 E17.57073
G1 X143.841 Y151.820 E23.81515
G1 X143.624 Y154.027 E24.22217
G1 X143.006 Y156.063 E24.61256
G1 X142.003 Y157.939 E25.00293
G1 X140.654 Y159.584 E25.39330
G1 X139.009 Y160.933 E25.78370
G1 X137.133 Y161.936 E26.17407
G1 X135.097 Y162.554 E26.56445
G1 X132.890 Y162.771 E26.97147
G1 X60.760 Y162.771 E40.20727
G1 X59.792 Y162.676 E40.38588
G1 X58.947 Y162.419 E40.54783
G1 X58.169 Y162.003 E40.70979
G1 X57.487 Y161.443 E40.87174
G1 X56.927 Y160.761 E41.03368
G1 X56.511 Y159.983 E41.19564
G1 X56.254 Y159.138 E41.35759
G1 X56.159 Y158.170 E41.53619
G1 X56.159 Y111.440 E50.11107
G1 X56.254 Y110.472 E50.28967
G1 X56.511 Y109.627 E50.45162
G1 X56.927 Y108.849 E50.61358
G1 X57.487 Y108.167 E50.77552
G1 X58.169 Y107.607 E50.93748
G1 X58.947 Y107.191 E51.09943
G1 X59.686 Y106.966 E51.24113
G1 F1800.000 E50.24113
G92 E0
G1 X55.529 Y159.282 F7800.000
G1 F1800.000 E1.00000
G1 X55.423 Y158.206 F540.000 E1.19853
G1 X55.423 Y111.404 E9.78667
G1 X55.529 Y110.327 E9.98520
G1 X55.828 Y109.344 E10.17374
G1 X56.312 Y108.438 E10.36229
G1 X56.964 Y107.644 E10.55082
G1 X57.758 Y106.992 E10.73937
G1 X58.664 Y106.508 E10.92791
G1 X59.647 Y106.209 E11.11644
G1 X60.724 Y106.103 E11.31499
G1 X132.926 Y106.103 E24.56404
G1 X135.241 Y106.331 E24.99100
G1 X137.416 Y106.991 E25.40797
G1 X139.420 Y108.062 E25.82493
G1 X141.176 Y109.504 E26.24191
G1 X142.618 Y111.260 E26.65887
G1 X143.689 Y113.264 E27.07583
G1 X144.349 Y115.439 E27.49281
G1 X144.577 Y117.754 E27.91976
G1 X144.577 Y151.856 E34.17744
G1 X144.349 Y154.171 E34.60439
G1 X143.689 Y156.346 E35.02137
G1 X142.618 Y158.350 E35.43833
G1 X141.176 Y160.106 E35.85529
G1 X139.420 Y161.548 E36.27228
G1 X137.416 Y162.619 E36.68923
G1 X135.241 Y163.279 E37.10620
G1 X132.926 Y163.507 E37.53316
G1 X60.724 Y163.507 E50.78221
G1 X59.647 Y163.401 E50.98076
G1 X58.664 Y163.102 E51.16930
G1 X57.758 Y162.618 E51.35784
G1 X56.964 Y161.966 E51.54638
G1 X56.312 Y161.172 E51.73491
G1 X55.828 Y160.266 E51.92346
G1 X55.562 Y159.388 E52.09175
G1 X54.804 Y159.427 F7800.000
G1 X54.688 Y158.242 F378.000 E52.31021
G1 X54.688 Y111.368 E60.91161
G1 X54.804 Y110.183 E61.13007
G1 X55.145 Y109.061 E61.34520
G1 X55.697 Y108.027 E61.56033
G1 X56.441 Y107.121 E61.77546
G1 X57.347 Y106.377 E61.99059
G1 X58.381 Y105.825 E62.20572
G1 X59.503 Y105.485 E62.42085
G1 X60.688 Y105.368 E62.63932
G1 X132.962 Y105.368 E75.90164
G1 X135.386 Y105.607 E76.34852
G1 X137.699 Y106.308 E76.79209
G1 X139.830 Y107.448 E77.23563
G1 X141.699 Y108.981 E77.67920
G1 X143.232 Y110.850 E78.12275
G1 X144.372 Y112.981 E78.56631
G1 X145.074 Y115.295 E79.00988
G1 X145.312 Y117.718 E79.45675
G1 X145.312 Y151.892 E85.72769
G1 X145.074 Y154.315 E86.17457
G1 X144.372 Y156.629 E86.61814
G1 X143.232 Y158.760 E87.06169
G1 X141.699 Y160.629 E87.50524
G1 X139.830 Y162.162 E87.94882
G1 X137.699 Y163.302 E88.39236
G1 X135.386 Y164.004 E88.83593
G1 X132.962 Y164.242 E89.28280
G1 X60.688 Y164.242 E102.54512
G1 X59.503 Y164.126 E102.76359
G1 X58.381 Y163.785 E102.97873
G1 X57.347 Y163.232 E103.19386
G1 X56.441 Y162.489 E103.40899
G1 X55.697 Y161.583 E103.62411
G1 X55.145 Y160.549 E103.83925
G1 X54.837 Y159.532 E104.03413
G1 X55.373 Y158.960 F7800.000
G1 F1800.000 E103.03413
G92 E0
G1 X60.760 Y93.161 F7800.000
G1 F1800.000 E1.00000
G1 X59.792 Y93.066 F540.000 E1.17860
G1 X58.947 Y92.809 E1.34055
G1 X58.169 Y92.393 E1.50251
G1 X57.487 Y91.833 E1.66446
G1 X56.927 Y91.151 E1.82640
G1 X56.511 Y90.373 E1.98836
G1 X56.254 Y89.528 E2.15031
G1 X56.159 Y88.560 E2.32891
G1 X56.159 Y41.830 E10.90379
G1 X56.254 Y40.862 E11.08239
G1 X56.511 Y40.017 E11.24435
G1 X56.927 Y39.239 E11.40630
G1 X57.487 Y38.557 E11.56824
G1 X58.169 Y37.997 E11.73019
G1 X58.947 Y37.581 E11.89215
G1 X59.792 Y37.324 E12.05410
G1 X60.760 Y37.229 E12.23270
G1 X132.890 Y37.229 E25.46851
G1 X135.097 Y37.446 E25.87553
G1 X137.133 Y38.064 E26.26592
G1 X139.009 Y39.067 E26.65628
G1 X140.654 Y40.416 E27.04667
G1 X142.003 Y42.061 E27.43705
G1 X143.006 Y43.937 E27.82742
G1 X143.624 Y45.973 E28.21781
G1 X143.841 Y48.180 E28.62483
G1 X143.841 Y82.210 E34.86925
G1 X143.624 Y84.417 E35.27627
G1 X143.006 Y86.453 E35.66666
G1 X142.003 Y88.329 E36.05703
G1 X140.654 Y89.974 E36.44741
G1 X139.009 Y91.323 E36.83779
G1 X137.133 Y92.326 E37.22816
G1 X135.114 Y92.942 E37.61556
G1 X132.890 Y93.161 E38.02563
G1 X60.871 Y93.161 E51.24119
G1 F1800.000 E50.24119
G92 E0
G1 X55.423 Y88.596 F7800.000
G1 F1800.000 E1.00000
G1 X55.423 Y41.794 F540.000 E9.58814
G1 X55.529 Y40.718 E9.78667
G1 X55.828 Y39.734 E9.97521
G1 X56.312 Y38.828 E10.16376
G1 X56.964 Y38.034 E10.35229
G1 X57.758 Y37.382 E10.54083
G1 X58.664 Y36.898 E10.72937
G1 X59.648 Y36.599 E10.91792
G1 X60.724 Y36.493 E11.11645
G1 X132.926 Y36.493 E24.36551
G1 X135.241 Y36.721 E24.79246
G1 X137.416 Y37.381 E25.20944
G1 X139.420 Y38.452 E25.62640
G1 X141.176 Y39.894 E26.04337
G1 X142.618 Y41.650 E26.46035
G1 X143.689 Y43.654 E26.87730
G1 X144.349 Y45.829 E27.29428
G1 X144.577 Y48.144 E27.72123
G1 X144.577 Y82.246 E33.97891
G1 X144.349 Y84.561 E34.40586
G1 X143.689 Y86.736 E34.82284
G1 X142.618 Y88.740 E35.23979
G1 X141.176 Y90.496 E35.65677
G1 X139.420 Y91.938 E36.07374
G1 X137.416 Y93.009 E36.49070
G1 X135.241 Y93.669 E36.90767
G1 X132.926 Y93.897 E37.33463
G1 X60.724 Y93.897 E50.58369
G1 X59.648 Y93.791 E50.78222
G1 X58.664 Y93.492 E50.97077
G1 X57.758 Y93.008 E51.15931
G1 X56.964 Y92.356 E51.34785
G1 X56.312 Y91.562 E51.53638
G1 X55.828 Y90.656 E51.72493
G1 X55.529 Y89.672 E51.91347
G1 X55.434 Y88.706 E52.09175
G1 X54.688 Y88.632 F7800.000
G1 X54.688 Y41.758 F378.000 E60.69315
G1 X54.804 Y40.573 E60.91161
G1 X55.145 Y39.451 E61.12674
G1 X55.697 Y38.417 E61.34188
G1 X56.441 Y37.511 E61.55700
G1 X57.347 Y36.768 E61.77213
G1 X58.381 Y36.215 E61.98726
G1 X59.503 Y35.874 E62.20240
G1 X60.688 Y35.758 E62.42086
G1 X132.962 Y35.758 E75.68318
G1 X135.385 Y35.996 E76.13006
G1 X137.699 Y36.698 E76.57363
G1 X139.830 Y37.838 E77.01717
G1 X141.699 Y39.371 E77.46074
G1 X143.232 Y41.240 E77.90431
G1 X144.372 Y43.371 E78.34785
G1 X145.074 Y45.685 E78.79142
G1 X145.312 Y48.108 E79.23830
G1 X145.312 Y82.282 E85.50924
G1 X145.074 Y84.705 E85.95611
G1 X144.372 Y87.019 E86.39968
G1 X143.232 Y89.150 E86.84323
G1 X141.699 Y91.019 E87.28679
G1 X139.830 Y92.552 E87.73036
G1 X137.699 Y93.692 E88.17391
G1 X135.385 Y94.394 E88.61747
G1 X132.962 Y94.632 E89.06435
G1 X60.688 Y94.632 E102.32668
G1 X59.503 Y94.516 E102.54514
G1 X58.381 Y94.175 E102.76027
G1 X57.347 Y93.622 E102.97540
G1 X56.441 Y92.879 E103.19053
G1 X55.697 Y91.973 E103.40565
G1 X55.145 Y90.939 E103.62079
G1 X54.804 Y89.817 E103.83592
G1 X54.699 Y88.742 E104.03413
G1 X55.312 Y88.243 F7800.000
G1 F1800.000 E103.03413
G92 E0
G1 X59.888 Y162.147 F7800.000
G1 F1800.000 E1.00000
G1 X56.783 Y159.042 F1080.000 E1.80810
G1 X56.692 Y157.909 E2.01738
G1 X61.021 Y162.238 E3.14400
G1 X62.065 Y162.238 E3.33600
G1 X56.692 Y156.865 E4.73414
G1 X56.692 Y155.822 E4.92614
G1 X63.108 Y162.238 E6.59581
G1 X64.151 Y162.238 E6.78780
G1 X56.692 Y154.779 E8.72900
G1 X56.692 Y153.736 E8.92099
G1 X65.194 Y162.238 E11.13371
G1 X66.238 Y162.238 E11.32570
G1 X56.692 Y152.692 E13.80994
G1 X56.692 Y151.649 E14.00193
G1 X67.281 Y162.238 E16.75769
G1 X68.324 Y162.238 E16.94969
G1 X56.692 Y150.606 E19.97697
G1 X56.692 Y149.562 E20.16897
G1 X69.368 Y162.238 E23.46777
G1 X70.411 Y162.238 E23.65977
G1 X56.692 Y148.519 E27.23009
G1 X56.692 Y147.476 E27.42209
G1 X71.454 Y162.238 E31.26394
G1 X72.498 Y162.238 E31.45593
G1 X56.692 Y146.432 E35.56931
G1 X56.692 Y145.389 E35.76130
G1 X73.541 Y162.238 E40.14620
G1 X74.584 Y162.238 E40.33819
G1 X56.692 Y144.346 E44.99461
G1 X56.692 Y143.303 E45.18660
G1 X75.627 Y162.238 E50.11454
G1 X76.671 Y162.238 E50.30654
G1 X56.692 Y142.259 E55.50600
G1 X56.692 Y141.216 E55.69799
G1 X77.714 Y162.238 E61.16898
G1 X78.757 Y162.238 E61.36097
G1 X56.692 Y140.173 E67.10348
G1 X56.692 Y139.129 E67.29547
G1 X79.801 Y162.238 E73.30950
G1 X80.844 Y162.238 E73.50150
G1 X56.692 Y138.086 E79.78705
G1 X56.692 Y137.043 E79.97905
G1 X81.887 Y162.238 E86.53612
G1 X82.931 Y162.238 E86.72811
G1 X56.692 Y135.999 E93.55671
G1 X56.692 Y134.956 E93.74871
G1 X83.974 Y162.238 E100.84882
G1 X85.017 Y162.238 E101.04082
G1 X56.692 Y133.913 E108.41246
G1 X56.692 Y132.870 E108.60445
G1 X86.060 Y162.238 E116.24762
G1 X87.104 Y162.238 E116.43961
G1 X56.692 Y131.826 E124.35430
G1 X56.692 Y130.783 E124.54629
G1 X88.147 Y162.238 E132.73250
G1 X89.190 Y162.238 E132.92450
G1 X56.692 Y129.740 E141.38223
G1 X56.692 Y128.696 E141.57422
G1 X90.234 Y162.238 E150.30348
G1 X91.277 Y162.238 E150.49547
G1 X56.692 Y127.653 E159.49625
G1 X56.692 Y126.610 E159.68824
G1 X92.320 Y162.238 E168.96054
G1 X93.364 Y162.238 E169.15254
G1 X56.692 Y125.566 E178.69636
G1 X56.692 Y124.523 E178.88835
G1 X94.407 Y162.238 E188.70369
G1 X95.450 Y162.238 E188.89569
G1 X56.692 Y123.480 E198.98255
G1 X56.692 Y122.436 E199.17455
G1 X96.493 Y162.238 E209.53294
G1 X97.537 Y162.238 E209.72493
G1 X56.692 Y121.393 E220.35484
G1 X56.692 Y120.350 E220.54684
G1 X98.580 Y162.238 E231.44827
G1 X99.623 Y162.238 E231.64026
G1 X56.692 Y119.307 E242.81322
G1 X56.692 Y118.263 E243.00521
G1 X100.667 Y162.238 E254.44969
G1 X101.710 Y162.238 E254.64169
G1 X56.692 Y117.220 E266.35769
G1 X56.692 Y116.177 E266.54968
G1 X102.753 Y162.238 E278.53720
G1 X103.797 Y162.238 E278.72920
G1 X56.692 Y115.133 E290.98824
G1 X56.692 Y114.090 E291.18024
G1 X104.840 Y162.238 E303.71081
G1 X105.883 Y162.238 E303.90280
G1 X56.692 Y113.047 E316.70489
G1 X56.692 Y112.003 E316.89688
G1 X106.927 Y162.238 E329.97050
G1 X107.970 Y162.238 E330.16249
G1 X56.738 Y111.006 E343.49581
G1 X56.913 Y110.138 E343.65877
G1 X109.013 Y162.238 E357.21797
G1 X110.056 Y162.238 E357.40997
G1 X57.230 Y109.412 E371.15810
G1 X57.659 Y108.797 E371.29600
G1 X111.100 Y162.238 E385.20411
G1 X112.143 Y162.238 E385.39611
G1 X58.187 Y108.282 E399.43835
G1 X58.815 Y107.866 E399.57689
G1 X113.186 Y162.238 E413.72728
G1 X114.230 Y162.238 E413.91927
G1 X59.555 Y107.563 E428.14843
G1 X60.441 Y107.406 E428.31406
G1 X115.273 Y162.238 E442.58411
G1 X116.316 Y162.238 E442.77611
G1 X61.451 Y107.372 E457.05501
G1 X62.494 Y107.372 E457.24700
G1 X117.360 Y162.238 E471.52591
G1 X118.403 Y162.238 E471.71790
G1 X63.537 Y107.372 E485.99680
G1 X64.581 Y107.372 E486.18880
G1 X119.446 Y162.238 E500.46770
G1 X120.489 Y162.238 E500.65969
G1 X65.624 Y107.372 E514.93860
G1 X66.667 Y107.372 E515.13059
G1 X121.533 Y162.238 E529.40949
G1 X122.576 Y162.238 E529.60149
G1 X67.711 Y107.372 E543.88039
G1 X68.754 Y107.372 E544.07239
G1 X123.619 Y162.238 E558.35129
G1 X124.663 Y162.238 E558.54328
G1 X69.797 Y107.372 E572.82218
G1 X70.840 Y107.372 E573.01418
G1 X125.706 Y162.238 E587.29308
G1 X126.749 Y162.238 E587.48508
G1 X71.884 Y107.372 E601.76398
G1 X72.927 Y107.372 E601.95597
G1 X127.793 Y162.238 E616.23487
G1 X128.836 Y162.238 E616.42687
G1 X73.970 Y107.372 E630.70577
G1 X75.014 Y107.372 E630.89777
G1 X129.879 Y162.238 E645.17667
G1 X130.922 Y162.238 E645.36866
G1 X76.057 Y107.372 E659.64756
G1 X77.100 Y107.372 E659.83956
G1 X131.966 Y162.238 E674.11846
G1 X132.996 Y162.225 E674.30807
G1 X78.144 Y107.372 E688.58357
G1 X79.187 Y107.372 E688.77557
G1 X133.946 Y162.131 E703.02673
G1 X134.896 Y162.038 E703.20236
G1 X80.230 Y107.372 E717.42917
G1 X81.273 Y107.372 E717.62117
G1 X135.711 Y161.810 E731.78876
G1 X136.512 Y161.567 E731.94270
G1 X82.317 Y107.372 E746.04710
G1 X83.360 Y107.372 E746.23909
G1 X137.254 Y161.267 E760.26523
G1 X137.934 Y160.903 E760.40710
G1 X84.403 Y107.372 E774.33865
G1 X85.447 Y107.372 E774.53065
G1 X138.614 Y160.540 E788.36762
G1 X139.202 Y160.085 E788.50449
G1 X86.490 Y107.372 E802.22305
G1 X87.533 Y107.372 E802.41504
G1 X139.775 Y159.614 E816.01122
G1 X140.335 Y159.131 E816.14735
G1 X88.577 Y107.372 E829.61770
G1 X89.620 Y107.372 E829.80969
G1 X140.806 Y158.558 E843.13090
G1 X141.276 Y157.985 E843.26732
G1 X90.663 Y107.372 E856.43940
