; generated by Slic3r 0.9.10b on 2014-01-28 at 01:28:39

; layer_height = 0.5
; perimeters = 3
; top_solid_layers = 3
; bottom_solid_layers = 3
; fill_density = 0.8
; perimeter_speed = 30
; infill_speed = 60
; travel_speed = 130
; nozzle_diameter = 0.5
; filament_diameter = 1.71
; extrusion_multiplier = 2.0
; perimeters extrusion width = 0.53mm
; infill extrusion width = 0.53mm
; solid infill extrusion width = 0.53mm
; top infill extrusion width = 0.53mm
; first layer extrusion width = 0.80mm

G21 ; set units to millimeters
M107
M104 S190 ; set temperature
G28 ; home all axes
G1 Z5 F5000 ; lift nozzle
M109 S190 ; wait for temperature to be reached
G90 ; use absolute coordinates
G92 E0
M82 ; use absolute distances for extrusion
G1 F1800.000 E-1.00000
G92 E0
G1 Z0.900 F7800.000
G1 X49.780 Y34.480
G1 F1800.000 E1.00000
G1 X50.140 Y33.990 F540.000 E1.15581
G1 X50.920 Y33.020 E1.47476
G1 X51.410 Y32.480 E1.66161
G1 X51.950 Y31.990 E1.84846
G1 X52.920 Y31.210 E2.16742
G1 X53.410 Y30.850 E2.32322
G1 X53.930 Y30.540 E2.47835
G1 X55.020 Y29.950 E2.79596
G1 X55.650 Y29.650 E2.97476
G1 X56.290 Y29.420 E3.14903
G1 X57.490 Y29.060 E3.47007
G1 X58.130 Y28.900 E3.63911
G1 X58.780 Y28.810 E3.80726
G1 X60.010 Y28.690 E4.12395
G1 X60.660 Y28.650 E4.29082
G1 X132.970 Y28.650 E22.82014
G1 X133.620 Y28.690 E22.98702
G1 X136.100 Y28.930 E23.62548
G1 X136.750 Y29.020 E23.79363
G1 X137.390 Y29.180 E23.96268
G1 X139.780 Y29.900 E24.60230
G1 X140.420 Y30.130 E24.77657
G1 X141.030 Y30.420 E24.94964
G1 X143.220 Y31.600 E25.58711
G1 X143.770 Y31.930 E25.75146
G1 X144.280 Y32.300 E25.91292
G1 X146.210 Y33.870 E26.55045
G1 X146.720 Y34.340 E26.72817
G1 X147.190 Y34.850 E26.90589
G1 X148.760 Y36.780 E27.54342
G1 X149.130 Y37.290 E27.70487
G1 X149.460 Y37.840 E27.86923
G1 X150.640 Y40.030 E28.50669
G1 X150.930 Y40.640 E28.67977
G1 X151.160 Y41.280 E28.85404
G1 X151.880 Y43.670 E29.49366
G1 X152.040 Y44.290 E29.65774
G1 X152.130 Y44.930 E29.82335
G1 X152.380 Y47.400 E30.45952
G1 X152.420 Y48.080 E30.63407
G1 X152.420 Y151.900 E57.23777
G1 X152.380 Y152.580 E57.41232
G1 X152.130 Y155.060 E58.05104
G1 X152.030 Y155.700 E58.21703
G1 X151.880 Y156.330 E58.38297
G1 X151.150 Y158.740 E59.02824
G1 X150.920 Y159.380 E59.20251
G1 X150.630 Y159.990 E59.37559
G1 X149.460 Y162.160 E60.00732
G1 X149.130 Y162.700 E60.16949
G1 X148.760 Y163.210 E60.33094
G1 X147.190 Y165.140 E60.96847
G1 X146.720 Y165.650 E61.14619
G1 X146.210 Y166.120 E61.32391
G1 X144.280 Y167.690 E61.96144
G1 X143.770 Y168.060 E62.12290
G1 X143.220 Y168.390 E62.28725
G1 X141.030 Y169.570 E62.92472
G1 X140.420 Y169.860 E63.09779
G1 X139.780 Y170.090 E63.27206
G1 X137.390 Y170.810 E63.91168
G1 X136.770 Y170.970 E64.07576
G1 X136.130 Y171.060 E64.24137
G1 X133.650 Y171.310 E64.88009
G1 X132.970 Y171.350 E65.05464
G1 X60.660 Y171.350 E83.58396
G1 X59.950 Y171.310 E83.76618
G1 X58.720 Y171.180 E84.08312
G1 X58.100 Y171.080 E84.24405
G1 X57.490 Y170.930 E84.40502
G1 X56.290 Y170.570 E84.72606
G1 X55.650 Y170.340 E84.90032
G1 X55.020 Y170.040 E85.07913
G1 X53.930 Y169.450 E85.39673
G1 X53.410 Y169.140 E85.55186
G1 X52.920 Y168.780 E85.70767
G1 X51.950 Y168.000 E86.02662
G1 X51.410 Y167.510 E86.21347
G1 X50.920 Y166.970 E86.40033
G1 X50.140 Y166.000 E86.71928
G1 X49.770 Y165.500 E86.87867
G1 X49.450 Y164.960 E87.03952
G1 X48.860 Y163.860 E87.35937
G1 X48.580 Y163.260 E87.52904
G1 X48.350 Y162.630 E87.70090
G1 X47.990 Y161.440 E88.01948
G1 X47.830 Y160.800 E88.18853
G1 X47.740 Y160.140 E88.35922
G1 X47.620 Y158.900 E88.67845
G1 X47.580 Y158.250 E88.84533
G1 X47.580 Y41.730 E118.70338
G1 X47.620 Y41.080 E118.87026
G1 X47.740 Y39.850 E119.18694
G1 X47.830 Y39.200 E119.35509
G1 X47.990 Y38.560 E119.52414
G1 X48.350 Y37.360 E119.84518
G1 X48.580 Y36.720 E120.01945
G1 X48.880 Y36.090 E120.19825
G1 X49.470 Y35.000 E120.51585
G1 X49.723 Y34.575 E120.64271
G1 F1800.000 E119.64271
G92 E0
G1 X59.792 Y106.934 F7800.000
G1 F1800.000 E1.00000
G1 X60.760 Y106.839 F540.000 E1.24943
G1 X132.890 Y106.839 E19.73244
G1 X135.097 Y107.056 E20.30082
G1 X137.133 Y107.674 E20.84598
G1 X139.009 Y108.677 E21.39110
G1 X140.654 Y110.026 E21.93626
G1 X142.003 Y111.671 E22.48138
G1 X143.006 Y113.547 E23.02652
G1 X143.624 Y115.583 E23.57167
G1 X143.841 Y117.790 E24.14005
G1 X143.841 Y151.820 E32.86001
G1 X143.624 Y154.027 E33.42840
G1 X143.006 Y156.063 E33.97355
G1 X142.003 Y157.939 E34.51868
G1 X140.654 Y159.584 E35.06381
G1 X139.009 Y160.933 E35.60898
G1 X137.133 Y161.936 E36.15410
G1 X135.097 Y162.554 E36.69924
G1 X132.890 Y162.771 E37.26763
G1 X60.760 Y162.771 E55.75064
G1 X59.792 Y162.676 E56.00006
G1 X58.947 Y162.419 E56.22621
G1 X58.169 Y162.003 E56.45238
G1 X57.487 Y161.443 E56.67854
G1 X56.927 Y160.761 E56.90467
G1 X56.511 Y159.983 E57.13084
G1 X56.254 Y159.138 E57.35699
G1 X56.159 Y158.170 E57.60640
G1 X56.159 Y111.440 E69.58071
G1 X56.254 Y110.472 E69.83012
G1 X56.511 Y109.627 E70.05628
G1 X56.927 Y108.849 E70.28244
G1 X57.487 Y108.167 E70.50858
G1 X58.169 Y107.607 E70.73474
G1 X58.947 Y107.191 E70.96090
G1 X59.686 Y106.966 E71.15877
G1 F1800.000 E70.15877
G92 E0
G1 X142.618 Y158.350 F7800.000
G1 F1800.000 E1.00000
G1 X141.176 Y160.106 F540.000 E1.58226
G1 X139.420 Y161.548 E2.16456
G1 X137.416 Y162.619 E2.74681
G1 X135.241 Y163.279 E3.32909
G1 X132.926 Y163.507 E3.92530
G1 X60.724 Y163.507 E22.42683
G1 X59.647 Y163.401 E22.70408
G1 X58.664 Y163.102 E22.96737
G1 X57.758 Y162.618 E23.23066
G1 X56.964 Y161.966 E23.49395
G1 X56.312 Y161.172 E23.75721
G1 X55.828 Y160.266 E24.02051
G1 X55.529 Y159.282 E24.28380
G1 X55.423 Y158.206 E24.56103
G1 X55.423 Y111.404 E36.55386
G1 X55.529 Y110.327 E36.83110
G1 X55.828 Y109.344 E37.09439
G1 X56.312 Y108.438 E37.35768
G1 X56.964 Y107.644 E37.62096
G1 X57.758 Y106.992 E37.88425
G1 X58.664 Y106.508 E38.14753
G1 X59.647 Y106.209 E38.41082
G1 X60.724 Y106.103 E38.68807
G1 X132.926 Y106.103 E57.18960
G1 X135.241 Y106.331 E57.78581
G1 X137.416 Y106.991 E58.36810
G1 X139.420 Y108.062 E58.95035
G1 X141.176 Y109.504 E59.53264
G1 X142.618 Y111.260 E60.11489
G1 X143.689 Y113.264 E60.69716
G1 X144.349 Y115.439 E61.27945
G1 X144.577 Y117.754 E61.87565
G1 X144.577 Y151.856 E70.61413
G1 X144.349 Y154.171 E71.21035
G1 X143.689 Y156.346 E71.79263
G1 X142.670 Y158.252 E72.34662
G1 X143.232 Y158.760 F7800.000
G1 X141.699 Y160.629 F378.000 E72.96602
G1 X139.830 Y162.162 E73.58545
G1 X137.699 Y163.302 E74.20483
G1 X135.386 Y164.004 E74.82424
G1 X132.962 Y164.242 E75.44828
G1 X60.688 Y164.242 E93.96832
G1 X59.503 Y164.126 E94.27341
G1 X58.381 Y163.785 E94.57382
G1 X57.347 Y163.232 E94.87424
G1 X56.441 Y162.489 E95.17466
G1 X55.697 Y161.583 E95.47506
G1 X55.145 Y160.549 E95.77550
G1 X54.804 Y159.427 E96.07591
G1 X54.688 Y158.242 E96.38097
G1 X54.688 Y111.368 E108.39232
G1 X54.804 Y110.183 E108.69739
G1 X55.145 Y109.061 E108.99780
G1 X55.697 Y108.027 E109.29822
G1 X56.441 Y107.121 E109.59864
G1 X57.347 Y106.377 E109.89906
G1 X58.381 Y105.825 E110.19947
G1 X59.503 Y105.485 E110.49989
G1 X60.688 Y105.368 E110.80497
G1 X132.962 Y105.368 E129.32502
G1 X135.386 Y105.607 E129.94906
G1 X137.699 Y106.308 E130.56847
G1 X139.830 Y107.448 E131.18786
G1 X141.699 Y108.981 E131.80728
G1 X143.232 Y110.850 E132.42667
G1 X144.372 Y112.981 E133.04607
G1 X145.074 Y115.295 E133.66549
G1 X145.312 Y117.718 E134.28952
G1 X145.312 Y151.892 E143.04651
G1 X145.074 Y154.315 E143.67055
G1 X144.372 Y156.629 E144.28997
G1 X143.284 Y158.663 E144.88109
G1 X142.500 Y158.688 F7800.000
G1 F1800.000 E143.88109
G92 E0
G1 X135.114 Y92.942 F7800.000
G1 F1800.000 E1.00000
G1 X132.890 Y93.161 F540.000 E1.57264
G1 X60.760 Y93.161 E20.05566
G1 X59.792 Y93.066 E20.30506
G1 X58.947 Y92.809 E20.53122
G1 X58.169 Y92.393 E20.75738
G1 X57.487 Y91.833 E20.98354
G1 X56.927 Y91.151 E21.20968
G1 X56.511 Y90.373 E21.43584
G1 X56.254 Y89.528 E21.66200
G1 X56.159 Y88.560 E21.91141
G1 X56.159 Y41.830 E33.88571
G1 X56.254 Y40.862 E34.13512
G1 X56.511 Y40.017 E34.36128
G1 X56.927 Y39.239 E34.58744
G1 X57.487 Y38.557 E34.81358
G1 X58.169 Y37.997 E35.03974
G1 X58.947 Y37.581 E35.26590
G1 X59.792 Y37.324 E35.49206
G1 X60.760 Y37.229 E35.74147
G1 X132.890 Y37.229 E54.22449
G1 X135.097 Y37.446 E54.79287
G1 X137.133 Y38.064 E55.33802
G1 X139.009 Y39.067 E55.88315
G1 X140.654 Y40.416 E56.42830
G1 X142.003 Y42.061 E56.97344
G1 X143.006 Y43.937 E57.51857
G1 X143.624 Y45.973 E58.06372
G1 X143.841 Y48.180 E58.63211
G1 X143.841 Y82.210 E67.35206
G1 X143.624 Y84.417 E67.92045
G1 X143.006 Y86.453 E68.46560
G1 X142.003 Y88.329 E69.01073
G1 X140.654 Y89.974 E69.55587
G1 X139.009 Y91.323 E70.10102
G1 X137.133 Y92.326 E70.64615
G1 X135.216 Y92.908 E71.15947
G1 F1800.000 E70.15947
G92 E0
G1 X55.529 Y89.672 F7800.000
G1 F1800.000 E1.00000
G1 X55.423 Y88.596 F540.000 E1.27724
G1 X55.423 Y41.794 E13.27006
G1 X55.529 Y40.718 E13.54730
G1 X55.828 Y39.734 E13.81059
G1 X56.312 Y38.828 E14.07388
G1 X56.964 Y38.034 E14.33715
G1 X57.758 Y37.382 E14.60044
G1 X58.664 Y36.898 E14.86373
G1 X59.648 Y36.599 E15.12702
G1 X60.724 Y36.493 E15.40426
G1 X132.926 Y36.493 E33.90580
G1 X135.241 Y36.721 E34.50201
G1 X137.416 Y37.381 E35.08429
G1 X139.420 Y38.452 E35.66655
G1 X141.176 Y39.894 E36.24883
G1 X142.618 Y41.650 E36.83111
G1 X143.689 Y43.654 E37.41336
G1 X144.349 Y45.829 E37.99565
G1 X144.577 Y48.144 E38.59186
G1 X144.577 Y82.246 E47.33034
G1 X144.349 Y84.561 E47.92655
G1 X143.689 Y86.736 E48.50883
G1 X142.618 Y88.740 E49.09109
G1 X141.176 Y90.496 E49.67337
G1 X139.420 Y91.938 E50.25565
G1 X137.416 Y93.009 E50.83791
G1 X135.241 Y93.669 E51.42019
G1 X132.926 Y93.897 E52.01640
G1 X60.724 Y93.897 E70.51794
G1 X59.648 Y93.791 E70.79518
G1 X58.664 Y93.492 E71.05847
G1 X57.758 Y93.008 E71.32176
G1 X56.964 Y92.356 E71.58504
G1 X56.312 Y91.562 E71.84831
G1 X55.828 Y90.656 E72.11161
G1 X55.562 Y89.778 E72.34662
G1 X54.804 Y89.817 F7800.000
G1 X54.688 Y88.632 F378.000 E72.65168
G1 X54.688 Y41.758 E84.66303
G1 X54.804 Y40.573 E84.96810
G1 X55.145 Y39.451 E85.26851
G1 X55.697 Y38.417 E85.56894
G1 X56.441 Y37.511 E85.86935
G1 X57.347 Y36.768 E86.16976
G1 X58.381 Y36.215 E86.47018
G1 X59.503 Y35.874 E86.77060
G1 X60.688 Y35.758 E87.07567
G1 X132.962 Y35.758 E105.59573
G1 X135.385 Y35.996 E106.21977
G1 X137.699 Y36.698 E106.83918
G1 X139.830 Y37.838 E107.45857
G1 X141.699 Y39.371 E108.07798
G1 X143.232 Y41.240 E108.69739
G1 X144.372 Y43.371 E109.31678
G1 X145.074 Y45.685 E109.93620
G1 X145.312 Y48.108 E110.56023
G1 X145.312 Y82.282 E119.31723
G1 X145.074 Y84.705 E119.94127
G1 X144.372 Y87.019 E120.56069
G1 X143.232 Y89.150 E121.18007
G1 X141.699 Y91.019 E121.79948
G1 X139.830 Y92.552 E122.41890
G1 X137.699 Y93.692 E123.03828
G1 X135.385 Y94.394 E123.65770
G1 X132.962 Y94.632 E124.28174
G1 X60.688 Y94.632 E142.80180
G1 X59.503 Y94.516 E143.10686
G1 X58.381 Y94.175 E143.40728
G1 X57.347 Y93.622 E143.70770
G1 X56.441 Y92.879 E144.00812
G1 X55.697 Y91.973 E144.30852
G1 X55.145 Y90.939 E144.60895
G1 X54.837 Y89.922 E144.88109
G1 X55.373 Y89.350 F7800.000
G1 F1800.000 E143.88109
G92 E0
G1 X59.888 Y162.147 F7800.000
G1 F1800.000 E1.00000
G1 X56.783 Y159.042 F1080.000 E2.12846
G1 X56.692 Y157.909 E2.42071
G1 X61.021 Y162.238 E3.99397
G1 X62.065 Y162.238 E4.26208
G1 X56.692 Y156.865 E6.21451
G1 X56.692 Y155.822 E6.48262
G1 X63.108 Y162.238 E8.81422
G1 X64.151 Y162.238 E9.08233
G1 X56.692 Y154.779 E11.79309
G1 X56.692 Y153.736 E12.06120
G1 X65.194 Y162.238 E15.15112
G1 X66.238 Y162.238 E15.41923
G1 X56.692 Y152.692 E18.88833
G1 X56.692 Y151.649 E19.15644
G1 X67.281 Y162.238 E23.00469
G1 X68.324 Y162.238 E23.27280
G1 X56.692 Y150.606 E27.50022
G1 X56.692 Y149.562 E27.76833
G1 X69.368 Y162.238 E32.37492
G1 X70.411 Y162.238 E32.64303
G1 X56.692 Y148.519 E37.62878
G1 X56.692 Y147.476 E37.89689
G1 X71.454 Y162.238 E43.26181
G1 X72.498 Y162.238 E43.52992
G1 X56.692 Y146.432 E49.27400
G1 X56.692 Y145.389 E49.54211
G1 X73.541 Y162.238 E55.66535
G1 X74.584 Y162.238 E55.93346
G1 X56.692 Y144.346 E62.43588
G1 X56.692 Y143.303 E62.70399
G1 X75.627 Y162.238 E69.58556
G1 X76.671 Y162.238 E69.85367
G1 X56.692 Y142.259 E77.11441
G1 X56.692 Y141.216 E77.38253
G1 X77.714 Y162.238 E85.02243
G1 X78.757 Y162.238 E85.29054
G1 X56.692 Y140.173 E93.30961
G1 X56.692 Y139.129 E93.57772
G1 X79.801 Y162.238 E101.97596
G1 X80.844 Y162.238 E102.24407
G1 X56.692 Y138.086 E111.02147
G1 X56.692 Y137.043 E111.28958
G1 X81.887 Y162.238 E120.44615
G1 X82.931 Y162.238 E120.71426
G1 X56.692 Y135.999 E130.24999
G1 X56.692 Y134.956 E130.51810
G1 X83.974 Y162.238 E140.43300
G1 X85.017 Y162.238 E140.70111
G1 X56.692 Y133.913 E150.99517
G1 X56.692 Y132.870 E151.26328
G1 X86.060 Y162.238 E161.93651
G1 X87.104 Y162.238 E162.20462
G1 X56.692 Y131.826 E173.25701
G1 X56.692 Y130.783 E173.52512
G1 X88.147 Y162.238 E184.95668
G1 X89.190 Y162.238 E185.22479
G1 X56.692 Y129.740 E197.03551
G1 X56.692 Y128.696 E197.30362
G1 X90.234 Y162.238 E209.49351
G1 X91.277 Y162.238 E209.76162
G1 X56.692 Y127.653 E222.33067
G1 X56.692 Y126.610 E222.59878
G1 X92.320 Y162.238 E235.54700
G1 X93.364 Y162.238 E235.81511
G1 X56.692 Y125.566 E249.14249
G1 X56.692 Y124.523 E249.41060
G1 X94.407 Y162.238 E263.11715
G1 X95.450 Y162.238 E263.38526
G1 X56.692 Y123.480 E277.47097
G1 X56.692 Y122.436 E277.73908
G1 X96.493 Y162.238 E292.20396
G1 X97.537 Y162.238 E292.47207
G1 X56.692 Y121.393 E307.31611
G1 X56.692 Y120.350 E307.58422
G1 X98.580 Y162.238 E322.80743
G1 X99.623 Y162.238 E323.07554
G1 X56.692 Y119.307 E338.67791
G1 X56.692 Y118.263 E338.94602
G1 X100.667 Y162.238 E354.92756
G1 X101.710 Y162.238 E355.19567
G1 X56.692 Y117.220 E371.55637
G1 X56.692 Y116.177 E371.82448
G1 X102.753 Y162.238 E388.56435
G1 X103.797 Y162.238 E388.83246
G1 X56.692 Y115.133 E405.95149
G1 X56.692 Y114.090 E406.21960
G1 X104.840 Y162.238 E423.71780
G1 X105.883 Y162.238 E423.98591
G1 X56.692 Y113.047 E441.86327
G1 X56.692 Y112.003 E442.13138
G1 X106.927 Y162.238 E460.38791
G1 X107.970 Y162.238 E460.65602
G1 X56.738 Y111.006 E479.27522
G1 X56.913 Y110.138 E479.50277
G1 X109.013 Y162.238 E498.43741
G1 X110.056 Y162.238 E498.70552
G1 X57.230 Y109.412 E517.90397
G1 X57.659 Y108.797 E518.09655
G1 X111.100 Y162.238 E537.51840
G1 X112.143 Y162.238 E537.78651
G1 X58.187 Y108.282 E557.39567
G1 X58.815 Y107.866 E557.58914
G1 X113.186 Y162.238 E577.34932
G1 X114.230 Y162.238 E577.61743
G1 X59.555 Y107.563 E597.48762
G1 X60.441 Y107.406 E597.71890
G1 X115.273 Y162.238 E617.64619
G1 X116.316 Y162.238 E617.91430
G1 X61.451 Y107.372 E637.85395
G1 X62.494 Y107.372 E638.12206
G1 X117.360 Y162.238 E658.06170
G1 X118.403 Y162.238 E658.32981
G1 X63.537 Y107.372 E678.26945
G1 X64.581 Y107.372 E678.53756
G1 X119.446 Y162.238 E698.47721
G1 X120.489 Y162.238 E698.74532
G1 X65.624 Y107.372 E718.68496
G1 X66.667 Y107.372 E718.95307
G1 X121.533 Y162.238 E738.89272
G1 X122.576 Y162.238 E739.16083
G1 X67.711 Y107.372 E759.10047
G1 X68.754 Y107.372 E759.36858
G1 X123.619 Y162.238 E779.30823
G1 X124.663 Y162.238 E779.57634
G1 X69.797 Y107.372 E799.51598
G1 X70.840 Y107.372 E799.78409
G1 X125.706 Y162.238 E819.72374
G1 X126.749 Y162.238 E819.99185
G1 X71.884 Y107.372 E839.93149
G1 X72.927 Y107.372 E840.19960
G1 X127.793 Y162.238 E860.13925
G1 X128.836 Y162.238 E860.40736
G1 X73.970 Y107.372 E880.34700
G1 X75.014 Y107.372 E880.61511
G1 X129.879 Y162.238 E900.55475
G1 X130.922 Y162.238 E900.82286
G1 X76.057 Y107.372 E920.76251
G1 X77.100 Y107.372 E921.03062
G1 X131.966 Y162.238 E940.97026
G1 X132.996 Y162.225 E941.23504
G1 X78.144 Y107.372 E961.16994
G1 X79.187 Y107.372 E961.43805
G1 X133.946 Y162.131 E981.33896
G1 X134.896 Y162.038 E981.58421
G1 X80.230 Y107.372 E1001.45112
G1 X81.273 Y107.372 E1001.71923
G1 X135.711 Y161.810 E1021.50344
G1 X136.512 Y161.567 E1021.71841
G1 X82.317 Y107.372 E1041.41437
G1 X83.360 Y107.372 E1041.68248
G1 X137.254 Y161.267 E1061.26915
G1 X137.934 Y160.903 E1061.46726
G1 X84.403 Y107.372 E1080.92185
G1 X85.447 Y107.372 E1081.18996
G1 X138.614 Y160.540 E1100.51248
G1 X139.202 Y160.085 E1100.70361
G1 X86.490 Y107.372 E1119.86077
G1 X87.533 Y107.372 E1120.12888
G1 X139.775 Y159.614 E1139.11514
G1 X140.335 Y159.131 E1139.30523
G1 X88.577 Y107.372 E1158.11578
G1 X89.620 Y107.372 E1158.38389
