; generated by Slic3r 0.9.10b on 2014-03-26 at 22:11:28

; layer_height = 0.4
; perimeters = 2
; top_solid_layers = 3
; bottom_solid_layers = 3
; fill_density = 0.2
; perimeter_speed = 30
; infill_speed = 60
; travel_speed = 130
; nozzle_diameter = 0.4
; filament_diameter = 1.75
; extrusion_multiplier = 1.1
; perimeters extrusion width = 0.42mm
; infill extrusion width = 0.42mm
; solid infill extrusion width = 0.42mm
; top infill extrusion width = 0.42mm
; first layer extrusion width = 0.70mm

G21 ; set units to millimeters
M107 ; disable fan
M190 S60 ; wait for bed temperature to be reached
M104 S175 ; set temperature
G28 ; home all axes
G1 Z5 F5000 ; lift nozzle
M109 S175 ; wait for temperature to be reached
G90 ; use absolute coordinates
G92 E0 ; reset extrusion distance
M82 ; use absolute distances for extrusion
G1 F1800.000 E-1.00000 ; retract
G92 E0 ; reset extrusion distance
G1 Z-0.350 F7800.000 ; move to next layer (0)
G1 X55.730 Y87.600 ; move to first skirt point
G1 F1800.000 E1.00000 ; compensate retraction
G1 X57.080 Y86.970 F540.000 E1.15157 ; skirt
G1 X58.520 Y86.590 E1.30309 ; skirt
G1 X60.000 Y86.460 E1.45424 ; skirt
G1 X140.000 Y86.460 E9.59345 ; skirt
G1 X141.480 Y86.590 E9.74460 ; skirt
G1 X142.920 Y86.970 E9.89612 ; skirt
G1 X144.270 Y87.600 E10.04769 ; skirt
G1 X145.490 Y88.460 E10.19956 ; skirt
G1 X146.540 Y89.510 E10.35063 ; skirt
G1 X147.400 Y90.730 E10.50249 ; skirt
G1 X148.030 Y92.080 E10.65406 ; skirt
G1 X148.410 Y93.520 E10.80558 ; skirt
G1 X148.540 Y95.000 E10.95674 ; skirt
G1 X148.540 Y105.000 E11.97414 ; skirt
G1 X148.410 Y106.480 E12.12529 ; skirt
G1 X148.030 Y107.920 E12.27682 ; skirt
G1 X147.400 Y109.270 E12.42838 ; skirt
G1 X146.540 Y110.490 E12.58025 ; skirt
G1 X145.490 Y111.540 E12.73132 ; skirt
G1 X144.270 Y112.400 E12.88318 ; skirt
G1 X142.920 Y113.030 E13.03475 ; skirt
G1 X141.480 Y113.410 E13.18627 ; skirt
G1 X140.000 Y113.540 E13.33743 ; skirt
G1 X60.000 Y113.540 E21.47663 ; skirt
G1 X58.520 Y113.410 E21.62779 ; skirt
G1 X57.080 Y113.030 E21.77931 ; skirt
G1 X55.730 Y112.400 E21.93088 ; skirt
G1 X54.510 Y111.540 E22.08274 ; skirt
G1 X53.460 Y110.490 E22.23382 ; skirt
G1 X52.600 Y109.270 E22.38568 ; skirt
G1 X51.970 Y107.920 E22.53725 ; skirt
G1 X51.590 Y106.480 E22.68877 ; skirt
G1 X51.460 Y105.000 E22.83992 ; skirt
G1 X51.460 Y95.000 E23.85732 ; skirt
G1 X51.590 Y93.520 E24.00848 ; skirt
G1 X51.970 Y92.080 E24.16000 ; skirt
G1 X52.600 Y90.730 E24.31157 ; skirt
G1 X53.460 Y89.510 E24.46343 ; skirt
G1 X54.510 Y88.460 E24.61451 ; skirt
G1 X55.652 Y87.655 E24.75667 ; skirt
G1 X56.050 Y88.150 F7800.000 ; move to first skirt point
G1 X57.300 Y87.570 F540.000 E24.89687 ; skirt
G1 X58.630 Y87.210 E25.03705 ; skirt
G1 X60.000 Y87.090 E25.17697 ; skirt
G1 X140.000 Y87.090 E33.31617 ; skirt
G1 X141.370 Y87.210 E33.45609 ; skirt
G1 X142.700 Y87.570 E33.59627 ; skirt
G1 X143.950 Y88.150 E33.73647 ; skirt
G1 X145.080 Y88.940 E33.87675 ; skirt
G1 X146.060 Y89.920 E34.01775 ; skirt
G1 X146.850 Y91.050 E34.15803 ; skirt
G1 X147.430 Y92.300 E34.29823 ; skirt
G1 X147.790 Y93.630 E34.43841 ; skirt
G1 X147.910 Y95.000 E34.57833 ; skirt
G1 X147.910 Y105.000 E35.59573 ; skirt
G1 X147.790 Y106.370 E35.73565 ; skirt
G1 X147.430 Y107.700 E35.87583 ; skirt
G1 X146.850 Y108.950 E36.01603 ; skirt
G1 X146.060 Y110.080 E36.15630 ; skirt
G1 X145.080 Y111.060 E36.29731 ; skirt
G1 X143.950 Y111.850 E36.43758 ; skirt
G1 X142.700 Y112.430 E36.57778 ; skirt
G1 X141.370 Y112.790 E36.71797 ; skirt
G1 X140.000 Y112.910 E36.85788 ; skirt
G1 X60.000 Y112.910 E44.99709 ; skirt
G1 X58.630 Y112.790 E45.13700 ; skirt
G1 X57.300 Y112.430 E45.27719 ; skirt
G1 X56.050 Y111.850 E45.41739 ; skirt
G1 X54.920 Y111.060 E45.55766 ; skirt
G1 X53.940 Y110.080 E45.69867 ; skirt
G1 X53.150 Y108.950 E45.83894 ; skirt
G1 X52.570 Y107.700 E45.97914 ; skirt
G1 X52.210 Y106.370 E46.11932 ; skirt
G1 X52.090 Y105.000 E46.25924 ; skirt
G1 X52.090 Y95.000 E47.27664 ; skirt
G1 X52.210 Y93.630 E47.41656 ; skirt
G1 X52.570 Y92.300 E47.55674 ; skirt
G1 X53.150 Y91.050 E47.69694 ; skirt
G1 X53.940 Y89.920 E47.83722 ; skirt
G1 X54.920 Y88.940 E47.97822 ; skirt
G1 X55.972 Y88.205 E48.10880 ; skirt
G1 X55.960 Y88.950 F7800.000 ; move to first skirt point
G1 X57.220 Y88.280 F540.000 E48.25399 ; skirt
G1 X58.580 Y87.870 E48.39850 ; skirt
G1 X60.000 Y87.730 E48.54368 ; skirt
G1 X140.000 Y87.730 E56.68288 ; skirt
G1 X141.420 Y87.870 E56.82805 ; skirt
G1 X142.780 Y88.280 E56.97257 ; skirt
G1 X144.040 Y88.950 E57.11776 ; skirt
G1 X145.140 Y89.860 E57.26300 ; skirt
G1 X146.050 Y90.960 E57.40825 ; skirt
G1 X146.720 Y92.220 E57.55344 ; skirt
G1 X147.130 Y93.580 E57.69796 ; skirt
G1 X147.270 Y95.000 E57.84313 ; skirt
G1 X147.270 Y105.000 E58.86053 ; skirt
G1 X147.130 Y106.420 E59.00570 ; skirt
G1 X146.720 Y107.780 E59.15022 ; skirt
G1 X146.050 Y109.040 E59.29541 ; skirt
G1 X145.140 Y110.140 E59.44065 ; skirt
G1 X144.040 Y111.050 E59.58590 ; skirt
G1 X142.780 Y111.720 E59.73109 ; skirt
G1 X141.420 Y112.130 E59.87561 ; skirt
G1 X140.000 Y112.270 E60.02078 ; skirt
G1 X60.000 Y112.270 E68.15998 ; skirt
G1 X58.580 Y112.130 E68.30515 ; skirt
G1 X57.220 Y111.720 E68.44967 ; skirt
G1 X55.960 Y111.050 E68.59486 ; skirt
G1 X54.860 Y110.140 E68.74010 ; skirt
G1 X53.950 Y109.040 E68.88535 ; skirt
G1 X53.280 Y107.780 E69.03054 ; skirt
G1 X52.870 Y106.420 E69.17506 ; skirt
G1 X52.730 Y105.000 E69.32023 ; skirt
G1 X52.730 Y95.000 E70.33763 ; skirt
G1 X52.870 Y93.580 E70.48280 ; skirt
G1 X53.280 Y92.220 E70.62732 ; skirt
G1 X53.950 Y90.960 E70.77251 ; skirt
G1 X54.860 Y89.860 E70.91775 ; skirt
G1 X55.887 Y89.011 E71.05330 ; skirt
G1 X56.310 Y89.480 F7800.000 ; move to first skirt point
G1 X57.460 Y88.870 F540.000 E71.18574 ; skirt
G1 X58.710 Y88.490 E71.31866 ; skirt
G1 X60.000 Y88.360 E71.45057 ; skirt
G1 X140.000 Y88.360 E79.58978 ; skirt
G1 X141.290 Y88.490 E79.72169 ; skirt
G1 X142.540 Y88.870 E79.85461 ; skirt
G1 X143.690 Y89.480 E79.98705 ; skirt
G1 X144.690 Y90.310 E80.11927 ; skirt
G1 X145.520 Y91.310 E80.25149 ; skirt
G1 X146.130 Y92.460 E80.38393 ; skirt
G1 X146.510 Y93.710 E80.51685 ; skirt
G1 X146.640 Y95.000 E80.64876 ; skirt
G1 X146.640 Y105.000 E81.66616 ; skirt
G1 X146.510 Y106.290 E81.79807 ; skirt
G1 X146.130 Y107.540 E81.93099 ; skirt
G1 X145.520 Y108.690 E82.06343 ; skirt
G1 X144.690 Y109.690 E82.19565 ; skirt
G1 X143.690 Y110.520 E82.32787 ; skirt
G1 X142.540 Y111.130 E82.46031 ; skirt
G1 X141.290 Y111.510 E82.59324 ; skirt
G1 X140.000 Y111.640 E82.72514 ; skirt
G1 X60.000 Y111.640 E90.86435 ; skirt
G1 X58.710 Y111.510 E90.99626 ; skirt
G1 X57.460 Y111.130 E91.12918 ; skirt
G1 X56.310 Y110.520 E91.26162 ; skirt
G1 X55.310 Y109.690 E91.39384 ; skirt
G1 X54.480 Y108.690 E91.52606 ; skirt
G1 X53.870 Y107.540 E91.65850 ; skirt
G1 X53.490 Y106.290 E91.79142 ; skirt
G1 X53.360 Y105.000 E91.92333 ; skirt
G1 X53.360 Y95.000 E92.94073 ; skirt
G1 X53.490 Y93.710 E93.07264 ; skirt
G1 X53.870 Y92.460 E93.20556 ; skirt
G1 X54.480 Y91.310 E93.33801 ; skirt
G1 X55.310 Y90.310 E93.47023 ; skirt
G1 X56.237 Y89.541 E93.59274 ; skirt
G1 F1800.000 E92.59274 ; retract
G92 E0 ; reset extrusion distance
G1 X139.047 Y104.047 F7800.000 ; move to first perimeter point
G1 F1800.000 E1.00000 ; compensate retraction
G1 X60.953 Y104.047 F540.000 E8.94520 ; perimeter
G1 X60.953 Y95.953 E9.76860 ; perimeter
G1 X139.047 Y95.953 E17.71380 ; perimeter
G1 X139.047 Y103.951 E18.52749 ; perimeter
G1 X139.682 Y104.682 F7800.000 ; move to first perimeter point
G1 X60.318 Y104.682 F378.000 E26.60203 ; perimeter
G1 X60.318 Y95.318 E27.55476 ; perimeter
G1 X139.682 Y95.318 E35.62930 ; perimeter
G1 X139.682 Y104.587 E36.57233 ; perimeter
G1 X139.132 Y104.364 F7800.000 ; move inwards before travel
G1 X138.586 Y96.556 ; move to first fill point
G1 X138.444 Y96.414 F1080.000 E36.59287 ; fill
G1 X137.541 Y96.414 E36.68510 ; fill
G1 X138.586 Y97.459 E36.83607 ; fill
G1 X138.586 Y98.362 E36.92829 ; fill
G1 X136.638 Y96.414 E37.20969 ; fill
G1 X135.736 Y96.414 E37.30192 ; fill
G1 X138.586 Y99.264 E37.71374 ; fill
G1 X138.586 Y100.167 E37.80597 ; fill
G1 X134.833 Y96.414 E38.34823 ; fill
G1 X133.930 Y96.414 E38.44045 ; fill
G1 X138.586 Y101.070 E39.11314 ; fill
G1 X138.586 Y101.972 E39.20536 ; fill
G1 X133.028 Y96.414 E40.00847 ; fill
G1 X132.125 Y96.414 E40.10070 ; fill
G1 X138.586 Y102.875 E41.03424 ; fill
G1 X138.394 Y103.586 E41.10946 ; fill
G1 X131.222 Y96.414 E42.14569 ; fill
G1 X130.319 Y96.414 E42.23792 ; fill
G1 X137.491 Y103.586 E43.27415 ; fill
G1 X136.589 Y103.586 E43.36638 ; fill
G1 X129.417 Y96.414 E44.40261 ; fill
G1 X128.514 Y96.414 E44.49484 ; fill
G1 X135.686 Y103.586 E45.53107 ; fill
G1 X134.783 Y103.586 E45.62330 ; fill
G1 X127.611 Y96.414 E46.65953 ; fill
G1 X126.709 Y96.414 E46.75176 ; fill
G1 X133.880 Y103.586 E47.78799 ; fill
G1 X132.978 Y103.586 E47.88022 ; fill
G1 X125.806 Y96.414 E48.91645 ; fill
G1 X124.903 Y96.414 E49.00868 ; fill
G1 X132.075 Y103.586 E50.04491 ; fill
G1 X131.172 Y103.586 E50.13714 ; fill
G1 X124.001 Y96.414 E51.17337 ; fill
G1 X123.098 Y96.414 E51.26560 ; fill
G1 X130.270 Y103.586 E52.30183 ; fill
G1 X129.367 Y103.586 E52.39406 ; fill
G1 X122.195 Y96.414 E53.43029 ; fill
G1 X121.293 Y96.414 E53.52252 ; fill
G1 X128.464 Y103.586 E54.55875 ; fill
G1 X127.562 Y103.586 E54.65098 ; fill
G1 X120.390 Y96.414 E55.68721 ; fill
G1 X119.487 Y96.414 E55.77944 ; fill
G1 X126.659 Y103.586 E56.81567 ; fill
G1 X125.756 Y103.586 E56.90790 ; fill
G1 X118.585 Y96.414 E57.94413 ; fill
G1 X117.682 Y96.414 E58.03636 ; fill
G1 X124.854 Y103.586 E59.07259 ; fill
G1 X123.951 Y103.586 E59.16482 ; fill
G1 X116.779 Y96.414 E60.20105 ; fill
G1 X115.876 Y96.414 E60.29328 ; fill
G1 X123.048 Y103.586 E61.32951 ; fill
G1 X122.145 Y103.586 E61.42174 ; fill
G1 X114.974 Y96.414 E62.45797 ; fill
G1 X114.071 Y96.414 E62.55020 ; fill
G1 X121.243 Y103.586 E63.58643 ; fill
G1 X120.340 Y103.586 E63.67866 ; fill
G1 X113.168 Y96.414 E64.71489 ; fill
G1 X112.266 Y96.414 E64.80712 ; fill
G1 X119.437 Y103.586 E65.84335 ; fill
G1 X118.535 Y103.586 E65.93558 ; fill
G1 X111.363 Y96.414 E66.97181 ; fill
G1 X110.460 Y96.414 E67.06404 ; fill
G1 X117.632 Y103.586 E68.10027 ; fill
G1 X116.729 Y103.586 E68.19250 ; fill
G1 X109.558 Y96.414 E69.22873 ; fill
G1 X108.655 Y96.414 E69.32096 ; fill
G1 X115.827 Y103.586 E70.35719 ; fill
G1 X114.924 Y103.586 E70.44942 ; fill
G1 X107.752 Y96.414 E71.48565 ; fill
G1 X106.850 Y96.414 E71.57788 ; fill
G1 X114.021 Y103.586 E72.61412 ; fill
G1 X113.119 Y103.586 E72.70634 ; fill
G1 X105.947 Y96.414 E73.74258 ; fill
G1 X105.044 Y96.414 E73.83480 ; fill
G1 X112.216 Y103.586 E74.87104 ; fill
G1 X111.313 Y103.586 E74.96326 ; fill
G1 X104.141 Y96.414 E75.99950 ; fill
G1 X103.239 Y96.414 E76.09172 ; fill
G1 X110.411 Y103.586 E77.12796 ; fill
G1 X109.508 Y103.586 E77.22018 ; fill
G1 X102.336 Y96.414 E78.25642 ; fill
G1 X101.433 Y96.414 E78.34864 ; fill
G1 X108.605 Y103.586 E79.38488 ; fill
G1 X107.702 Y103.586 E79.47710 ; fill
G1 X100.531 Y96.414 E80.51334 ; fill
G1 X99.628 Y96.414 E80.60556 ; fill
G1 X106.800 Y103.586 E81.64180 ; fill
G1 X105.897 Y103.586 E81.73402 ; fill
G1 X98.725 Y96.414 E82.77026 ; fill
G1 X97.823 Y96.414 E82.86248 ; fill
G1 X104.994 Y103.586 E83.89872 ; fill
G1 X104.092 Y103.586 E83.99094 ; fill
G1 X96.920 Y96.414 E85.02718 ; fill
G1 X96.017 Y96.414 E85.11940 ; fill
G1 X103.189 Y103.586 E86.15564 ; fill
G1 X102.286 Y103.586 E86.24786 ; fill
G1 X95.115 Y96.414 E87.28410 ; fill
G1 X94.212 Y96.414 E87.37632 ; fill
G1 X101.384 Y103.586 E88.41256 ; fill
G1 X100.481 Y103.586 E88.50478 ; fill
G1 X93.309 Y96.414 E89.54102 ; fill
G1 X92.407 Y96.414 E89.63325 ; fill
G1 X99.578 Y103.586 E90.66948 ; fill
G1 X98.676 Y103.586 E90.76171 ; fill
G1 X91.504 Y96.414 E91.79794 ; fill
G1 X90.601 Y96.414 E91.89017 ; fill
G1 X97.773 Y103.586 E92.92640 ; fill
G1 X96.870 Y103.586 E93.01863 ; fill
G1 X89.698 Y96.414 E94.05486 ; fill
G1 X88.796 Y96.414 E94.14709 ; fill
G1 X95.967 Y103.586 E95.18332 ; fill
G1 X95.065 Y103.586 E95.27555 ; fill
G1 X87.893 Y96.414 E96.31178 ; fill
G1 X86.990 Y96.414 E96.40401 ; fill
G1 X94.162 Y103.586 E97.44024 ; fill
G1 X93.259 Y103.586 E97.53247 ; fill
G1 X86.088 Y96.414 E98.56870 ; fill
G1 X85.185 Y96.414 E98.66093 ; fill
G1 X92.357 Y103.586 E99.69716 ; fill
G1 X91.454 Y103.586 E99.78939 ; fill
G1 X84.282 Y96.414 E100.82562 ; fill
G1 X83.380 Y96.414 E100.91785 ; fill
G1 X90.551 Y103.586 E101.95408 ; fill
G1 X89.649 Y103.586 E102.04631 ; fill
G1 X82.477 Y96.414 E103.08254 ; fill
G1 X81.574 Y96.414 E103.17477 ; fill
G1 X88.746 Y103.586 E104.21100 ; fill
G1 X87.843 Y103.586 E104.30323 ; fill
G1 X80.672 Y96.414 E105.33946 ; fill
G1 X79.769 Y96.414 E105.43169 ; fill
G1 X86.941 Y103.586 E106.46792 ; fill
G1 X86.038 Y103.586 E106.56015 ; fill
G1 X78.866 Y96.414 E107.59638 ; fill
G1 X77.963 Y96.414 E107.68861 ; fill
G1 X85.135 Y103.586 E108.72484 ; fill
G1 X84.233 Y103.586 E108.81707 ; fill
G1 X77.061 Y96.414 E109.85330 ; fill
G1 X76.158 Y96.414 E109.94553 ; fill
G1 X83.330 Y103.586 E110.98176 ; fill
G1 X82.427 Y103.586 E111.07399 ; fill
G1 X75.255 Y96.414 E112.11022 ; fill
G1 X74.353 Y96.414 E112.20245 ; fill
G1 X81.524 Y103.586 E113.23868 ; fill
G1 X80.622 Y103.586 E113.33091 ; fill
G1 X73.450 Y96.414 E114.36714 ; fill
G1 X72.547 Y96.414 E114.45937 ; fill
G1 X79.719 Y103.586 E115.49560 ; fill
G1 X78.816 Y103.586 E115.58783 ; fill
G1 X71.645 Y96.414 E116.62406 ; fill
G1 X70.742 Y96.414 E116.71629 ; fill
G1 X77.914 Y103.586 E117.75252 ; fill
G1 X77.011 Y103.586 E117.84475 ; fill
G1 X69.839 Y96.414 E118.88098 ; fill
G1 X68.937 Y96.414 E118.97321 ; fill
G1 X76.108 Y103.586 E120.00944 ; fill
G1 X75.206 Y103.586 E120.10167 ; fill
G1 X68.034 Y96.414 E121.13791 ; fill
G1 X67.131 Y96.414 E121.23013 ; fill
G1 X74.303 Y103.586 E122.26637 ; fill
G1 X73.400 Y103.586 E122.35859 ; fill
G1 X66.228 Y96.414 E123.39483 ; fill
G1 X65.326 Y96.414 E123.48705 ; fill
G1 X72.498 Y103.586 E124.52329 ; fill
G1 X71.595 Y103.586 E124.61551 ; fill
G1 X64.423 Y96.414 E125.65175 ; fill
G1 X63.520 Y96.414 E125.74397 ; fill
G1 X70.692 Y103.586 E126.78021 ; fill
G1 X69.789 Y103.586 E126.87243 ; fill
G1 X62.618 Y96.414 E127.90867 ; fill
G1 X61.715 Y96.414 E128.00089 ; fill
G1 X68.887 Y103.586 E129.03713 ; fill
G1 X67.984 Y103.586 E129.12935 ; fill
G1 X61.414 Y97.016 E130.07864 ; fill
G1 X61.414 Y97.919 E130.17086 ; fill
G1 X67.081 Y103.586 E130.98972 ; fill
G1 X66.179 Y103.586 E131.08194 ; fill
G1 X61.414 Y98.821 E131.77037 ; fill
G1 X61.414 Y99.724 E131.86260 ; fill
G1 X65.276 Y103.586 E132.42059 ; fill
G1 X64.373 Y103.586 E132.51282 ; fill
G1 X61.414 Y100.627 E132.94039 ; fill
G1 X61.414 Y101.529 E133.03262 ; fill
G1 X63.471 Y103.586 E133.32976 ; fill
G1 X62.568 Y103.586 E133.42199 ; fill
G1 X61.414 Y102.432 E133.58870 ; fill
G1 X61.414 Y103.335 E133.68092 ; fill
G1 X61.665 Y103.586 E133.71721 ; fill
M106 S550 ; enable fan
M104 S170 ; set temperature
G1 F1800.000 E132.71721 ; retract
G92 E0 ; reset extrusion distance
G1 Z0.050 F7800.000 ; move to next layer (1)
G1 X60.624 Y104.376 ; move to first perimeter point
G1 F1800.000 E1.00000 ; compensate retraction
G1 X60.624 Y95.624 F1800.000 E1.66562 ; perimeter
G1 X139.376 Y95.624 E7.65444 ; perimeter
G1 X139.376 Y104.376 E8.32006 ; perimeter
G1 X60.686 Y104.376 E14.30414 ; perimeter
G1 X60.208 Y104.792 F7800.000 ; move to first perimeter point
G1 X60.208 Y95.208 F1260.000 E15.03299 ; perimeter
G1 X139.792 Y95.208 E21.08504 ; perimeter
G1 X139.792 Y104.792 E21.81388 ; perimeter
G1 X60.270 Y104.792 E27.86119 ; perimeter
G1 X60.416 Y104.432 F7800.000 ; move inwards before travel
G1 X61.432 Y95.925 ; move to first fill point
G1 X60.925 Y96.432 F3600.000 E27.91585 ; fill
G1 X60.925 Y97.021 E27.96076 ; fill
G1 X62.021 Y95.925 E28.07894 ; fill
G1 X62.610 Y95.925 E28.12385 ; fill
G1 X60.925 Y97.610 E28.30555 ; fill
G1 X60.925 Y98.200 E28.35046 ; fill
G1 X63.200 Y95.925 E28.59568 ; fill
G1 X63.789 Y95.925 E28.64059 ; fill
G1 X60.925 Y98.789 E28.94932 ; fill
G1 X60.925 Y99.378 E28.99424 ; fill
G1 X64.378 Y95.925 E29.36648 ; fill
G1 X64.967 Y95.925 E29.41140 ; fill
G1 X60.925 Y99.967 E29.84717 ; fill
