; generated by Slic3r 0.9.10b on 2014-03-12 at 16:48:15

; layer_height = 0.4
; perimeters = 2
; top_solid_layers = 3
; bottom_solid_layers = 3
; fill_density = 0.3
; perimeter_speed = 30
; infill_speed = 60
; travel_speed = 130
; nozzle_diameter = 0.4
; filament_diameter = 1.75
; extrusion_multiplier = 1.07
; perimeters extrusion width = 0.42mm
; infill extrusion width = 0.42mm
; solid infill extrusion width = 0.42mm
; top infill extrusion width = 0.42mm
; first layer extrusion width = 0.70mm

G21 ; set units to millimeters
M107 ; disable fan
M190 S60 ; wait for bed temperature to be reached
M104 S175 ; set temperature
G28 ; home all axes
G1 Z5 F5000 ; lift nozzle
M109 S175 ; wait for temperature to be reached
G90 ; use absolute coordinates
G92 E0 ; reset extrusion distance
M82 ; use absolute distances for extrusion
G1 F1800.000 E-1.00000 ; retract
G92 E0 ; reset extrusion distance
G1 Z-0.150 F7800.000 ; move to next layer (0)
G1 X65.940 Y65.080 ; move to first skirt point
G1 F1800.000 E1.00000 ; compensate retraction
G1 X67.250 Y63.970 F540.000 E1.16993 ; skirt
G1 X68.760 Y63.140 E1.34045 ; skirt
G1 X70.390 Y62.630 E1.50948 ; skirt
G1 X72.100 Y62.460 E1.67954 ; skirt
G1 X128.900 Y62.460 E7.30077 ; skirt
G1 X130.660 Y62.640 E7.47586 ; skirt
G1 X132.350 Y63.190 E7.65174 ; skirt
G1 X133.890 Y64.070 E7.82728 ; skirt
G1 X135.220 Y65.250 E8.00324 ; skirt
G1 X152.820 Y84.580 E10.59040 ; skirt
G1 X153.770 Y85.840 E10.74657 ; skirt
G1 X154.470 Y87.250 E10.90236 ; skirt
G1 X154.900 Y88.760 E11.05774 ; skirt
G1 X155.040 Y90.330 E11.21373 ; skirt
G1 X155.040 Y110.660 E13.22570 ; skirt
G1 X154.890 Y112.280 E13.38670 ; skirt
G1 X154.430 Y113.850 E13.54861 ; skirt
G1 X153.680 Y115.300 E13.71017 ; skirt
G1 X152.660 Y116.570 E13.87138 ; skirt
G1 X135.060 Y134.910 E16.38696 ; skirt
G1 X133.760 Y136.030 E16.55677 ; skirt
G1 X132.250 Y136.860 E16.72730 ; skirt
G1 X130.610 Y137.370 E16.89727 ; skirt
G1 X128.900 Y137.540 E17.06733 ; skirt
G1 X72.100 Y137.540 E22.68856 ; skirt
G1 X70.450 Y137.380 E22.85262 ; skirt
G1 X68.860 Y136.900 E23.01699 ; skirt
G1 X67.390 Y136.130 E23.18122 ; skirt
G1 X66.100 Y135.080 E23.34583 ; skirt
G1 X47.500 Y116.740 E25.93092 ; skirt
G1 X46.420 Y115.440 E26.09818 ; skirt
G1 X45.620 Y113.960 E26.26468 ; skirt
G1 X45.120 Y112.340 E26.43246 ; skirt
G1 X44.960 Y110.660 E26.59948 ; skirt
G1 X44.960 Y90.330 E28.61144 ; skirt
G1 X45.110 Y88.700 E28.77344 ; skirt
G1 X45.580 Y87.140 E28.93468 ; skirt
G1 X46.330 Y85.690 E29.09624 ; skirt
G1 X47.340 Y84.410 E29.25760 ; skirt
G1 X65.874 Y65.149 E31.90296 ; skirt
G1 X66.400 Y65.520 F7800.000 ; move to first skirt point
G1 X67.610 Y64.490 F540.000 E32.06022 ; skirt
G1 X69.000 Y63.720 E32.21748 ; skirt
G1 X70.520 Y63.250 E32.37493 ; skirt
G1 X72.100 Y63.090 E32.53210 ; skirt
G1 X128.900 Y63.090 E38.15333 ; skirt
G1 X130.530 Y63.260 E38.31551 ; skirt
G1 X132.100 Y63.770 E38.47888 ; skirt
G1 X133.520 Y64.580 E38.64067 ; skirt
G1 X134.750 Y65.680 E38.80397 ; skirt
G1 X152.350 Y85.010 E41.39113 ; skirt
G1 X153.220 Y86.170 E41.53463 ; skirt
G1 X153.870 Y87.480 E41.67936 ; skirt
G1 X154.270 Y88.880 E41.82346 ; skirt
G1 X154.410 Y90.330 E41.96762 ; skirt
G1 X154.410 Y110.660 E43.97959 ; skirt
G1 X154.260 Y112.160 E44.12878 ; skirt
G1 X153.840 Y113.610 E44.27817 ; skirt
G1 X153.140 Y114.950 E44.42779 ; skirt
G1 X152.200 Y116.130 E44.57709 ; skirt
G1 X134.600 Y134.470 E47.09267 ; skirt
G1 X133.390 Y135.510 E47.25058 ; skirt
G1 X132.000 Y136.270 E47.40736 ; skirt
G1 X130.480 Y136.750 E47.56511 ; skirt
G1 X128.900 Y136.910 E47.72227 ; skirt
G1 X72.100 Y136.910 E53.34350 ; skirt
G1 X70.570 Y136.760 E53.49565 ; skirt
G1 X69.100 Y136.320 E53.64750 ; skirt
G1 X67.740 Y135.600 E53.79979 ; skirt
G1 X66.550 Y134.630 E53.95173 ; skirt
G1 X47.950 Y116.290 E56.53682 ; skirt
G1 X46.950 Y115.090 E56.69141 ; skirt
G1 X46.210 Y113.710 E56.84638 ; skirt
G1 X45.750 Y112.220 E57.00070 ; skirt
G1 X45.590 Y110.660 E57.15590 ; skirt
G1 X45.590 Y90.330 E59.16786 ; skirt
G1 X45.740 Y88.820 E59.31804 ; skirt
G1 X46.170 Y87.370 E59.46771 ; skirt
G1 X46.860 Y86.030 E59.61687 ; skirt
G1 X47.800 Y84.850 E59.76618 ; skirt
G1 X66.334 Y65.589 E62.41154 ; skirt
G1 X66.860 Y65.960 F7800.000 ; move to first skirt point
G1 X67.970 Y65.010 F540.000 E62.55613 ; skirt
G1 X69.250 Y64.310 E62.70051 ; skirt
G1 X70.650 Y63.880 E62.84545 ; skirt
G1 X72.100 Y63.730 E62.98972 ; skirt
G1 X128.900 Y63.730 E68.61095 ; skirt
G1 X130.400 Y63.890 E68.76024 ; skirt
G1 X131.840 Y64.350 E68.90984 ; skirt
G1 X133.150 Y65.100 E69.05923 ; skirt
G1 X134.280 Y66.100 E69.20856 ; skirt
G1 X151.880 Y85.430 E71.79572 ; skirt
G1 X152.680 Y86.510 E71.92873 ; skirt
G1 X153.280 Y87.710 E72.06151 ; skirt
G1 X153.650 Y89.000 E72.19432 ; skirt
G1 X153.770 Y90.330 E72.32648 ; skirt
G1 X153.770 Y110.660 E74.33845 ; skirt
G1 X153.640 Y112.040 E74.47562 ; skirt
G1 X153.250 Y113.370 E74.61279 ; skirt
G1 X152.610 Y114.610 E74.75089 ; skirt
G1 X151.750 Y115.690 E74.88752 ; skirt
G1 X134.150 Y134.030 E77.40310 ; skirt
G1 X133.030 Y134.980 E77.54844 ; skirt
G1 X131.750 Y135.690 E77.69330 ; skirt
G1 X130.360 Y136.120 E77.83729 ; skirt
G1 X128.900 Y136.270 E77.98254 ; skirt
G1 X72.100 Y136.270 E83.60377 ; skirt
G1 X70.690 Y136.130 E83.74400 ; skirt
G1 X69.340 Y135.730 E83.88334 ; skirt
G1 X68.090 Y135.070 E84.02324 ; skirt
G1 X66.990 Y134.180 E84.16327 ; skirt
G1 X48.390 Y115.840 E86.74836 ; skirt
G1 X47.480 Y114.730 E86.89041 ; skirt
G1 X46.790 Y113.470 E87.03258 ; skirt
G1 X46.370 Y112.090 E87.17533 ; skirt
G1 X46.230 Y110.660 E87.31753 ; skirt
G1 X46.230 Y90.330 E89.32950 ; skirt
G1 X46.360 Y88.950 E89.46667 ; skirt
G1 X46.760 Y87.610 E89.60507 ; skirt
G1 X47.400 Y86.380 E89.74229 ; skirt
G1 X48.260 Y85.290 E89.87969 ; skirt
G1 X66.794 Y66.029 E92.52505 ; skirt
G1 X67.320 Y66.400 F7800.000 ; move to first skirt point
G1 X68.330 Y65.540 F540.000 E92.65634 ; skirt
G1 X69.500 Y64.890 E92.78879 ; skirt
G1 X70.770 Y64.500 E92.92027 ; skirt
G1 X72.100 Y64.360 E93.05262 ; skirt
G1 X128.900 Y64.360 E98.67385 ; skirt
G1 X130.270 Y64.510 E98.81025 ; skirt
G1 X131.580 Y64.930 E98.94639 ; skirt
G1 X132.780 Y65.620 E99.08338 ; skirt
G1 X133.810 Y66.530 E99.21940 ; skirt
G1 X151.410 Y85.860 E101.80656 ; skirt
G1 X152.350 Y87.190 E101.96774 ; skirt
G1 X152.940 Y88.710 E102.12910 ; skirt
G1 X153.140 Y90.330 E102.29064 ; skirt
G1 X153.140 Y110.660 E104.30261 ; skirt
G1 X153.010 Y111.920 E104.42797 ; skirt
G1 X152.660 Y113.140 E104.55358 ; skirt
G1 X152.070 Y114.260 E104.67886 ; skirt
G1 X151.290 Y115.250 E104.80359 ; skirt
G1 X133.690 Y133.590 E107.31917 ; skirt
G1 X132.670 Y134.460 E107.45184 ; skirt
G1 X131.500 Y135.100 E107.58382 ; skirt
G1 X130.230 Y135.500 E107.71560 ; skirt
G1 X128.900 Y135.640 E107.84795 ; skirt
G1 X72.100 Y135.640 E113.46918 ; skirt
G1 X70.820 Y135.510 E113.59651 ; skirt
G1 X69.580 Y135.140 E113.72457 ; skirt
G1 X68.440 Y134.540 E113.85206 ; skirt
G1 X67.440 Y133.720 E113.98004 ; skirt
G1 X48.840 Y115.380 E116.56513 ; skirt
G1 X48.000 Y114.380 E116.69438 ; skirt
G1 X47.380 Y113.220 E116.82455 ; skirt
G1 X46.990 Y111.970 E116.95414 ; skirt
G1 X46.860 Y110.660 E117.08442 ; skirt
G1 X46.860 Y90.330 E119.09638 ; skirt
G1 X46.990 Y89.070 E119.22174 ; skirt
G1 X47.350 Y87.850 E119.34763 ; skirt
G1 X47.930 Y86.720 E119.47333 ; skirt
G1 X48.720 Y85.730 E119.59868 ; skirt
G1 X67.254 Y66.469 E122.24404 ; skirt
G1 F1800.000 E121.24404 ; retract
G92 E0 ; reset extrusion distance
G1 X72.782 Y91.016 F7800.000 ; move to first perimeter point
G1 F1800.000 E1.00000 ; compensate retraction
G1 X91.018 Y91.016 F378.000 E2.80469 ; perimeter
G1 X91.018 Y109.984 E4.68196 ; perimeter
G1 X72.782 Y109.984 E6.48666 ; perimeter
G1 X72.782 Y91.111 E8.35449 ; perimeter
G1 X73.333 Y91.333 F7800.000 ; move inwards before travel
G1 X91.382 Y91.016 ; move to first perimeter point
G1 X109.618 Y91.016 F378.000 E10.15918 ; perimeter
G1 X109.618 Y109.984 E12.03645 ; perimeter
G1 X91.382 Y109.984 E13.84115 ; perimeter
G1 X91.382 Y91.111 E15.70898 ; perimeter
G1 X91.933 Y91.333 F7800.000 ; move inwards before travel
G1 X109.982 Y91.016 ; move to first perimeter point
G1 X128.218 Y91.016 F378.000 E17.51367 ; perimeter
G1 X128.218 Y109.984 E19.39094 ; perimeter
G1 X109.982 Y109.984 E21.19564 ; perimeter
G1 X109.982 Y91.111 E23.06347 ; perimeter
G1 X110.533 Y91.333 F7800.000 ; move inwards before travel
G1 X109.982 Y90.651 ; move to first perimeter point
G1 X128.218 Y90.651 F378.000 E24.86816 ; perimeter
G1 X128.218 Y71.318 E26.78149 ; perimeter
G1 X128.582 Y71.318 E26.81755 ; perimeter
G1 X128.582 Y90.651 E28.73088 ; perimeter
G1 X146.182 Y90.651 E30.47267 ; perimeter
G1 X146.182 Y91.016 E30.50873 ; perimeter
G1 X128.582 Y91.016 E32.25052 ; perimeter
G1 X128.582 Y109.984 E34.12779 ; perimeter
G1 X146.182 Y109.984 E35.86958 ; perimeter
G1 X146.182 Y110.349 E35.90564 ; perimeter
G1 X128.582 Y110.349 E37.64743 ; perimeter
G1 X128.582 Y128.682 E39.46180 ; perimeter
G1 X128.218 Y128.682 E39.49786 ; perimeter
G1 X128.218 Y110.349 E41.31222 ; perimeter
G1 X109.982 Y110.349 E43.11691 ; perimeter
G1 X109.982 Y128.682 E44.93128 ; perimeter
G1 X109.618 Y128.682 E44.96734 ; perimeter
G1 X109.618 Y110.349 E46.78170 ; perimeter
G1 X91.382 Y110.349 E48.58640 ; perimeter
G1 X91.382 Y128.682 E50.40076 ; perimeter
G1 X91.018 Y128.682 E50.43682 ; perimeter
G1 X91.018 Y110.349 E52.25119 ; perimeter
G1 X72.782 Y110.349 E54.05588 ; perimeter
G1 X72.782 Y128.682 E55.87024 ; perimeter
G1 X72.418 Y128.682 E55.90631 ; perimeter
G1 X72.418 Y110.349 E57.72067 ; perimeter
G1 X53.818 Y110.349 E59.56142 ; perimeter
G1 X53.818 Y109.984 E59.59749 ; perimeter
G1 X72.418 Y109.984 E61.43824 ; perimeter
G1 X72.418 Y91.016 E63.31551 ; perimeter
G1 X53.818 Y91.016 E65.15626 ; perimeter
G1 X53.818 Y90.651 E65.19233 ; perimeter
G1 X72.418 Y90.651 E67.03308 ; perimeter
G1 X72.418 Y71.318 E68.94641 ; perimeter
G1 X72.782 Y71.318 E68.98247 ; perimeter
G1 X72.782 Y90.651 E70.89580 ; perimeter
G1 X91.018 Y90.651 E72.70049 ; perimeter
G1 X91.018 Y71.318 E74.61382 ; perimeter
G1 X91.382 Y71.318 E74.64988 ; perimeter
G1 X91.382 Y90.651 E76.56321 ; perimeter
G1 X109.618 Y90.651 E78.36791 ; perimeter
G1 X109.618 Y71.318 E80.28124 ; perimeter
G1 X109.982 Y71.318 E80.31730 ; perimeter
G1 X109.982 Y90.556 E82.22119 ; perimeter
G1 X109.982 Y91.287 F7800.000 ; move inwards before travel
G1 F1800.000 E81.22119 ; retract
G92 E0 ; reset extrusion distance
G1 X91.200 Y76.696 F7800.000 ; move to first perimeter point
G1 F1800.000 E1.00000 ; compensate retraction
G1 X91.200 Y71.494 F540.000 E1.51481 ; perimeter
G1 X91.200 Y76.696 F7800.000 ; move to first perimeter point
G1 X91.200 Y90.833 F378.000 E2.91388 ; perimeter
G1 X109.800 Y90.833 E4.75463 ; perimeter
G1 X109.800 Y110.167 E6.66796 ; perimeter
G1 X98.775 Y110.167 E7.75910 ; perimeter
G1 X98.775 Y110.167 F7800.000 ; move to first perimeter point
G1 X95.324 Y110.167 F540.000 E8.10063 ; perimeter
G1 X95.324 Y110.167 F7800.000 ; move to first perimeter point
G1 X94.633 Y110.167 F540.000 E8.16894 ; perimeter
G1 X94.633 Y110.167 F7800.000 ; move to first perimeter point
G1 X92.908 Y110.167 F540.000 E8.33970 ; perimeter
G1 X92.908 Y110.167 F7800.000 ; move to first perimeter point
G1 X91.873 Y110.167 F540.000 E8.44216 ; perimeter
G1 X91.873 Y110.167 F7800.000 ; move to first perimeter point
G1 X91.873 Y110.167 F1800.000 ; perimeter
G1 X91.873 Y110.167 F7800.000 ; move to first perimeter point
G1 X91.200 Y110.167 F540.000 E8.50872 ; perimeter
G1 X91.200 Y110.167 F7800.000 ; move to first perimeter point
G1 X91.200 Y102.575 F540.000 E9.25998 ; perimeter
G1 X91.200 Y102.575 F7800.000 ; move to first perimeter point
G1 X91.200 Y101.192 F540.000 E9.39692 ; perimeter
G1 X91.200 Y101.192 F7800.000 ; move to first perimeter point
G1 X91.200 Y97.387 F540.000 E9.77348 ; perimeter
G1 X91.200 Y97.387 F7800.000 ; move to first perimeter point
G1 X91.200 Y90.833 F378.000 E10.42205 ; perimeter
G1 X72.600 Y90.833 E12.26280 ; perimeter
G1 X72.600 Y71.494 E14.17668 ; perimeter
G1 F1800.000 E13.17668 ; retract
G92 E0 ; reset extrusion distance
G1 X53.995 Y90.833 F7800.000 ; move to first perimeter point
G1 F1800.000 E1.00000 ; compensate retraction
G1 X72.600 Y90.833 F378.000 E2.84127 ; perimeter
G1 X72.600 Y110.167 E4.75460 ; perimeter
G1 X56.772 Y110.167 E6.32100 ; perimeter
G1 X56.772 Y110.167 F7800.000 ; move to first perimeter point
G1 X53.995 Y110.167 F540.000 E6.59587 ; perimeter
G1 X72.600 Y110.167 F7800.000 ; move to first perimeter point
G1 X91.200 Y110.167 F540.000 E8.43662 ; perimeter
G1 X91.200 Y111.186 E8.53746 ; perimeter
G1 X91.200 Y111.186 F7800.000 ; move to first perimeter point
G1 X91.200 Y116.028 F540.000 E9.01672 ; perimeter
G1 X91.200 Y116.028 F7800.000 ; move to first perimeter point
G1 X91.200 Y117.412 F540.000 E9.15366 ; perimeter
G1 X91.200 Y117.412 F7800.000 ; move to first perimeter point
G1 X91.200 Y119.142 F540.000 E9.32482 ; perimeter
G1 X91.200 Y119.142 F7800.000 ; move to first perimeter point
G1 X91.200 Y119.487 F540.000 E9.35905 ; perimeter
G1 X91.200 Y119.487 F7800.000 ; move to first perimeter point
G1 X91.200 Y120.179 F540.000 E9.42752 ; perimeter
G1 X91.200 Y120.179 F7800.000 ; move to first perimeter point
G1 X91.200 Y120.525 F540.000 E9.46175 ; perimeter
G1 X91.200 Y120.525 F7800.000 ; move to first perimeter point
G1 X91.200 Y120.525 F540.000 E9.46175 ; perimeter
G1 X91.200 Y120.525 F7800.000 ; move to first perimeter point
G1 X91.200 Y128.506 F540.000 E10.25156 ; perimeter
G1 F1800.000 E9.25156 ; retract
G92 E0 ; reset extrusion distance
G1 X72.600 Y128.506 F7800.000 ; move to first perimeter point
G1 F1800.000 E1.00000 ; compensate retraction
G1 X72.600 Y127.789 F540.000 E1.07091 ; perimeter
G1 X72.600 Y127.789 F7800.000 ; move to first perimeter point
G1 X72.600 Y127.097 F540.000 E1.13938 ; perimeter
G1 X72.600 Y127.097 F7800.000 ; move to first perimeter point
G1 X72.600 Y125.714 F540.000 E1.27631 ; perimeter
G1 X72.600 Y125.714 F7800.000 ; move to first perimeter point
G1 X72.600 Y110.167 F540.000 E2.81494 ; perimeter
G1 X109.800 Y110.167 F7800.000 ; move to first perimeter point
G1 X110.473 Y110.167 F540.000 E2.88150 ; perimeter
G1 X110.473 Y110.167 F7800.000 ; move to first perimeter point
G1 X110.818 Y110.167 F540.000 E2.91565 ; perimeter
G1 X110.818 Y110.167 F7800.000 ; move to first perimeter point
G1 X110.818 Y110.167 F540.000 E2.91565 ; perimeter
G1 X110.818 Y110.167 F7800.000 ; move to first perimeter point
G1 X126.002 Y110.167 F540.000 E4.41837 ; perimeter
G1 X126.002 Y110.167 F7800.000 ; move to first perimeter point
G1 X128.400 Y110.167 F540.000 E4.65570 ; perimeter
G1 X128.400 Y100.154 E5.64659 ; perimeter
G1 X128.400 Y100.154 F7800.000 ; move to first perimeter point
G1 X128.400 Y90.833 F378.000 E6.56903 ; perimeter
G1 X109.800 Y90.833 E8.40978 ; perimeter
G1 X109.800 Y71.494 E10.32366 ; perimeter
G1 F1800.000 E9.32366 ; retract
G92 E0 ; reset extrusion distance
G1 X128.400 Y71.494 F7800.000 ; move to first perimeter point
G1 F1800.000 E1.00000 ; compensate retraction
G1 X128.400 Y74.280 F540.000 E1.27565 ; perimeter
G1 X128.400 Y74.280 F7800.000 ; move to first perimeter point
G1 X128.400 Y84.637 F540.000 E2.30065 ; perimeter
G1 X128.400 Y84.637 F7800.000 ; move to first perimeter point
G1 X128.400 Y84.982 F540.000 E2.33481 ; perimeter
G1 X128.400 Y84.982 F7800.000 ; move to first perimeter point
G1 X128.400 Y85.327 F540.000 E2.36898 ; perimeter
G1 X128.400 Y85.327 F7800.000 ; move to first perimeter point
G1 X128.400 Y87.399 F540.000 E2.57398 ; perimeter
G1 X128.400 Y87.399 F7800.000 ; move to first perimeter point
G1 X128.400 Y88.089 F540.000 E2.64231 ; perimeter
G1 X128.400 Y88.089 F7800.000 ; move to first perimeter point
G1 X128.400 Y89.125 F540.000 E2.74481 ; perimeter
G1 X128.400 Y89.125 F7800.000 ; move to first perimeter point
G1 X128.400 Y90.161 F540.000 E2.84731 ; perimeter
G1 X128.400 Y90.161 F7800.000 ; move to first perimeter point
G1 X128.400 Y90.833 F540.000 E2.91388 ; perimeter
G1 X128.400 Y90.833 F7800.000 ; move to first perimeter point
G1 X129.073 Y90.833 F540.000 E2.98044 ; perimeter
