; generated by Slic3r 0.9.10b on 2014-03-11 at 04:24:53

; layer_height = 0.4
; perimeters = 2
; top_solid_layers = 3
; bottom_solid_layers = 3
; fill_density = 0.3
; perimeter_speed = 30
; infill_speed = 60
; travel_speed = 130
; nozzle_diameter = 0.4
; filament_diameter = 1.75
; extrusion_multiplier = 1.07
; perimeters extrusion width = 0.42mm
; infill extrusion width = 0.42mm
; solid infill extrusion width = 0.42mm
; top infill extrusion width = 0.42mm
; first layer extrusion width = 0.70mm

G21 ; set units to millimeters
M107 ; disable fan
M190 S60 ; wait for bed temperature to be reached
M104 S185 ; set temperature
G28 ; home all axes
G1 Z5 F5000 ; lift nozzle
M109 S185 ; wait for temperature to be reached
G90 ; use absolute coordinates
G92 E0 ; reset extrusion distance
M82 ; use absolute distances for extrusion
G1 F1800.000 E-1.00000 ; retract
G92 E0 ; reset extrusion distance
G1 Z-0.250 F7800.000 ; move to next layer (0)
G1 X87.289 Y86.549 ; move to first skirt point
G1 F1800.000 E1.00000 ; compensate retraction
G1 X87.929 Y85.969 F540.000 E1.08548 ; skirt
G1 X88.739 Y85.309 E1.18888 ; skirt
G1 X89.459 Y84.779 E1.27736 ; skirt
G1 X90.329 Y84.209 E1.38029 ; skirt
G1 X91.159 Y83.739 E1.47469 ; skirt
G1 X92.089 Y83.269 E1.57781 ; skirt
G1 X92.919 Y82.899 E1.66775 ; skirt
G1 X93.899 Y82.529 E1.77141 ; skirt
G1 X94.689 Y82.269 E1.85372 ; skirt
G1 X95.689 Y81.999 E1.95623 ; skirt
G1 X96.529 Y81.819 E2.04125 ; skirt
G1 X97.559 Y81.649 E2.14456 ; skirt
G1 X98.539 Y81.549 E2.24205 ; skirt
G1 X99.589 Y81.499 E2.34608 ; skirt
G1 X100.409 Y81.499 E2.42724 ; skirt
G1 X101.449 Y81.549 E2.53028 ; skirt
G1 X102.429 Y81.649 E2.62777 ; skirt
G1 X103.459 Y81.819 E2.73108 ; skirt
G1 X104.279 Y81.999 E2.81417 ; skirt
G1 X105.289 Y82.269 E2.91763 ; skirt
G1 X106.119 Y82.539 E3.00401 ; skirt
G1 X107.089 Y82.909 E3.10675 ; skirt
G1 X107.899 Y83.269 E3.19447 ; skirt
G1 X108.829 Y83.739 E3.29760 ; skirt
G1 X109.659 Y84.209 E3.39199 ; skirt
G1 X110.529 Y84.779 E3.49493 ; skirt
G1 X111.209 Y85.279 E3.57846 ; skirt
G1 X112.029 Y85.939 E3.68263 ; skirt
G1 X112.749 Y86.589 E3.77863 ; skirt
G1 X113.479 Y87.329 E3.88150 ; skirt
G1 X114.019 Y87.929 E3.96138 ; skirt
G1 X114.679 Y88.739 E4.06479 ; skirt
G1 X115.209 Y89.459 E4.15327 ; skirt
G1 X115.779 Y90.329 E4.25620 ; skirt
G1 X116.249 Y91.159 E4.35060 ; skirt
G1 X116.719 Y92.089 E4.45372 ; skirt
G1 X117.059 Y92.849 E4.53612 ; skirt
G1 X117.439 Y93.829 E4.64014 ; skirt
G1 X117.729 Y94.689 E4.72996 ; skirt
G1 X117.999 Y95.689 E4.83247 ; skirt
G1 X118.189 Y96.609 E4.92544 ; skirt
G1 X118.349 Y97.639 E5.02859 ; skirt
G1 X118.439 Y98.539 E5.11811 ; skirt
G1 X118.489 Y99.589 E5.22214 ; skirt
G1 X118.489 Y100.409 E5.30329 ; skirt
G1 X118.439 Y101.449 E5.40633 ; skirt
G1 X118.349 Y102.349 E5.49585 ; skirt
G1 X118.189 Y103.379 E5.59900 ; skirt
G1 X117.999 Y104.279 E5.69003 ; skirt
G1 X117.729 Y105.289 E5.79350 ; skirt
G1 X117.429 Y106.199 E5.88833 ; skirt
G1 X117.049 Y107.169 E5.99142 ; skirt
G1 X116.719 Y107.899 E6.07071 ; skirt
G1 X116.249 Y108.829 E6.17383 ; skirt
G1 X115.779 Y109.659 E6.26823 ; skirt
G1 X115.209 Y110.529 E6.37116 ; skirt
G1 X114.709 Y111.209 E6.45469 ; skirt
G1 X114.049 Y112.029 E6.55886 ; skirt
G1 X113.439 Y112.709 E6.64927 ; skirt
G1 X112.709 Y113.439 E6.75144 ; skirt
G1 X112.029 Y114.049 E6.84185 ; skirt
G1 X111.209 Y114.709 E6.94602 ; skirt
G1 X110.529 Y115.209 E7.02955 ; skirt
G1 X109.659 Y115.779 E7.13248 ; skirt
G1 X108.829 Y116.249 E7.22688 ; skirt
G1 X107.899 Y116.719 E7.33000 ; skirt
G1 X107.169 Y117.049 E7.40929 ; skirt
G1 X106.199 Y117.429 E7.51239 ; skirt
G1 X105.289 Y117.729 E7.60721 ; skirt
G1 X104.279 Y117.999 E7.71068 ; skirt
G1 X103.379 Y118.189 E7.80171 ; skirt
G1 X102.349 Y118.349 E7.90487 ; skirt
G1 X101.449 Y118.439 E7.99438 ; skirt
G1 X100.409 Y118.489 E8.09742 ; skirt
G1 X99.589 Y118.489 E8.17857 ; skirt
G1 X98.539 Y118.439 E8.28260 ; skirt
G1 X97.639 Y118.349 E8.37212 ; skirt
G1 X96.609 Y118.189 E8.47527 ; skirt
G1 X95.689 Y117.999 E8.56824 ; skirt
G1 X94.689 Y117.729 E8.67075 ; skirt
G1 X93.829 Y117.439 E8.76057 ; skirt
G1 X92.849 Y117.059 E8.86459 ; skirt
G1 X92.089 Y116.719 E8.94699 ; skirt
G1 X91.159 Y116.249 E9.05011 ; skirt
G1 X90.329 Y115.779 E9.14451 ; skirt
G1 X89.459 Y115.209 E9.24744 ; skirt
G1 X88.739 Y114.679 E9.33592 ; skirt
G1 X87.929 Y114.019 E9.43933 ; skirt
G1 X87.329 Y113.479 E9.51921 ; skirt
G1 X86.589 Y112.749 E9.62208 ; skirt
G1 X85.939 Y112.029 E9.71808 ; skirt
G1 X85.279 Y111.209 E9.82225 ; skirt
G1 X84.779 Y110.529 E9.90578 ; skirt
G1 X84.209 Y109.659 E10.00872 ; skirt
G1 X83.739 Y108.829 E10.10311 ; skirt
G1 X83.269 Y107.899 E10.20624 ; skirt
G1 X82.909 Y107.089 E10.29396 ; skirt
G1 X82.539 Y106.119 E10.39670 ; skirt
G1 X82.269 Y105.289 E10.48308 ; skirt
G1 X81.999 Y104.279 E10.58655 ; skirt
G1 X81.819 Y103.459 E10.66963 ; skirt
G1 X81.649 Y102.429 E10.77294 ; skirt
G1 X81.549 Y101.449 E10.87043 ; skirt
G1 X81.499 Y100.409 E10.97348 ; skirt
G1 X81.499 Y99.589 E11.05463 ; skirt
G1 X81.549 Y98.539 E11.15866 ; skirt
G1 X81.649 Y97.559 E11.25615 ; skirt
G1 X81.819 Y96.529 E11.35946 ; skirt
G1 X81.999 Y95.689 E11.44448 ; skirt
G1 X82.269 Y94.689 E11.54699 ; skirt
G1 X82.529 Y93.899 E11.62930 ; skirt
G1 X82.899 Y92.919 E11.73296 ; skirt
G1 X83.269 Y92.089 E11.82290 ; skirt
G1 X83.739 Y91.159 E11.92602 ; skirt
G1 X84.209 Y90.329 E12.02042 ; skirt
G1 X84.779 Y89.459 E12.12335 ; skirt
G1 X85.309 Y88.739 E12.21183 ; skirt
G1 X85.969 Y87.929 E12.31523 ; skirt
G1 X86.549 Y87.289 E12.40071 ; skirt
G1 X87.222 Y86.617 E12.49484 ; skirt
G1 X87.739 Y86.999 F7800.000 ; move to first skirt point
G1 X88.339 Y86.459 F540.000 E12.57473 ; skirt
G1 X89.149 Y85.799 E12.67813 ; skirt
G1 X89.809 Y85.319 E12.75890 ; skirt
G1 X90.679 Y84.749 E12.86183 ; skirt
G1 X91.439 Y84.299 E12.94924 ; skirt
G1 X92.369 Y83.829 E13.05236 ; skirt
G1 X93.149 Y83.489 E13.13657 ; skirt
G1 X94.129 Y83.119 E13.24024 ; skirt
G1 X94.859 Y82.889 E13.31599 ; skirt
G1 X95.859 Y82.619 E13.41850 ; skirt
G1 X96.629 Y82.449 E13.49653 ; skirt
G1 X97.659 Y82.279 E13.59985 ; skirt
G1 X98.569 Y82.179 E13.69045 ; skirt
G1 X99.619 Y82.129 E13.79448 ; skirt
G1 X100.379 Y82.129 E13.86969 ; skirt
G1 X101.419 Y82.179 E13.97274 ; skirt
G1 X102.329 Y82.279 E14.06334 ; skirt
G1 X103.359 Y82.449 E14.16665 ; skirt
G1 X104.109 Y82.609 E14.24254 ; skirt
G1 X105.119 Y82.879 E14.34601 ; skirt
G1 X105.899 Y83.129 E14.42707 ; skirt
G1 X106.869 Y83.499 E14.52981 ; skirt
G1 X107.619 Y83.829 E14.61090 ; skirt
G1 X108.549 Y84.299 E14.71403 ; skirt
G1 X109.309 Y84.749 E14.80144 ; skirt
G1 X110.179 Y85.319 E14.90437 ; skirt
G1 X110.809 Y85.769 E14.98099 ; skirt
G1 X111.629 Y86.429 E15.08516 ; skirt
G1 X112.299 Y87.039 E15.17483 ; skirt
G1 X113.029 Y87.779 E15.27771 ; skirt
G1 X113.529 Y88.339 E15.35200 ; skirt
G1 X114.189 Y89.149 E15.45541 ; skirt
G1 X114.669 Y89.809 E15.53617 ; skirt
G1 X115.239 Y90.679 E15.63910 ; skirt
G1 X115.689 Y91.439 E15.72651 ; skirt
G1 X116.159 Y92.369 E15.82964 ; skirt
G1 X116.469 Y93.079 E15.90631 ; skirt
G1 X116.849 Y94.059 E16.01033 ; skirt
G1 X117.109 Y94.859 E16.09358 ; skirt
G1 X117.379 Y95.859 E16.19609 ; skirt
G1 X117.559 Y96.709 E16.28207 ; skirt
G1 X117.719 Y97.739 E16.38523 ; skirt
G1 X117.809 Y98.569 E16.46785 ; skirt
G1 X117.859 Y99.619 E16.57188 ; skirt
G1 X117.859 Y100.379 E16.64710 ; skirt
G1 X117.809 Y101.419 E16.75014 ; skirt
G1 X117.719 Y102.249 E16.83276 ; skirt
G1 X117.559 Y103.279 E16.93592 ; skirt
G1 X117.389 Y104.109 E17.01977 ; skirt
G1 X117.119 Y105.119 E17.12323 ; skirt
G1 X116.839 Y105.959 E17.21086 ; skirt
G1 X116.459 Y106.929 E17.31396 ; skirt
G1 X116.159 Y107.619 E17.38842 ; skirt
G1 X115.689 Y108.549 E17.49154 ; skirt
G1 X115.239 Y109.309 E17.57895 ; skirt
G1 X114.669 Y110.179 E17.68189 ; skirt
G1 X114.219 Y110.809 E17.75851 ; skirt
G1 X113.559 Y111.629 E17.86268 ; skirt
G1 X112.989 Y112.259 E17.94676 ; skirt
G1 X112.259 Y112.989 E18.04893 ; skirt
G1 X111.629 Y113.559 E18.13301 ; skirt
G1 X110.809 Y114.219 E18.23718 ; skirt
G1 X110.179 Y114.669 E18.31380 ; skirt
G1 X109.309 Y115.239 E18.41673 ; skirt
G1 X108.549 Y115.689 E18.50414 ; skirt
G1 X107.619 Y116.159 E18.60727 ; skirt
G1 X106.929 Y116.459 E18.68173 ; skirt
G1 X105.959 Y116.839 E18.78483 ; skirt
G1 X105.119 Y117.119 E18.87246 ; skirt
G1 X104.109 Y117.389 E18.97592 ; skirt
G1 X103.279 Y117.559 E19.05977 ; skirt
G1 X102.249 Y117.719 E19.16292 ; skirt
G1 X101.419 Y117.809 E19.24555 ; skirt
G1 X100.379 Y117.859 E19.34859 ; skirt
G1 X99.619 Y117.859 E19.42380 ; skirt
G1 X98.569 Y117.809 E19.52783 ; skirt
G1 X97.739 Y117.719 E19.61046 ; skirt
G1 X96.709 Y117.559 E19.71361 ; skirt
G1 X95.859 Y117.379 E19.79960 ; skirt
G1 X94.859 Y117.109 E19.90211 ; skirt
G1 X94.059 Y116.849 E19.98536 ; skirt
G1 X93.079 Y116.469 E20.08938 ; skirt
G1 X92.369 Y116.159 E20.16605 ; skirt
G1 X91.439 Y115.689 E20.26917 ; skirt
G1 X90.679 Y115.239 E20.35658 ; skirt
G1 X89.809 Y114.669 E20.45952 ; skirt
G1 X89.149 Y114.189 E20.54028 ; skirt
G1 X88.339 Y113.529 E20.64368 ; skirt
G1 X87.779 Y113.029 E20.71798 ; skirt
G1 X87.039 Y112.299 E20.82085 ; skirt
G1 X86.429 Y111.629 E20.91052 ; skirt
G1 X85.769 Y110.809 E21.01470 ; skirt
G1 X85.319 Y110.179 E21.09132 ; skirt
G1 X84.749 Y109.309 E21.19425 ; skirt
G1 X84.299 Y108.549 E21.28166 ; skirt
G1 X83.829 Y107.619 E21.38478 ; skirt
G1 X83.499 Y106.869 E21.46587 ; skirt
G1 X83.129 Y105.899 E21.56862 ; skirt
G1 X82.879 Y105.119 E21.64968 ; skirt
G1 X82.609 Y104.109 E21.75314 ; skirt
G1 X82.449 Y103.359 E21.82904 ; skirt
G1 X82.279 Y102.329 E21.93235 ; skirt
G1 X82.179 Y101.419 E22.02295 ; skirt
G1 X82.129 Y100.379 E22.12599 ; skirt
G1 X82.129 Y99.619 E22.20121 ; skirt
G1 X82.179 Y98.569 E22.30524 ; skirt
G1 X82.279 Y97.659 E22.39584 ; skirt
G1 X82.449 Y96.629 E22.49915 ; skirt
G1 X82.619 Y95.859 E22.57719 ; skirt
G1 X82.889 Y94.859 E22.67970 ; skirt
G1 X83.119 Y94.129 E22.75545 ; skirt
G1 X83.489 Y93.149 E22.85911 ; skirt
G1 X83.829 Y92.369 E22.94332 ; skirt
G1 X84.299 Y91.439 E23.04645 ; skirt
G1 X84.749 Y90.679 E23.13385 ; skirt
G1 X85.319 Y89.809 E23.23679 ; skirt
G1 X85.799 Y89.149 E23.31755 ; skirt
G1 X86.459 Y88.339 E23.42096 ; skirt
G1 X86.999 Y87.739 E23.50084 ; skirt
G1 X87.672 Y87.067 E23.59498 ; skirt
G1 X88.189 Y87.449 F7800.000 ; move to first skirt point
G1 X88.739 Y86.949 F540.000 E23.66854 ; skirt
G1 X89.549 Y86.289 E23.77194 ; skirt
G1 X90.159 Y85.849 E23.84638 ; skirt
G1 X91.029 Y85.279 E23.94931 ; skirt
G1 X91.729 Y84.869 E24.02959 ; skirt
G1 X92.659 Y84.399 E24.13272 ; skirt
G1 X93.369 Y84.089 E24.20939 ; skirt
G1 X94.349 Y83.719 E24.31306 ; skirt
G1 X95.019 Y83.499 E24.38285 ; skirt
G1 X96.019 Y83.229 E24.48535 ; skirt
G1 X96.739 Y83.079 E24.55814 ; skirt
G1 X97.769 Y82.909 E24.66145 ; skirt
G1 X98.599 Y82.819 E24.74408 ; skirt
G1 X99.649 Y82.769 E24.84811 ; skirt
G1 X100.349 Y82.769 E24.91738 ; skirt
G1 X101.389 Y82.819 E25.02043 ; skirt
G1 X102.219 Y82.909 E25.10305 ; skirt
G1 X103.249 Y83.079 E25.20636 ; skirt
G1 X103.949 Y83.229 E25.27721 ; skirt
G1 X104.959 Y83.499 E25.38067 ; skirt
G1 X105.669 Y83.729 E25.45453 ; skirt
G1 X106.639 Y84.099 E25.55728 ; skirt
G1 X107.329 Y84.399 E25.63174 ; skirt
G1 X108.259 Y84.869 E25.73486 ; skirt
G1 X108.959 Y85.279 E25.81515 ; skirt
G1 X109.829 Y85.849 E25.91808 ; skirt
G1 X110.409 Y86.269 E25.98895 ; skirt
G1 X111.229 Y86.929 E26.09312 ; skirt
G1 X111.849 Y87.479 E26.17514 ; skirt
G1 X112.579 Y88.219 E26.27802 ; skirt
G1 X113.039 Y88.739 E26.34672 ; skirt
G1 X113.699 Y89.549 E26.45013 ; skirt
G1 X114.139 Y90.159 E26.52456 ; skirt
G1 X114.709 Y91.029 E26.62749 ; skirt
G1 X115.119 Y91.729 E26.70778 ; skirt
G1 X115.589 Y92.659 E26.81090 ; skirt
G1 X115.879 Y93.309 E26.88134 ; skirt
G1 X116.259 Y94.289 E26.98536 ; skirt
G1 X116.499 Y95.019 E27.06141 ; skirt
G1 X116.769 Y96.019 E27.16392 ; skirt
G1 X116.939 Y96.799 E27.24293 ; skirt
G1 X117.099 Y97.829 E27.34608 ; skirt
G1 X117.169 Y98.599 E27.42260 ; skirt
G1 X117.219 Y99.649 E27.52663 ; skirt
G1 X117.219 Y100.349 E27.59591 ; skirt
G1 X117.169 Y101.389 E27.69895 ; skirt
G1 X117.099 Y102.159 E27.77547 ; skirt
G1 X116.939 Y103.189 E27.87863 ; skirt
G1 X116.769 Y103.949 E27.95570 ; skirt
G1 X116.499 Y104.959 E28.05916 ; skirt
G1 X116.249 Y105.729 E28.13928 ; skirt
G1 X115.869 Y106.699 E28.24238 ; skirt
G1 X115.589 Y107.329 E28.31061 ; skirt
G1 X115.119 Y108.259 E28.41373 ; skirt
G1 X114.709 Y108.959 E28.49402 ; skirt
G1 X114.139 Y109.829 E28.59695 ; skirt
G1 X113.719 Y110.409 E28.66782 ; skirt
G1 X113.059 Y111.229 E28.77199 ; skirt
G1 X112.539 Y111.809 E28.84908 ; skirt
G1 X111.809 Y112.539 E28.95125 ; skirt
G1 X111.229 Y113.059 E29.02834 ; skirt
G1 X110.409 Y113.719 E29.13252 ; skirt
G1 X109.829 Y114.139 E29.20339 ; skirt
G1 X108.959 Y114.709 E29.30632 ; skirt
G1 X108.259 Y115.119 E29.38660 ; skirt
G1 X107.329 Y115.589 E29.48973 ; skirt
G1 X106.699 Y115.869 E29.55796 ; skirt
G1 X105.729 Y116.249 E29.66106 ; skirt
G1 X104.959 Y116.499 E29.74118 ; skirt
G1 X103.949 Y116.769 E29.84464 ; skirt
G1 X103.189 Y116.939 E29.92171 ; skirt
G1 X102.159 Y117.099 E30.02487 ; skirt
G1 X101.389 Y117.169 E30.10139 ; skirt
G1 X100.349 Y117.219 E30.20443 ; skirt
G1 X99.649 Y117.219 E30.27371 ; skirt
G1 X98.599 Y117.169 E30.37774 ; skirt
G1 X97.829 Y117.099 E30.45425 ; skirt
G1 X96.799 Y116.939 E30.55741 ; skirt
G1 X96.019 Y116.769 E30.63642 ; skirt
G1 X95.019 Y116.499 E30.73893 ; skirt
G1 X94.289 Y116.259 E30.81497 ; skirt
G1 X93.309 Y115.879 E30.91900 ; skirt
G1 X92.659 Y115.589 E30.98944 ; skirt
G1 X91.729 Y115.119 E31.09256 ; skirt
G1 X91.029 Y114.709 E31.17284 ; skirt
G1 X90.159 Y114.139 E31.27578 ; skirt
G1 X89.549 Y113.699 E31.35021 ; skirt
G1 X88.739 Y113.039 E31.45361 ; skirt
G1 X88.219 Y112.579 E31.52232 ; skirt
G1 X87.479 Y111.849 E31.62519 ; skirt
G1 X86.929 Y111.229 E31.70722 ; skirt
G1 X86.269 Y110.409 E31.81139 ; skirt
G1 X85.849 Y109.829 E31.88226 ; skirt
G1 X85.279 Y108.959 E31.98519 ; skirt
G1 X84.869 Y108.259 E32.06547 ; skirt
G1 X84.399 Y107.329 E32.16860 ; skirt
G1 X84.099 Y106.639 E32.24306 ; skirt
G1 X83.729 Y105.669 E32.34580 ; skirt
G1 X83.499 Y104.959 E32.41966 ; skirt
G1 X83.229 Y103.949 E32.52313 ; skirt
G1 X83.079 Y103.249 E32.59398 ; skirt
G1 X82.909 Y102.219 E32.69729 ; skirt
G1 X82.819 Y101.389 E32.77991 ; skirt
G1 X82.769 Y100.349 E32.88295 ; skirt
G1 X82.769 Y99.649 E32.95223 ; skirt
G1 X82.819 Y98.599 E33.05626 ; skirt
G1 X82.909 Y97.769 E33.13888 ; skirt
G1 X83.079 Y96.739 E33.24220 ; skirt
G1 X83.229 Y96.019 E33.31498 ; skirt
G1 X83.499 Y95.019 E33.41749 ; skirt
G1 X83.719 Y94.349 E33.48728 ; skirt
G1 X84.089 Y93.369 E33.59095 ; skirt
G1 X84.399 Y92.659 E33.66762 ; skirt
G1 X84.869 Y91.729 E33.77074 ; skirt
G1 X85.279 Y91.029 E33.85103 ; skirt
G1 X85.849 Y90.159 E33.95396 ; skirt
G1 X86.289 Y89.549 E34.02840 ; skirt
G1 X86.949 Y88.739 E34.13180 ; skirt
G1 X87.449 Y88.189 E34.20536 ; skirt
G1 X88.122 Y87.517 E34.29950 ; skirt
G1 X88.639 Y87.899 F7800.000 ; move to first skirt point
G1 X89.139 Y87.449 F540.000 E34.36607 ; skirt
G1 X89.949 Y86.789 E34.46947 ; skirt
G1 X90.499 Y86.379 E34.53736 ; skirt
G1 X91.369 Y85.809 E34.64029 ; skirt
G1 X92.019 Y85.439 E34.71431 ; skirt
G1 X92.949 Y84.969 E34.81744 ; skirt
G1 X93.599 Y84.679 E34.88788 ; skirt
G1 X94.579 Y84.309 E34.99154 ; skirt
G1 X95.189 Y84.109 E35.05508 ; skirt
G1 X96.189 Y83.839 E35.15758 ; skirt
G1 X96.839 Y83.699 E35.22339 ; skirt
G1 X97.869 Y83.529 E35.32670 ; skirt
G1 X98.629 Y83.449 E35.40233 ; skirt
G1 X99.679 Y83.399 E35.50636 ; skirt
G1 X100.319 Y83.399 E35.56970 ; skirt
G1 X101.359 Y83.449 E35.67274 ; skirt
G1 X102.119 Y83.529 E35.74837 ; skirt
G1 X103.149 Y83.699 E35.85168 ; skirt
G1 X103.779 Y83.839 E35.91555 ; skirt
G1 X104.789 Y84.109 E36.01902 ; skirt
G1 X105.439 Y84.319 E36.08662 ; skirt
G1 X106.409 Y84.689 E36.18936 ; skirt
G1 X107.039 Y84.969 E36.25759 ; skirt
G1 X107.969 Y85.439 E36.36072 ; skirt
G1 X108.619 Y85.809 E36.43473 ; skirt
G1 X109.489 Y86.379 E36.53767 ; skirt
G1 X110.009 Y86.759 E36.60141 ; skirt
G1 X110.829 Y87.419 E36.70558 ; skirt
G1 X111.389 Y87.929 E36.78054 ; skirt
G1 X112.119 Y88.669 E36.88341 ; skirt
G1 X112.539 Y89.139 E36.94579 ; skirt
