; generated by Slic3r 0.9.10b on 2014-01-20 at 00:52:54

; layer_height = 0.4
; perimeters = 5
; top_solid_layers = 3
; bottom_solid_layers = 3
; fill_density = 0.4
; perimeter_speed = 30
; infill_speed = 60
; travel_speed = 130
; nozzle_diameter = 0.5
; filament_diameter = 1.75
; extrusion_multiplier = 0.98
; perimeters extrusion width = 0.53mm
; infill extrusion width = 0.53mm
; solid infill extrusion width = 0.53mm
; top infill extrusion width = 0.53mm
; first layer extrusion width = 0.70mm

G21 ; set units to millimeters
M107
M104 S195 ; set temperature
G28 ; home all axes
G1 Z5 F5000 ; lift nozzle
M109 S195 ; wait for temperature to be reached
G90 ; use absolute coordinates
G92 E0
M82 ; use absolute distances for extrusion
G1 F1800.000 E-1.00000
G92 E0
G1 Z0.050 F7800.000
G1 X88.619 Y87.879
G1 F1800.000 E1.00000
G1 X89.119 Y87.429 F540.000 E1.06303
G1 X89.929 Y86.769 E1.16093
G1 X90.489 Y86.359 E1.22597
G1 X91.359 Y85.789 E1.32343
G1 X92.009 Y85.419 E1.39351
G1 X92.939 Y84.949 E1.49115
G1 X93.589 Y84.659 E1.55784
G1 X94.569 Y84.289 E1.65599
G1 X95.179 Y84.089 E1.71615
G1 X96.179 Y83.819 E1.81320
G1 X96.839 Y83.679 E1.87642
G1 X97.869 Y83.509 E1.97424
G1 X98.629 Y83.429 E2.04585
G1 X99.679 Y83.379 E2.14434
G1 X100.319 Y83.379 E2.20431
G1 X101.359 Y83.429 E2.30187
G1 X102.119 Y83.509 E2.37348
G1 X103.149 Y83.679 E2.47130
G1 X103.789 Y83.819 E2.53269
G1 X104.799 Y84.089 E2.63065
G1 X105.449 Y84.299 E2.69465
G1 X106.419 Y84.669 E2.79193
G1 X107.049 Y84.949 E2.85653
G1 X107.979 Y85.419 E2.95417
G1 X108.629 Y85.789 E3.02425
G1 X109.499 Y86.359 E3.12171
G1 X110.019 Y86.739 E3.18206
G1 X110.839 Y87.399 E3.28069
G1 X111.409 Y87.909 E3.35236
G1 X112.139 Y88.649 E3.44976
G1 X112.559 Y89.119 E3.50882
G1 X113.219 Y89.929 E3.60672
G1 X113.629 Y90.489 E3.67176
G1 X114.199 Y91.359 E3.76921
G1 X114.569 Y92.009 E3.83930
G1 X115.039 Y92.939 E3.93694
G1 X115.309 Y93.529 E3.99773
G1 X115.689 Y94.509 E4.09622
G1 X115.909 Y95.179 E4.16230
G1 X116.179 Y96.179 E4.25936
G1 X116.329 Y96.899 E4.32827
G1 X116.489 Y97.929 E4.42594
G1 X116.559 Y98.629 E4.49186
G1 X116.609 Y99.679 E4.59036
G1 X116.609 Y100.319 E4.65033
G1 X116.559 Y101.359 E4.74789
G1 X116.489 Y102.059 E4.81381
G1 X116.329 Y103.089 E4.91148
G1 X116.179 Y103.789 E4.97856
G1 X115.909 Y104.799 E5.07652
G1 X115.679 Y105.509 E5.14645
G1 X115.299 Y106.479 E5.24406
G1 X115.039 Y107.049 E5.30277
G1 X114.569 Y107.979 E5.40041
G1 X114.199 Y108.629 E5.47049
G1 X113.629 Y109.499 E5.56795
G1 X113.249 Y110.019 E5.62830
G1 X112.589 Y110.839 E5.72693
G1 X112.109 Y111.379 E5.79463
G1 X111.379 Y112.109 E5.89136
G1 X110.839 Y112.589 E5.95906
G1 X110.019 Y113.249 E6.05769
G1 X109.499 Y113.629 E6.11804
G1 X108.629 Y114.199 E6.21550
G1 X107.979 Y114.569 E6.28558
G1 X107.049 Y115.039 E6.38322
G1 X106.479 Y115.299 E6.44192
G1 X105.509 Y115.679 E6.53954
G1 X104.799 Y115.909 E6.60947
G1 X103.789 Y116.179 E6.70743
G1 X103.089 Y116.329 E6.77451
G1 X102.059 Y116.489 E6.87218
G1 X101.359 Y116.559 E6.93810
G1 X100.319 Y116.609 E7.03566
G1 X99.679 Y116.609 E7.09563
G1 X98.629 Y116.559 E7.19413
G1 X97.929 Y116.489 E7.26005
G1 X96.899 Y116.329 E7.35772
G1 X96.179 Y116.179 E7.42663
G1 X95.179 Y115.909 E7.52369
G1 X94.509 Y115.689 E7.58977
G1 X93.529 Y115.309 E7.68825
G1 X92.939 Y115.039 E7.74905
G1 X92.009 Y114.569 E7.84669
G1 X91.359 Y114.199 E7.91677
G1 X90.489 Y113.629 E8.01423
G1 X89.929 Y113.219 E8.07926
G1 X89.119 Y112.559 E8.17717
G1 X88.649 Y112.139 E8.23623
G1 X87.909 Y111.409 E8.33363
G1 X87.399 Y110.839 E8.40530
G1 X86.739 Y110.019 E8.50393
G1 X86.359 Y109.499 E8.56428
G1 X85.789 Y108.629 E8.66174
G1 X85.419 Y107.979 E8.73182
G1 X84.949 Y107.049 E8.82946
G1 X84.669 Y106.419 E8.89406
G1 X84.299 Y105.449 E8.99133
G1 X84.089 Y104.799 E9.05534
G1 X83.819 Y103.789 E9.15330
G1 X83.679 Y103.149 E9.21469
G1 X83.509 Y102.119 E9.31251
G1 X83.429 Y101.359 E9.38411
G1 X83.379 Y100.319 E9.48168
G1 X83.379 Y99.679 E9.54164
G1 X83.429 Y98.629 E9.64014
G1 X83.509 Y97.869 E9.71175
G1 X83.679 Y96.839 E9.80957
G1 X83.819 Y96.179 E9.87279
G1 X84.089 Y95.179 E9.96984
G1 X84.289 Y94.569 E10.02999
G1 X84.659 Y93.589 E10.12815
G1 X84.949 Y92.939 E10.19484
G1 X85.419 Y92.009 E10.29248
G1 X85.789 Y91.359 E10.36256
G1 X86.359 Y90.489 E10.46002
G1 X86.769 Y89.929 E10.52505
G1 X87.429 Y89.119 E10.62296
G1 X87.879 Y88.619 E10.68599
G1 X88.549 Y87.949 E10.77481
G1 F1800.000 E9.77481
G92 E0
G1 X95.312 Y94.794 F7800.000
G1 F1800.000 E1.00000
G1 X95.881 Y94.332 F540.000 E1.06869
G1 X96.497 Y93.933 E1.13743
G1 X97.153 Y93.599 E1.20637
G1 X97.835 Y93.336 E1.27489
G1 X98.542 Y93.147 E1.34351
G1 X99.267 Y93.032 E1.41223
G1 X100.002 Y92.994 E1.48125
G1 X100.732 Y93.032 E1.54968
G1 X101.458 Y93.147 E1.61862
G1 X102.164 Y93.336 E1.68706
G1 X102.849 Y93.600 E1.75588
G1 X103.503 Y93.932 E1.82455
G1 X104.117 Y94.331 E1.89321
G1 X104.689 Y94.795 E1.96222
G1 X105.206 Y95.312 E2.03074
G1 X105.668 Y95.881 E2.09944
G1 X106.067 Y96.497 E2.16818
G1 X106.401 Y97.153 E2.23712
G1 X106.664 Y97.835 E2.30563
G1 X106.853 Y98.542 E2.37426
G1 X106.968 Y99.267 E2.44297
G1 X107.006 Y100.002 E2.51199
G1 X106.968 Y100.732 E2.58042
G1 X106.853 Y101.458 E2.64936
G1 X106.664 Y102.164 E2.71781
G1 X106.400 Y102.849 E2.78663
G1 X106.068 Y103.503 E2.85530
G1 X105.669 Y104.117 E2.92395
G1 X105.205 Y104.689 E2.99296
G1 X104.688 Y105.206 E3.06149
G1 X104.119 Y105.668 E3.13018
G1 X103.503 Y106.067 E3.19892
G1 X102.847 Y106.401 E3.26787
G1 X102.165 Y106.664 E3.33638
G1 X101.458 Y106.853 E3.40500
G1 X100.733 Y106.968 E3.47372
G1 X99.999 Y107.006 E3.54259
G1 X99.268 Y106.968 E3.61122
G1 X98.542 Y106.853 E3.68007
G1 X97.836 Y106.664 E3.74856
G1 X97.151 Y106.400 E3.81737
G1 X96.497 Y106.068 E3.88604
G1 X95.883 Y105.669 E3.95470
G1 X95.311 Y105.205 E4.02371
G1 X94.794 Y104.688 E4.09223
G1 X94.332 Y104.119 E4.16093
G1 X93.933 Y103.503 E4.22967
G1 X93.599 Y102.847 E4.29861
G1 X93.336 Y102.165 E4.36712
G1 X93.147 Y101.458 E4.43575
G1 X93.032 Y100.733 E4.50446
G1 X92.994 Y99.999 E4.57333
G1 X93.032 Y99.268 E4.64196
G1 X93.147 Y98.542 E4.71082
G1 X93.336 Y97.836 E4.77929
G1 X93.600 Y97.151 E4.84812
G1 X93.932 Y96.497 E4.91679
G1 X94.331 Y95.883 E4.98544
G1 X94.795 Y95.311 E5.05445
G1 X95.242 Y94.863 E5.11374
G1 X94.872 Y94.305 F7800.000
G1 X95.495 Y93.800 F540.000 E5.18890
G1 X96.168 Y93.363 E5.26413
G1 X96.885 Y92.998 E5.33948
G1 X97.631 Y92.710 E5.41444
G1 X98.406 Y92.503 E5.48956
G1 X99.198 Y92.378 E5.56473
G1 X100.002 Y92.336 E5.64019
G1 X100.800 Y92.377 E5.71506
G1 X101.595 Y92.504 E5.79045
G1 X102.367 Y92.710 E5.86537
G1 X103.117 Y92.999 E5.94065
G1 X103.831 Y93.362 E6.01573
G1 X104.504 Y93.799 E6.09088
G1 X105.130 Y94.306 E6.16634
G1 X105.695 Y94.872 E6.24129
G1 X106.200 Y95.495 E6.31644
G1 X106.637 Y96.168 E6.39168
G1 X107.002 Y96.885 E6.46703
G1 X107.290 Y97.631 E6.54199
G1 X107.497 Y98.406 E6.61710
G1 X107.622 Y99.198 E6.69227
G1 X107.664 Y100.002 E6.76773
G1 X107.623 Y100.800 E6.84260
G1 X107.496 Y101.595 E6.91799
G1 X107.290 Y102.368 E6.99293
G1 X107.001 Y103.117 E7.06819
G1 X106.638 Y103.831 E7.14328
G1 X106.201 Y104.504 E7.21842
G1 X105.694 Y105.130 E7.29389
G1 X105.128 Y105.695 E7.36884
G1 X104.505 Y106.200 E7.44399
G1 X103.832 Y106.637 E7.51922
G1 X103.115 Y107.002 E7.59458
G1 X102.369 Y107.290 E7.66954
G1 X101.594 Y107.497 E7.74465
G1 X100.802 Y107.622 E7.81982
G1 X99.999 Y107.664 E7.89512
G1 X99.199 Y107.622 E7.97019
G1 X98.405 Y107.497 E8.04551
G1 X97.632 Y107.290 E8.12047
G1 X96.883 Y107.001 E8.19574
G1 X96.169 Y106.638 E8.27082
G1 X95.496 Y106.201 E8.34597
G1 X94.870 Y105.694 E8.42144
G1 X94.305 Y105.128 E8.49638
G1 X93.800 Y104.505 E8.57153
G1 X93.363 Y103.832 E8.64677
G1 X92.998 Y103.115 E8.72212
G1 X92.710 Y102.369 E8.79708
G1 X92.503 Y101.594 E8.87219
G1 X92.378 Y100.802 E8.94736
G1 X92.336 Y99.999 E9.02267
G1 X92.378 Y99.199 E9.09774
G1 X92.503 Y98.405 E9.17305
G1 X92.710 Y97.633 E9.24801
G1 X92.999 Y96.883 E9.32329
G1 X93.362 Y96.169 E9.39837
G1 X93.799 Y95.496 E9.47352
G1 X94.306 Y94.870 E9.54898
G1 X94.802 Y94.375 E9.61469
G1 X94.431 Y93.816 F7800.000
G1 X95.108 Y93.267 F540.000 E9.69634
G1 X95.839 Y92.793 E9.77803
G1 X96.617 Y92.397 E9.85976
G1 X97.428 Y92.085 E9.94123
G1 X98.269 Y91.860 E10.02279
G1 X99.129 Y91.723 E10.10443
G1 X100.002 Y91.678 E10.18629
G1 X100.836 Y91.721 E10.26456
G1 X101.732 Y91.860 E10.34946
G1 X102.571 Y92.084 E10.43089
G1 X103.385 Y92.398 E10.51258
G1 X104.160 Y92.792 E10.59412
G1 X104.891 Y93.267 E10.67575
G1 X105.570 Y93.817 E10.75762
G1 X106.184 Y94.431 E10.83902
G1 X106.733 Y95.108 E10.92067
G1 X107.207 Y95.839 E11.00236
G1 X107.603 Y96.617 E11.08410
G1 X107.915 Y97.428 E11.16556
G1 X108.140 Y98.269 E11.24712
G1 X108.277 Y99.129 E11.32876
G1 X108.322 Y100.002 E11.41062
G1 X108.279 Y100.836 E11.48889
G1 X108.140 Y101.732 E11.57380
G1 X107.916 Y102.571 E11.65523
G1 X107.602 Y103.385 E11.73691
G1 X107.208 Y104.160 E11.81846
G1 X106.733 Y104.891 E11.90008
G1 X106.183 Y105.570 E11.98195
G1 X105.569 Y106.184 E12.06336
G1 X104.892 Y106.733 E12.14500
G1 X104.161 Y107.207 E12.22669
G1 X103.383 Y107.603 E12.30843
G1 X102.572 Y107.915 E12.38989
G1 X101.731 Y108.140 E12.47145
G1 X100.871 Y108.277 E12.55310
G1 X100.000 Y108.322 E12.63479
G1 X99.164 Y108.279 E12.71322
G1 X98.269 Y108.140 E12.79810
G1 X97.429 Y107.916 E12.87956
G1 X96.615 Y107.602 E12.96124
G1 X95.840 Y107.208 E13.04279
G1 X95.109 Y106.733 E13.12441
G1 X94.430 Y106.183 E13.20628
G1 X93.816 Y105.569 E13.28769
G1 X93.267 Y104.892 E13.36934
G1 X92.793 Y104.161 E13.45102
G1 X92.397 Y103.383 E13.53276
G1 X92.085 Y102.572 E13.61422
G1 X91.860 Y101.731 E13.69578
G1 X91.723 Y100.871 E13.77743
G1 X91.678 Y100.000 E13.85912
G1 X91.723 Y99.130 E13.94071
G1 X91.860 Y98.269 E14.02245
G1 X92.084 Y97.429 E14.10390
G1 X92.398 Y96.615 E14.18559
G1 X92.792 Y95.840 E14.26713
G1 X93.267 Y95.109 E14.34875
G1 X93.817 Y94.430 E14.43063
G1 X94.361 Y93.886 E14.50280
G1 F1800.000 E13.50280
G92 E0
G1 X99.061 Y108.931 F7800.000
G1 F1800.000 E1.00000
G1 X98.132 Y108.784 F540.000 E1.08817
G1 X97.225 Y108.541 E1.17612
G1 X96.348 Y108.203 E1.26421
G1 X95.511 Y107.778 E1.35223
G1 X94.722 Y107.266 E1.44032
G1 X93.990 Y106.672 E1.52860
G1 X93.327 Y106.009 E1.61646
G1 X92.778 Y105.332 E1.69821
G1 X92.223 Y104.490 E1.79271
G1 X91.796 Y103.651 E1.88083
G1 X91.459 Y102.775 E1.96880
G1 X91.216 Y101.868 E2.05681
G1 X91.069 Y100.939 E2.14493
G1 X91.020 Y100.000 E2.23301
G1 X91.069 Y99.061 E2.32112
G1 X91.216 Y98.132 E2.40929
G1 X91.459 Y97.225 E2.49723
G1 X91.797 Y96.348 E2.58533
G1 X92.222 Y95.511 E2.67334
G1 X92.734 Y94.722 E2.76143
G1 X93.328 Y93.990 E2.84972
G1 X93.991 Y93.327 E2.93758
G1 X94.668 Y92.778 E3.01933
G1 X95.510 Y92.223 E3.11382
G1 X96.349 Y91.796 E3.20195
G1 X97.225 Y91.459 E3.28991
G1 X98.132 Y91.216 E3.37793
G1 X99.061 Y91.069 E3.46604
G1 X100.002 Y91.020 E3.55430
G1 X100.938 Y91.069 E3.64220
G1 X101.868 Y91.216 E3.73042
G1 X102.775 Y91.459 E3.81835
G1 X103.652 Y91.797 E3.90645
G1 X104.489 Y92.222 E3.99446
G1 X105.278 Y92.734 E4.08255
G1 X106.010 Y93.328 E4.17083
G1 X106.673 Y93.991 E4.25869
G1 X107.222 Y94.668 E4.34045
G1 X107.777 Y95.510 E4.43494
G1 X108.204 Y96.349 E4.52307
G1 X108.541 Y97.225 E4.61103
G1 X108.784 Y98.132 E4.69904
G1 X108.931 Y99.061 E4.78715
G1 X108.980 Y100.002 E4.87542
G1 X108.931 Y100.938 E4.96332
G1 X108.784 Y101.868 E5.05153
G1 X108.541 Y102.775 E5.13947
G1 X108.203 Y103.652 E5.22756
G1 X107.809 Y104.428 E5.30917
G1 X107.266 Y105.278 E5.40363
G1 X106.672 Y106.010 E5.49192
G1 X106.009 Y106.673 E5.57978
G1 X105.279 Y107.265 E5.66793
G1 X104.490 Y107.777 E5.75606
G1 X103.651 Y108.204 E5.84418
G1 X102.775 Y108.541 E5.93215
G1 X101.868 Y108.784 E6.02016
G1 X100.939 Y108.931 E6.10828
G1 X100.000 Y108.980 E6.19636
G1 X99.160 Y108.936 E6.27523
G1 X99.095 Y109.591 F7800.000
G1 X97.995 Y109.427 F378.000 E6.37944
G1 X97.022 Y109.167 E6.47389
G1 X96.080 Y108.805 E6.56840
G1 X95.182 Y108.347 E6.66288
G1 X94.335 Y107.798 E6.75744
G1 X93.550 Y107.161 E6.85213
G1 X92.838 Y106.450 E6.94645
G1 X92.202 Y105.665 E7.04110
G1 X91.653 Y104.818 E7.13567
G1 X91.195 Y103.919 E7.23019
G1 X90.833 Y102.979 E7.32465
G1 X90.573 Y102.005 E7.41911
G1 X90.414 Y101.008 E7.51371
G1 X90.362 Y100.001 E7.60818
G1 X90.414 Y98.992 E7.70280
G1 X90.573 Y97.995 E7.79740
G1 X90.833 Y97.022 E7.89183
G1 X91.195 Y96.080 E7.98635
G1 X91.653 Y95.182 E8.08082
G1 X92.202 Y94.335 E8.17539
G1 X92.839 Y93.550 E8.27008
G1 X93.550 Y92.838 E8.36440
G1 X94.255 Y92.267 E8.44940
G1 X95.182 Y91.653 E8.55358
G1 X96.081 Y91.195 E8.64809
G1 X97.021 Y90.833 E8.74255
G1 X97.995 Y90.573 E8.83702
G1 X98.992 Y90.414 E8.93159
G1 X100.001 Y90.362 E9.02627
G1 X101.007 Y90.414 E9.12068
G1 X102.005 Y90.573 E9.21530
G1 X102.978 Y90.833 E9.30973
G1 X103.920 Y91.195 E9.40425
G1 X104.818 Y91.653 E9.49873
G1 X105.665 Y92.202 E9.59329
G1 X106.450 Y92.839 E9.68798
G1 X107.162 Y93.550 E9.78230
G1 X107.733 Y94.255 E9.86730
G1 X108.347 Y95.182 E9.97148
G1 X108.805 Y96.081 E10.06599
G1 X109.167 Y97.021 E10.16046
G1 X109.427 Y97.995 E10.25492
G1 X109.586 Y98.992 E10.34950
G1 X109.638 Y100.001 E10.44417
G1 X109.586 Y101.007 E10.53858
G1 X109.427 Y102.005 E10.63321
G1 X109.167 Y102.978 E10.72764
G1 X108.805 Y103.920 E10.82215
G1 X108.394 Y104.727 E10.90698
G1 X107.798 Y105.665 E11.01115
G1 X107.161 Y106.450 E11.10584
G1 X106.450 Y107.162 E11.20016
G1 X105.665 Y107.798 E11.29480
G1 X104.818 Y108.347 E11.38938
G1 X103.919 Y108.805 E11.48389
G1 X102.979 Y109.167 E11.57836
G1 X102.005 Y109.427 E11.67282
G1 X101.008 Y109.586 E11.76742
G1 X100.001 Y109.638 E11.86189
G1 X99.194 Y109.596 E11.93760
G1 X98.835 Y108.988 F7800.000
G1 F1800.000 E10.93760
G92 E0
G1 X97.576 Y106.054 F7800.000
G1 F1800.000 E1.00000
G1 X93.946 Y102.424 F1080.000 E1.48762
G1 X93.574 Y101.110 E1.61733
G1 X98.890 Y106.426 E2.33146
G1 X99.932 Y106.525 E2.43083
G1 X93.475 Y100.068 E3.29819
G1 X93.528 Y99.180 E3.38273
G1 X100.820 Y106.472 E4.36224
G1 X101.610 Y106.319 E4.43861
G1 X93.681 Y98.390 E5.50367
G1 X93.908 Y97.676 E5.57490
G1 X102.324 Y106.092 E6.70543
G1 X102.976 Y105.801 E6.77317
G1 X94.198 Y97.024 E7.95217
G1 X94.545 Y96.428 E8.01762
G1 X103.571 Y105.455 E9.23015
G1 X104.115 Y105.057 E9.29416
G1 X94.943 Y95.885 E10.52629
G1 X95.390 Y95.390 E10.58963
G1 X104.610 Y104.610 E11.82821
G1 X105.057 Y104.115 E11.89155
G1 X95.885 Y94.943 E13.12368
G1 X96.429 Y94.545 E13.18769
G1 X105.455 Y103.571 E14.40022
G1 X105.802 Y102.976 E14.46567
G1 X97.024 Y94.198 E15.64466
G1 X97.676 Y93.908 E15.71240
G1 X106.092 Y102.324 E16.84293
G1 X106.319 Y101.610 E16.91416
G1 X98.390 Y93.681 E17.97922
G1 X99.180 Y93.528 E18.05559
G1 X106.472 Y100.820 E19.03509
G1 X106.525 Y99.932 E19.11963
G1 X100.068 Y93.474 E19.98699
G1 X101.110 Y93.574 E20.08637
G1 X106.426 Y98.890 E20.80048
G1 X106.054 Y97.576 E20.93020
G1 X102.424 Y93.946 E21.41780
M106 S255
M104 S190 ; set temperature
G1 F1800.000 E20.41780
G92 E0
G1 Z0.450 F7800.000
G1 X102.875 Y93.003
G1 F1800.000 E1.00000
G1 X103.080 Y93.081 F918.828 E1.01860
G1 X103.786 Y93.441 E1.08568
G1 X104.451 Y93.872 E1.15278
G1 X105.069 Y94.373 E1.22016
G1 X105.628 Y94.932 E1.28714
G1 X106.127 Y95.548 E1.35422
G1 X106.559 Y96.213 E1.42141
G1 X106.919 Y96.922 E1.48873
G1 X107.203 Y97.659 E1.55566
G1 X107.408 Y98.425 E1.62275
G1 X107.532 Y99.207 E1.68987
G1 X107.573 Y100.002 E1.75729
G1 X107.532 Y100.791 E1.82414
G1 X107.408 Y101.576 E1.89149
G1 X107.204 Y102.340 E1.95842
G1 X106.918 Y103.080 E2.02563
G1 X106.559 Y103.786 E2.09271
G1 X106.128 Y104.451 E2.15981
G1 X105.627 Y105.069 E2.22718
G1 X105.068 Y105.628 E2.29416
G1 X104.452 Y106.127 E2.36125
G1 X103.787 Y106.559 E2.42843
G1 X103.078 Y106.919 E2.49575
G1 X102.341 Y107.203 E2.56268
G1 X101.575 Y107.408 E2.62978
G1 X100.792 Y107.532 E2.69693
G1 X99.999 Y107.573 E2.76417
G1 X99.426 Y107.544 E2.81282
G1 X99.209 Y107.532 E2.83124
G1 X98.424 Y107.408 E2.89849
G1 X97.660 Y107.204 E2.96545
G1 X96.920 Y106.919 E3.03266
G1 X96.214 Y106.559 E3.09973
G1 X95.549 Y106.128 E3.16683
G1 X94.931 Y105.627 E3.23421
G1 X94.372 Y105.068 E3.30119
G1 X93.873 Y104.452 E3.36827
G1 X93.441 Y103.787 E3.43546
G1 X93.081 Y103.078 E3.50278
G1 X92.797 Y102.341 E3.56971
G1 X92.592 Y101.575 E3.63680
G1 X92.468 Y100.792 E3.70395
