; generated by Slic3r 0.9.10b on 2014-01-21 at 01:58:40

; layer_height = 0.4
; perimeters = 5
; top_solid_layers = 3
; bottom_solid_layers = 3
; fill_density = 0.4
; perimeter_speed = 30
; infill_speed = 60
; travel_speed = 130
; nozzle_diameter = 0.5
; filament_diameter = 1.75
; extrusion_multiplier = 1.15
; perimeters extrusion width = 0.53mm
; infill extrusion width = 0.53mm
; solid infill extrusion width = 0.53mm
; top infill extrusion width = 0.53mm
; first layer extrusion width = 0.70mm

G21 ; set units to millimeters
M107
M104 S200 ; set temperature
G28 ; home all axes
G1 Z5 F5000 ; lift nozzle
M109 S200 ; wait for temperature to be reached
G90 ; use absolute coordinates
G92 E0
M82 ; use absolute distances for extrusion
G1 F1800.000 E-1.00000
G92 E0
G1 Z0.450 F7800.000
G1 X77.029 Y37.665
G1 F1800.000 E1.00000
G1 X77.469 Y37.005 F540.000 E1.08722
G1 X77.979 Y36.335 E1.17980
G1 X78.729 Y35.505 E1.30281
G1 X79.339 Y34.935 E1.39461
G1 X80.139 Y34.295 E1.50726
G1 X80.829 Y33.825 E1.59905
G1 X81.349 Y33.505 E1.66619
G1 X81.889 Y33.235 E1.73257
G1 X82.659 Y32.895 E1.82513
G1 X83.199 Y32.685 E1.88883
G1 X83.749 Y32.525 E1.95182
G1 X84.559 Y32.325 E2.04356
G1 X85.609 Y32.155 E2.16051
G1 X86.999 Y32.055 E2.31375
G1 X112.999 Y32.055 E5.17260
G1 X114.389 Y32.155 E5.32583
G1 X115.429 Y32.325 E5.44170
G1 X116.239 Y32.525 E5.53344
G1 X116.789 Y32.685 E5.59642
G1 X117.329 Y32.895 E5.66013
G1 X118.099 Y33.235 E5.75268
G1 X118.639 Y33.505 E5.81907
G1 X119.159 Y33.825 E5.88620
G1 X119.849 Y34.295 E5.97800
G1 X120.649 Y34.935 E6.09065
G1 X121.259 Y35.505 E6.18245
G1 X121.979 Y36.305 E6.30079
G1 X122.449 Y36.915 E6.38547
G1 X122.919 Y37.605 E6.47727
G1 X139.139 Y65.275 E10.00394
G1 X139.529 Y66.055 E10.09983
G1 X139.829 Y66.765 E10.18458
G1 X140.149 Y67.685 E10.29169
G1 X140.379 Y68.575 E10.39276
G1 X140.499 Y69.175 E10.46004
G1 X140.569 Y69.775 E10.52646
G1 X140.649 Y71.085 E10.67078
G1 X140.649 Y128.905 E17.02842
G1 X140.569 Y130.215 E17.17273
G1 X140.399 Y131.325 E17.29620
G1 X140.199 Y132.145 E17.38901
G1 X139.859 Y133.155 E17.50619
G1 X139.529 Y133.935 E17.59931
G1 X139.139 Y134.715 E17.69520
G1 X122.959 Y162.325 E21.21396
G1 X122.519 Y162.985 E21.30118
G1 X122.009 Y163.655 E21.39377
G1 X121.259 Y164.485 E21.51677
G1 X120.649 Y165.055 E21.60857
G1 X119.789 Y165.735 E21.72912
G1 X119.099 Y166.195 E21.82030
G1 X118.159 Y166.715 E21.93842
G1 X117.389 Y167.065 E22.03143
G1 X116.819 Y167.295 E22.09901
G1 X116.229 Y167.465 E22.16652
G1 X115.499 Y167.645 E22.24920
G1 X114.569 Y167.805 E22.35296
G1 X113.659 Y167.895 E22.45350
G1 X112.999 Y167.935 E22.52621
G1 X86.999 Y167.935 E25.38506
G1 X85.609 Y167.835 E25.53829
G1 X84.559 Y167.665 E25.65525
G1 X83.749 Y167.465 E25.74699
G1 X83.169 Y167.295 E25.81344
G1 X82.599 Y167.065 E25.88103
G1 X81.829 Y166.715 E25.97403
G1 X80.889 Y166.195 E26.09215
G1 X80.199 Y165.735 E26.18333
G1 X79.339 Y165.055 E26.30388
G1 X78.729 Y164.485 E26.39568
G1 X77.979 Y163.655 E26.51869
G1 X77.469 Y162.985 E26.61127
G1 X77.029 Y162.325 E26.69849
G1 X60.849 Y134.715 E30.21725
G1 X60.459 Y133.935 E30.31314
G1 X60.129 Y133.155 E30.40627
G1 X59.789 Y132.145 E30.52345
G1 X59.589 Y131.325 E30.61625
G1 X59.479 Y130.735 E30.68225
G1 X59.409 Y130.145 E30.74757
G1 X59.349 Y128.905 E30.88408
G1 X59.349 Y71.085 E37.24172
G1 X59.409 Y69.845 E37.37822
G1 X59.479 Y69.255 E37.44355
G1 X59.589 Y68.665 E37.50955
G1 X59.789 Y67.845 E37.60235
G1 X60.129 Y66.835 E37.71953
G1 X60.459 Y66.055 E37.81266
G1 X60.849 Y65.275 E37.90855
G1 X76.979 Y37.750 E41.41647
G1 F1800.000 E40.41647
G92 E0
G1 X71.009 Y126.252 F7800.000
G1 F1800.000 E1.00000
G1 X71.484 Y126.294 F540.000 E1.05250
G1 X71.946 Y126.417 E1.10503
G1 X72.378 Y126.619 E1.15751
G1 X72.770 Y126.893 E1.21003
G1 X73.107 Y127.231 E1.26253
G1 X73.381 Y127.622 E1.31504
G1 X73.583 Y128.054 E1.36754
G1 X73.706 Y128.516 E1.42004
G1 X73.748 Y128.991 E1.47255
G1 X73.706 Y129.467 E1.52505
G1 X73.583 Y129.928 E1.57756
G1 X73.381 Y130.361 E1.63006
G1 X73.107 Y130.752 E1.68257
G1 X72.770 Y131.090 E1.73506
G1 X72.378 Y131.364 E1.78757
G1 X71.946 Y131.566 E1.84007
G1 X71.837 Y131.595 E1.85249
G1 X71.484 Y131.689 E1.89258
G1 X71.009 Y131.731 E1.94509
G1 X70.533 Y131.689 E1.99760
G1 X70.072 Y131.566 E2.05010
G1 X69.639 Y131.364 E2.10260
G1 X69.248 Y131.090 E2.15511
G1 X69.168 Y131.010 E2.16752
G1 X68.910 Y130.752 E2.20761
G1 X68.636 Y130.361 E2.26012
G1 X68.434 Y129.928 E2.31262
G1 X68.311 Y129.467 E2.36513
G1 X68.269 Y128.991 E2.41763
G1 X68.311 Y128.516 E2.47014
G1 X68.434 Y128.054 E2.52264
G1 X68.636 Y127.622 E2.57514
G1 X68.910 Y127.231 E2.62764
G1 X69.248 Y126.893 E2.68016
G1 X69.639 Y126.619 E2.73266
G1 X70.072 Y126.417 E2.78517
G1 X70.533 Y126.294 E2.83767
G1 X70.910 Y126.261 E2.87933
G1 X70.969 Y126.915 F7800.000
G1 X71.370 Y126.943 F540.000 E2.92354
G1 X71.720 Y127.037 E2.96341
G1 X72.048 Y127.190 E3.00326
G1 X72.346 Y127.398 E3.04313
G1 X72.602 Y127.655 E3.08299
G1 X72.810 Y127.951 E3.12285
G1 X72.963 Y128.280 E3.16271
G1 X73.057 Y128.630 E3.20258
G1 X73.088 Y128.991 E3.24244
G1 X73.057 Y129.353 E3.28230
G1 X72.963 Y129.703 E3.32216
G1 X72.810 Y130.031 E3.36203
G1 X72.602 Y130.328 E3.40189
G1 X72.345 Y130.585 E3.44175
G1 X72.049 Y130.793 E3.48161
G1 X71.666 Y130.960 E3.52749
G1 X71.370 Y131.040 E3.56126
G1 X71.009 Y131.071 E3.60112
G1 X70.647 Y131.040 E3.64099
G1 X70.297 Y130.946 E3.68085
G1 X69.969 Y130.793 E3.72071
G1 X69.633 Y130.545 E3.76659
G1 X69.415 Y130.328 E3.80035
G1 X69.207 Y130.031 E3.84022
G1 X69.054 Y129.703 E3.88008
G1 X68.960 Y129.353 E3.91994
G1 X68.929 Y128.991 E3.95980
G1 X68.960 Y128.630 E3.99967
G1 X69.054 Y128.280 E4.03953
G1 X69.207 Y127.951 E4.07939
G1 X69.415 Y127.655 E4.11925
G1 X69.672 Y127.398 E4.15912
G1 X69.969 Y127.190 E4.19898
G1 X70.297 Y127.037 E4.23884
G1 X70.647 Y126.943 E4.27870
G1 X70.870 Y126.924 E4.30332
G1 X71.164 Y127.267 F7800.000
G1 F1800.000 E3.30332
G92 E0
G1 X91.992 Y108.008 F7800.000
G1 F1800.000 E1.00000
G1 X91.537 Y107.475 F540.000 E1.07707
G1 X91.171 Y106.877 E1.15413
G1 X90.903 Y106.230 E1.23118
G1 X90.739 Y105.549 E1.30823
G1 X90.693 Y104.966 E1.37248
G1 X90.693 Y95.034 E2.46460
G1 X90.739 Y94.451 E2.52885
G1 X90.903 Y93.770 E2.60591
G1 X91.171 Y93.123 E2.68295
G1 X91.537 Y92.525 E2.76002
G1 X91.992 Y91.992 E2.83707
G1 X92.525 Y91.537 E2.91414
G1 X93.122 Y91.171 E2.99116
G1 X93.770 Y90.903 E3.06824
G1 X94.451 Y90.739 E3.14529
G1 X95.034 Y90.693 E3.20954
G1 X104.966 Y90.693 E4.30165
G1 X105.549 Y90.739 E4.36591
G1 X106.230 Y90.903 E4.44296
G1 X106.877 Y91.171 E4.52001
G1 X107.475 Y91.537 E4.59707
G1 X108.008 Y91.992 E4.67414
G1 X108.463 Y92.525 E4.75119
G1 X108.829 Y93.122 E4.82823
G1 X109.097 Y93.770 E4.90530
G1 X109.261 Y94.451 E4.98235
G1 X109.307 Y95.034 E5.04660
G1 X109.307 Y104.966 E6.13873
G1 X109.261 Y105.549 E6.20298
G1 X109.097 Y106.230 E6.28001
G1 X108.829 Y106.878 E6.35708
G1 X108.463 Y107.475 E6.43413
G1 X108.008 Y108.008 E6.51120
G1 X107.475 Y108.463 E6.58824
G1 X106.878 Y108.829 E6.66526
G1 X106.230 Y109.097 E6.74236
G1 X105.549 Y109.261 E6.81942
G1 X104.966 Y109.307 E6.88365
G1 X95.034 Y109.307 E7.97579
G1 X94.451 Y109.261 E8.04002
G1 X93.770 Y109.097 E8.11707
G1 X93.122 Y108.829 E8.19414
G1 X92.525 Y108.463 E8.27119
G1 X92.067 Y108.072 E8.33739
G1 X92.458 Y107.542 F7800.000
G1 X92.070 Y107.088 F540.000 E8.40308
G1 X91.758 Y106.578 E8.46878
G1 X91.529 Y106.026 E8.53446
G1 X91.390 Y105.446 E8.60014
G1 X91.350 Y104.940 E8.65586
G1 X91.350 Y95.060 E9.74230
G1 X91.390 Y94.554 E9.79802
G1 X91.529 Y93.974 E9.86371
G1 X91.758 Y93.422 E9.92938
G1 X92.070 Y92.912 E9.99507
G1 X92.458 Y92.458 E10.06075
G1 X92.912 Y92.070 E10.12645
G1 X93.422 Y91.758 E10.19210
G1 X93.974 Y91.529 E10.25781
G1 X94.554 Y91.390 E10.32349
G1 X95.060 Y91.350 E10.37921
G1 X104.940 Y91.350 E11.46565
G1 X105.446 Y91.390 E11.52137
G1 X106.026 Y91.529 E11.58705
G1 X106.578 Y91.758 E11.65273
G1 X107.088 Y92.070 E11.71842
G1 X107.542 Y92.458 E11.78411
G1 X107.930 Y92.912 E11.84979
G1 X108.242 Y93.422 E11.91547
G1 X108.471 Y93.974 E11.98116
G1 X108.610 Y94.554 E12.04684
G1 X108.650 Y95.060 E12.10256
G1 X108.650 Y104.940 E13.18901
G1 X108.610 Y105.446 E13.24473
G1 X108.471 Y106.026 E13.31040
G1 X108.242 Y106.578 E13.37609
G1 X107.930 Y107.088 E13.44177
G1 X107.542 Y107.542 E13.50746
G1 X107.088 Y107.930 E13.57314
G1 X106.579 Y108.242 E13.63880
G1 X106.026 Y108.471 E13.70452
G1 X105.446 Y108.610 E13.77020
G1 X104.940 Y108.650 E13.82591
G1 X95.060 Y108.650 E14.91236
G1 X94.554 Y108.610 E14.96808
G1 X93.974 Y108.471 E15.03375
G1 X93.422 Y108.242 E15.09944
G1 X92.912 Y107.930 E15.16512
G1 X92.533 Y107.606 E15.21996
G1 X92.924 Y107.076 F7800.000
G1 X92.603 Y106.700 F540.000 E15.27428
G1 X92.345 Y106.279 E15.32860
G1 X92.156 Y105.823 E15.38290
G1 X92.041 Y105.342 E15.43721
G1 X92.007 Y104.915 E15.48441
G1 X92.007 Y95.085 E16.56517
G1 X92.041 Y94.658 E16.61237
G1 X92.156 Y94.177 E16.66668
G1 X92.345 Y93.721 E16.72098
G1 X92.603 Y93.300 E16.77531
G1 X92.924 Y92.924 E16.82961
G1 X93.300 Y92.603 E16.88393
G1 X93.721 Y92.345 E16.93822
G1 X94.177 Y92.156 E16.99255
G1 X94.658 Y92.041 E17.04686
G1 X95.085 Y92.007 E17.09405
G1 X104.915 Y92.007 E18.17482
G1 X105.342 Y92.041 E18.22201
G1 X105.823 Y92.156 E18.27632
G1 X106.279 Y92.345 E18.33063
G1 X106.700 Y92.603 E18.38495
G1 X107.076 Y92.924 E18.43926
G1 X107.397 Y93.300 E18.49357
G1 X107.655 Y93.721 E18.54788
G1 X107.844 Y94.177 E18.60220
G1 X107.959 Y94.658 E18.65650
G1 X107.993 Y95.085 E18.70370
G1 X107.993 Y104.915 E19.78447
G1 X107.959 Y105.342 E19.83167
G1 X107.844 Y105.823 E19.88597
G1 X107.655 Y106.279 E19.94028
G1 X107.397 Y106.700 E19.99459
G1 X107.076 Y107.076 E20.04891
G1 X106.700 Y107.397 E20.10322
G1 X106.279 Y107.655 E20.15751
G1 X105.823 Y107.844 E20.21185
G1 X105.342 Y107.959 E20.26615
G1 X104.915 Y107.993 E20.31334
G1 X95.085 Y107.993 E21.39412
G1 X94.658 Y107.959 E21.44131
G1 X94.177 Y107.844 E21.49561
G1 X93.721 Y107.655 E21.54993
G1 X93.300 Y107.397 E21.60424
G1 X92.999 Y107.140 E21.64771
G1 X93.390 Y106.610 F7800.000
G1 X93.137 Y106.313 F540.000 E21.69065
G1 X92.933 Y105.980 E21.73359
G1 X92.783 Y105.619 E21.77653
G1 X92.692 Y105.239 E21.81947
G1 X92.664 Y104.889 E21.85814
G1 X92.664 Y95.111 E22.93322
G1 X92.692 Y94.761 E22.97189
G1 X92.783 Y94.381 E23.01483
G1 X92.933 Y94.020 E23.05777
G1 X93.137 Y93.687 E23.10071
G1 X93.390 Y93.390 E23.14365
G1 X93.687 Y93.137 E23.18659
G1 X94.020 Y92.933 E23.22952
G1 X94.381 Y92.783 E23.27247
G1 X94.761 Y92.692 E23.31541
G1 X95.111 Y92.664 E23.35408
G1 X104.889 Y92.664 E24.42916
G1 X105.239 Y92.692 E24.46783
G1 X105.619 Y92.783 E24.51077
G1 X105.980 Y92.933 E24.55371
G1 X106.313 Y93.137 E24.59665
G1 X106.610 Y93.390 E24.63959
G1 X106.863 Y93.687 E24.68253
G1 X107.067 Y94.020 E24.72547
G1 X107.217 Y94.381 E24.76841
G1 X107.308 Y94.761 E24.81135
G1 X107.336 Y95.111 E24.85002
G1 X107.336 Y104.889 E25.92511
G1 X107.308 Y105.239 E25.96378
G1 X107.217 Y105.619 E26.00671
G1 X107.067 Y105.980 E26.04965
G1 X106.863 Y106.313 E26.09259
G1 X106.610 Y106.610 E26.13553
G1 X106.313 Y106.863 E26.17847
G1 X105.980 Y107.067 E26.22140
G1 X105.619 Y107.217 E26.26435
G1 X105.239 Y107.308 E26.30729
G1 X104.889 Y107.336 E26.34596
G1 X95.111 Y107.336 E27.42105
G1 X94.761 Y107.308 E27.45971
G1 X94.381 Y107.217 E27.50265
G1 X94.020 Y107.067 E27.54559
G1 X93.687 Y106.863 E27.58853
G1 X93.465 Y106.674 E27.62063
G1 X93.856 Y106.144 F7800.000
G1 X93.670 Y105.925 F378.000 E27.65220
G1 X93.520 Y105.681 E27.68376
G1 X93.410 Y105.415 E27.71533
G1 X93.343 Y105.136 E27.74690
G1 X93.321 Y104.863 E27.77704
G1 X93.321 Y95.137 E28.84645
G1 X93.343 Y94.864 E28.87659
G1 X93.410 Y94.585 E28.90816
G1 X93.520 Y94.319 E28.93973
G1 X93.670 Y94.075 E28.97130
G1 X93.856 Y93.856 E29.00286
G1 X94.075 Y93.670 E29.03443
G1 X94.319 Y93.520 E29.06599
G1 X94.585 Y93.410 E29.09757
G1 X94.864 Y93.343 E29.12913
G1 X95.137 Y93.321 E29.15928
G1 X104.863 Y93.321 E30.22868
G1 X105.136 Y93.343 E30.25883
G1 X105.415 Y93.410 E30.29039
G1 X105.681 Y93.520 E30.32196
G1 X105.925 Y93.670 E30.35353
G1 X106.144 Y93.856 E30.38510
G1 X106.330 Y94.075 E30.41667
G1 X106.480 Y94.319 E30.44823
G1 X106.590 Y94.585 E30.47980
G1 X106.657 Y94.864 E30.51137
G1 X106.679 Y95.137 E30.54151
G1 X106.679 Y104.863 E31.61092
G1 X106.657 Y105.136 E31.64106
G1 X106.590 Y105.415 E31.67263
G1 X106.480 Y105.681 E31.70420
G1 X106.330 Y105.925 E31.73576
G1 X106.144 Y106.144 E31.76733
G1 X105.925 Y106.330 E31.79890
G1 X105.681 Y106.480 E31.83046
G1 X105.415 Y106.590 E31.86203
G1 X105.136 Y106.657 E31.89360
G1 X104.863 Y106.679 E31.92374
G1 X95.137 Y106.679 E32.99316
G1 X94.864 Y106.657 E33.02330
G1 X94.585 Y106.590 E33.05486
G1 X94.319 Y106.480 E33.08643
G1 X94.075 Y106.330 E33.11800
G1 X93.931 Y106.208 E33.13873
G1 X93.938 Y105.868 F7800.000
G1 F1800.000 E32.13873
G92 E0
G1 X88.457 Y108.129 F7800.000
G1 F1800.000 E1.00000
G1 X88.400 Y108.776 F540.000 E1.07136
G1 X88.199 Y109.528 E1.15701
G1 X87.870 Y110.234 E1.24266
G1 X87.423 Y110.872 E1.32825
G1 X86.872 Y111.423 E1.41395
G1 X86.234 Y111.869 E1.49956
G1 X85.528 Y112.199 E1.58523
G1 X84.776 Y112.400 E1.67085
G1 X84.000 Y112.468 E1.75648
G1 X83.224 Y112.400 E1.84212
G1 X82.472 Y112.199 E1.92775
G1 X81.766 Y111.870 E2.01339
G1 X81.128 Y111.423 E2.09903
G1 X80.577 Y110.872 E2.18468
G1 X80.130 Y110.234 E2.27034
G1 X79.801 Y109.528 E2.35597
G1 X79.600 Y108.776 E2.44162
G1 X79.543 Y108.129 E2.51300
G1 X79.543 Y91.871 E4.30066
G1 X79.600 Y91.224 E4.37207
G1 X79.801 Y90.472 E4.45770
G1 X79.920 Y90.217 E4.48867
G1 X80.130 Y89.766 E4.54335
G1 X80.577 Y89.128 E4.62900
G1 X81.128 Y88.577 E4.71460
G1 X81.766 Y88.130 E4.80026
G1 X82.472 Y87.801 E4.88591
G1 X83.224 Y87.600 E4.97155
G1 X84.000 Y87.532 E5.05717
G1 X84.776 Y87.600 E5.14281
G1 X85.528 Y87.801 E5.22847
G1 X86.234 Y88.130 E5.31410
G1 X86.872 Y88.577 E5.39975
G1 X87.423 Y89.128 E5.48537
G1 X87.870 Y89.766 E5.57102
G1 X88.199 Y90.472 E5.65665
G1 X88.400 Y91.224 E5.74229
G1 X88.457 Y91.871 E5.81368
G1 X88.457 Y108.031 E7.59053
G1 X87.800 Y108.100 F7800.000
G1 X87.751 Y108.661 F540.000 E7.65243
G1 X87.579 Y109.303 E7.72543
G1 X87.298 Y109.904 E7.79844
G1 X86.918 Y110.448 E7.87140
G1 X86.448 Y110.918 E7.94444
G1 X85.904 Y111.298 E8.01742
G1 X85.303 Y111.579 E8.09044
G1 X84.661 Y111.751 E8.16342
G1 X84.000 Y111.809 E8.23641
G1 X83.339 Y111.751 E8.30941
G1 X82.698 Y111.579 E8.38240
G1 X82.096 Y111.298 E8.45539
G1 X81.552 Y110.918 E8.52839
G1 X81.083 Y110.448 E8.60139
G1 X80.702 Y109.904 E8.67441
G1 X80.421 Y109.303 E8.74740
G1 X80.249 Y108.661 E8.82040
G1 X80.200 Y108.100 E8.88231
G1 X80.200 Y91.900 E10.66367
G1 X80.249 Y91.339 E10.72559
G1 X80.421 Y90.697 E10.79859
G1 X80.516 Y90.494 E10.82323
G1 X80.702 Y90.096 E10.87159
G1 X81.083 Y89.552 E10.94460
G1 X81.552 Y89.083 E11.01757
G1 X82.096 Y88.702 E11.09058
G1 X82.697 Y88.421 E11.16358
G1 X83.339 Y88.249 E11.23658
G1 X84.000 Y88.191 E11.30956
G1 X84.661 Y88.249 E11.38256
G1 X85.303 Y88.421 E11.45557
G1 X85.904 Y88.702 E11.52857
G1 X86.448 Y89.082 E11.60157
G1 X86.917 Y89.552 E11.67455
G1 X87.298 Y90.096 E11.74756
G1 X87.579 Y90.697 E11.82055
G1 X87.751 Y91.339 E11.89355
G1 X87.800 Y91.900 E11.95546
G1 X87.800 Y108.002 E13.72600
G1 X87.143 Y108.072 F7800.000
G1 X87.101 Y108.547 F540.000 E13.77843
G1 X86.959 Y109.077 E13.83879
G1 X86.727 Y109.574 E13.89915
G1 X86.412 Y110.024 E13.95948
G1 X86.024 Y110.412 E14.01986
G1 X85.575 Y110.727 E14.08020
G1 X85.077 Y110.959 E14.14057
G1 X84.547 Y111.101 E14.20092
G1 X84.000 Y111.149 E14.26127
G1 X83.453 Y111.101 E14.32163
G1 X82.923 Y110.959 E14.38198
G1 X82.426 Y110.727 E14.44233
G1 X81.976 Y110.412 E14.50269
G1 X81.588 Y110.024 E14.56304
G1 X81.273 Y109.574 E14.62341
G1 X81.041 Y109.077 E14.68376
G1 X80.899 Y108.547 E14.74412
G1 X80.857 Y108.072 E14.79656
G1 X80.857 Y91.928 E16.57161
G1 X80.899 Y91.453 E16.62406
G1 X81.041 Y90.923 E16.68441
G1 X81.111 Y90.772 E16.70273
G1 X81.273 Y90.425 E16.74477
G1 X81.588 Y89.976 E16.80513
G1 X81.976 Y89.588 E16.86546
G1 X82.425 Y89.273 E16.92583
G1 X82.923 Y89.041 E16.98619
G1 X83.453 Y88.899 E17.04655
G1 X84.000 Y88.851 E17.10689
G1 X84.547 Y88.899 E17.16725
G1 X85.077 Y89.041 E17.22761
G1 X85.575 Y89.273 E17.28796
