; generated by Slic3r 0.9.10b on 2014-02-06 at 00:16:49

; layer_height = 0.4
; perimeters = 3
; top_solid_layers = 3
; bottom_solid_layers = 3
; fill_density = 0.2
; perimeter_speed = 30
; infill_speed = 60
; travel_speed = 130
; nozzle_diameter = 0.5
; filament_diameter = 1.75
; extrusion_multiplier = 1.0
; perimeters extrusion width = 0.53mm
; infill extrusion width = 0.53mm
; solid infill extrusion width = 0.53mm
; top infill extrusion width = 0.53mm
; first layer extrusion width = 0.70mm

G21 ; set units to millimeters
M107
M104 S190 ; set temperature
G28 ; home all axes
G1 Z5 F5000 ; lift nozzle
M109 S190 ; wait for temperature to be reached
G90 ; use absolute coordinates
G92 E0
M82 ; use absolute distances for extrusion
G1 F1800.000 E-1.00000
G92 E0
G1 Z0.700 F7800.000
G1 X54.050 Y31.365
G1 F1800.000 E1.00000
G1 X54.540 Y30.925 F540.000 E1.06297
G1 X55.150 Y30.445 E1.13718
G1 X55.820 Y30.045 E1.21179
G1 X56.640 Y29.655 E1.29861
G1 X57.590 Y29.325 E1.39477
G1 X58.370 Y29.165 E1.47090
G1 X59.520 Y29.065 E1.58127
G1 X59.740 Y29.065 E1.60231
G1 X60.890 Y29.165 E1.71268
G1 X61.670 Y29.325 E1.78881
G1 X62.420 Y29.575 E1.86440
G1 X63.440 Y30.045 E1.97178
G1 X64.030 Y30.395 E2.03737
G1 X64.740 Y30.935 E2.12266
G1 X113.170 Y74.025 E8.32077
G1 X147.820 Y108.665 E13.00540
G1 X148.190 Y109.065 E13.05750
G1 X148.750 Y109.725 E13.14026
G1 X149.110 Y110.195 E13.19687
G1 X149.430 Y110.695 E13.25362
G1 X149.870 Y111.455 E13.33759
G1 X150.150 Y111.995 E13.39575
G1 X150.380 Y112.555 E13.45363
G1 X150.670 Y113.365 E13.53590
G1 X150.960 Y114.465 E13.64466
G1 X151.110 Y115.325 E13.72813
G1 X151.210 Y116.465 E13.83755
G1 X151.210 Y117.335 E13.92074
G1 X151.180 Y117.915 E13.97627
G1 X151.110 Y118.495 E14.03212
G1 X150.960 Y119.345 E14.11465
G1 X150.830 Y119.905 E14.16962
G1 X150.660 Y120.465 E14.22558
G1 X150.200 Y121.695 E14.35114
G1 X149.850 Y122.375 E14.42426
G1 X149.410 Y123.125 E14.50740
G1 X148.780 Y124.025 E14.61244
G1 X148.220 Y124.695 E14.69593
G1 X147.820 Y125.135 E14.75279
G1 X120.950 Y152.005 E18.38610
G1 X120.550 Y152.375 E18.43820
G1 X119.890 Y152.935 E18.52096
G1 X119.390 Y153.315 E18.58100
G1 X118.860 Y153.645 E18.64070
G1 X118.100 Y154.075 E18.72419
G1 X117.130 Y154.525 E18.82643
G1 X116.320 Y154.825 E18.90902
G1 X115.750 Y155.015 E18.96647
G1 X115.150 Y155.145 E19.02517
G1 X114.290 Y155.295 E19.10863
G1 X113.150 Y155.395 E19.21805
G1 X112.280 Y155.395 E19.30124
G1 X111.700 Y155.365 E19.35677
G1 X111.120 Y155.295 E19.41263
G1 X110.270 Y155.145 E19.49515
G1 X109.700 Y155.015 E19.55105
G1 X109.140 Y154.835 E19.60729
G1 X108.320 Y154.535 E19.69078
G1 X107.300 Y154.065 E19.79816
G1 X106.550 Y153.635 E19.88082
G1 X106.060 Y153.315 E19.93678
G1 X105.590 Y152.965 E19.99281
G1 X104.920 Y152.405 E20.07630
G1 X104.480 Y152.005 E20.13315
G1 X69.830 Y117.355 E24.81846
G1 X26.880 Y69.075 E30.99696
G1 X26.340 Y68.415 E31.07849
G1 X25.880 Y67.685 E31.16099
G1 X25.590 Y67.125 E31.22129
G1 X25.360 Y66.545 E31.28095
G1 X25.030 Y65.395 E31.39534
G1 X24.900 Y64.565 E31.47567
G1 X24.870 Y63.935 E31.53597
G1 X24.900 Y63.085 E31.61730
G1 X25.030 Y62.255 E31.69762
G1 X25.290 Y61.305 E31.79180
G1 X25.590 Y60.525 E31.87170
G1 X25.990 Y59.775 E31.95297
G1 X26.610 Y58.885 E32.05668
G1 X27.180 Y58.235 E32.13934
G1 X53.980 Y31.435 E35.76323
G1 F1800.000 E34.76323
G92 E0
G1 X134.454 Y114.752 F7800.000
G1 F1800.000 E1.00000
G1 X135.090 Y114.228 F540.000 E1.07878
G1 X135.299 Y114.132 E1.10077
G1 X135.840 Y113.885 E1.15762
G1 X136.652 Y113.749 E1.23640
G1 X137.473 Y113.828 E1.31521
G1 X138.245 Y114.116 E1.39397
G1 X138.916 Y114.594 E1.47277
G1 X139.440 Y115.230 E1.55160
G1 X139.782 Y115.980 E1.63036
G1 X139.918 Y116.793 E1.70917
G1 X139.840 Y117.613 E1.78795
G1 X139.759 Y117.828 E1.80994
G1 X139.551 Y118.385 E1.86675
G1 X139.073 Y119.056 E1.94558
G1 X138.437 Y119.581 E2.02437
G1 X137.687 Y119.923 E2.10317
G1 X136.875 Y120.059 E2.18195
G1 X136.054 Y119.980 E2.26076
G1 X135.283 Y119.692 E2.33952
G1 X134.611 Y119.214 E2.41832
G1 X134.087 Y118.578 E2.49712
G1 X133.745 Y117.828 E2.57592
G1 X133.609 Y117.015 E2.65477
G1 X133.687 Y116.195 E2.73351
G1 X133.976 Y115.423 E2.81234
G1 X134.397 Y114.832 E2.88169
G1 X134.939 Y115.204 F7800.000
G1 X135.441 Y114.789 F540.000 E2.94393
G1 X135.572 Y114.730 E2.95765
G1 X136.034 Y114.519 E3.00621
G1 X136.676 Y114.411 E3.06845
G1 X137.324 Y114.474 E3.13072
G1 X137.934 Y114.701 E3.19294
G1 X138.464 Y115.079 E3.25521
G1 X138.878 Y115.582 E3.31748
G1 X139.148 Y116.174 E3.37971
G1 X139.256 Y116.816 E3.44197
G1 X139.194 Y117.464 E3.50422
G1 X139.144 Y117.599 E3.51793
G1 X138.966 Y118.074 E3.56647
G1 X138.588 Y118.605 E3.62875
G1 X138.086 Y119.019 E3.69100
G1 X137.493 Y119.289 E3.75325
G1 X136.851 Y119.397 E3.81550
G1 X136.203 Y119.334 E3.87776
G1 X135.594 Y119.107 E3.93999
G1 X135.063 Y118.729 E4.00225
G1 X134.649 Y118.227 E4.06450
G1 X134.379 Y117.634 E4.12676
G1 X134.271 Y116.992 E4.18904
G1 X134.333 Y116.344 E4.25127
G1 X134.561 Y115.734 E4.31354
G1 X134.882 Y115.284 E4.36635
G1 X135.424 Y115.656 F7800.000
G1 X135.793 Y115.351 F540.000 E4.41206
G1 X135.844 Y115.328 E4.41751
G1 X136.228 Y115.153 E4.45778
G1 X136.699 Y115.074 E4.50349
G1 X137.175 Y115.120 E4.54920
G1 X137.623 Y115.287 E4.59491
G1 X138.012 Y115.564 E4.64062
G1 X138.316 Y115.933 E4.68634
G1 X138.515 Y116.368 E4.73204
G1 X138.594 Y116.840 E4.77776
G1 X138.548 Y117.315 E4.82346
G1 X138.528 Y117.369 E4.82891
G1 X138.381 Y117.763 E4.86918
G1 X138.103 Y118.153 E4.91490
G1 X137.735 Y118.457 E4.96061
G1 X137.300 Y118.655 E5.00632
G1 X136.828 Y118.734 E5.05203
G1 X136.352 Y118.689 E5.09774
G1 X135.904 Y118.521 E5.14344
G1 X135.515 Y118.244 E5.18916
G1 X135.211 Y117.875 E5.23487
G1 X135.012 Y117.440 E5.28058
G1 X134.933 Y116.969 E5.32630
G1 X134.979 Y116.493 E5.37200
G1 X135.146 Y116.045 E5.41772
G1 X135.367 Y115.736 E5.45400
G1 X135.884 Y115.783 F7800.000
G1 F1800.000 E4.45400
G92 E0
G1 X50.342 Y54.230 F7800.000
G1 F1800.000 E1.00000
G1 X49.946 Y54.746 F540.000 E1.06225
G1 X49.429 Y55.143 E1.12451
G1 X48.828 Y55.392 E1.18676
G1 X48.182 Y55.477 E1.24901
G1 X47.698 Y55.413 E1.29566
G1 X47.537 Y55.392 E1.31127
G1 X46.935 Y55.143 E1.37352
G1 X46.419 Y54.746 E1.43578
G1 X46.122 Y54.359 E1.48242
G1 X46.022 Y54.230 E1.49803
G1 X45.773 Y53.628 E1.56028
G1 X45.688 Y52.983 E1.62254
G1 X45.709 Y52.821 E1.63814
G1 X45.773 Y52.337 E1.68479
G1 X46.022 Y51.736 E1.74704
G1 X46.419 Y51.219 E1.80930
G1 X46.548 Y51.120 E1.82490
G1 X46.935 Y50.823 E1.87155
G1 X47.537 Y50.574 E1.93380
G1 X48.182 Y50.489 E1.99606
G1 X48.828 Y50.574 E2.05831
G1 X49.429 Y50.823 E2.12057
G1 X49.946 Y51.219 E2.18282
G1 X50.342 Y51.736 E2.24507
G1 X50.591 Y52.337 E2.30733
G1 X50.676 Y52.983 E2.36958
G1 X50.591 Y53.628 E2.43184
G1 X50.380 Y54.139 E2.48467
G1 X49.768 Y53.898 F7800.000
G1 X49.477 Y54.278 F540.000 E2.53038
G1 X49.098 Y54.569 E2.57609
G1 X48.656 Y54.752 E2.62180
G1 X48.182 Y54.814 E2.66751
G1 X47.784 Y54.762 E2.70589
G1 X47.708 Y54.752 E2.71322
G1 X47.266 Y54.569 E2.75894
G1 X46.887 Y54.278 E2.80465
G1 X46.643 Y53.959 E2.84302
G1 X46.596 Y53.898 E2.85036
G1 X46.413 Y53.457 E2.89607
G1 X46.351 Y52.983 E2.94178
G1 X46.361 Y52.907 E2.94912
G1 X46.413 Y52.509 E2.98749
G1 X46.596 Y52.067 E3.03320
G1 X46.887 Y51.688 E3.07891
G1 X46.948 Y51.641 E3.08625
G1 X47.266 Y51.397 E3.12463
G1 X47.708 Y51.214 E3.17034
G1 X48.182 Y51.151 E3.21605
G1 X48.656 Y51.214 E3.26176
G1 X49.098 Y51.397 E3.30747
G1 X49.477 Y51.688 E3.35318
G1 X49.768 Y52.067 E3.39889
G1 X49.951 Y52.509 E3.44461
G1 X50.014 Y52.983 E3.49032
G1 X49.951 Y53.457 E3.53603
G1 X49.806 Y53.807 E3.57232
G1 X49.291 Y53.878 F7800.000
G1 F1800.000 E2.57232
G92 E0
G1 X49.737 Y59.603 F7800.000
G1 F1800.000 E1.00000
G1 X50.279 Y59.674 F540.000 E1.05227
G1 X50.784 Y59.884 E1.10454
G1 X51.218 Y60.216 E1.15681
G1 X51.550 Y60.650 E1.20908
G1 X51.760 Y61.155 E1.26135
G1 X51.831 Y61.697 E1.31362
G1 X51.811 Y61.850 E1.32837
G1 X51.760 Y62.239 E1.36589
G1 X51.550 Y62.744 E1.41816
G1 X51.218 Y63.178 E1.47043
G1 X50.486 Y63.739 E1.55861
G1 X69.607 Y82.860 E4.14406
G1 X77.971 Y74.496 E5.27506
G1 X55.343 Y51.868 E8.33469
G1 X58.576 Y48.636 E8.77177
G1 X82.597 Y72.657 E12.01988
G1 X81.678 Y73.577 E12.14418
G1 X83.528 Y75.427 E12.39441
G1 X70.538 Y88.418 E14.15095
G1 X68.687 Y86.567 E14.40118
G1 X67.768 Y87.486 E14.52548
G1 X43.747 Y63.465 E17.77360
G1 X46.979 Y60.233 E18.21067
G1 X47.695 Y60.948 E18.30742
G1 X48.256 Y60.216 E18.39560
G1 X48.690 Y59.884 E18.44787
G1 X49.195 Y59.674 E18.50014
G1 X49.639 Y59.616 E18.54299
G1 X49.737 Y60.266 F7800.000
G1 X50.107 Y60.315 F378.000 E18.57871
G1 X50.453 Y60.458 E18.61444
G1 X50.749 Y60.685 E18.65017
G1 X50.935 Y60.928 E18.67941
G1 X50.976 Y60.981 E18.68590
G1 X51.119 Y61.327 E18.72162
G1 X51.168 Y61.697 E18.75735
G1 X51.119 Y62.068 E18.79308
G1 X50.976 Y62.413 E18.82881
G1 X50.749 Y62.709 E18.86453
G1 X50.453 Y62.937 E18.90026
G1 X50.107 Y63.080 E18.93599
G1 X49.737 Y63.129 E18.97171
G1 X49.366 Y63.080 E19.00744
G1 X48.955 Y62.909 E19.05006
G1 X48.863 Y63.046 E19.06578
G1 X69.607 Y83.789 E21.87066
G1 X78.900 Y74.496 E23.12731
G1 X56.273 Y51.868 E26.18694
G1 X58.576 Y49.565 E26.49837
G1 X81.668 Y72.657 E29.62083
G1 X80.748 Y73.577 E29.74513
G1 X82.599 Y75.427 E29.99536
G1 X70.538 Y87.488 E31.62625
G1 X68.687 Y85.638 E31.87648
G1 X67.768 Y86.557 E32.00078
G1 X44.676 Y63.465 E35.12324
G1 X46.979 Y61.162 E35.43466
G1 X48.388 Y62.571 E35.62518
G1 X48.525 Y62.479 E35.64090
G1 X48.354 Y62.068 E35.68353
G1 X48.305 Y61.697 E35.71925
G1 X48.354 Y61.327 E35.75498
G1 X48.497 Y60.981 E35.79071
G1 X48.725 Y60.685 E35.82643
G1 X49.021 Y60.458 E35.86216
G1 X49.366 Y60.315 E35.89789
G1 X49.639 Y60.279 E35.92419
G1 X49.909 Y60.597 F7800.000
G1 F1800.000 E34.92419
G92 E0
G1 X66.441 Y72.340 F7800.000
G1 F1800.000 E1.00000
G1 X66.879 Y71.769 F540.000 E1.06881
G1 X67.070 Y71.622 E1.09184
G1 X67.450 Y71.330 E1.13763
G1 X68.115 Y71.055 E1.20645
G1 X68.829 Y70.961 E1.27525
G1 X69.542 Y71.055 E1.34406
G1 X70.207 Y71.330 E1.41288
G1 X70.778 Y71.769 E1.48169
G1 X71.216 Y72.340 E1.55051
G1 X71.492 Y73.004 E1.61931
G1 X71.586 Y73.718 E1.68813
G1 X71.554 Y73.957 E1.71114
G1 X71.492 Y74.432 E1.75694
G1 X71.216 Y75.096 E1.82575
G1 X70.778 Y75.667 E1.89457
G1 X70.207 Y76.105 E1.96337
G1 X69.542 Y76.381 E2.03218
G1 X68.829 Y76.475 E2.10100
G1 X68.115 Y76.381 E2.16982
G1 X67.450 Y76.105 E2.23862
G1 X66.879 Y75.667 E2.30744
G1 X66.441 Y75.096 E2.37624
G1 X66.166 Y74.431 E2.44507
G1 X66.072 Y73.718 E2.51387
G1 X66.166 Y73.005 E2.58267
G1 X66.403 Y72.431 E2.64206
G1 X67.015 Y72.671 F7800.000
G1 X67.348 Y72.237 F540.000 E2.69433
G1 X67.470 Y72.143 E2.70909
G1 X67.782 Y71.904 E2.74661
G1 X68.287 Y71.695 E2.79888
G1 X68.829 Y71.624 E2.85115
G1 X69.371 Y71.695 E2.90341
G1 X69.876 Y71.904 E2.95569
G1 X70.309 Y72.237 E3.00795
G1 X70.642 Y72.671 E3.06023
G1 X70.851 Y73.176 E3.11249
G1 X70.923 Y73.718 E3.16476
G1 X70.903 Y73.871 E3.17951
G1 X70.851 Y74.260 E3.21703
G1 X70.642 Y74.765 E3.26930
G1 X70.309 Y75.199 E3.32158
G1 X69.876 Y75.532 E3.37384
G1 X69.371 Y75.741 E3.42611
G1 X68.829 Y75.812 E3.47838
G1 X68.287 Y75.741 E3.53066
G1 X67.782 Y75.532 E3.58292
G1 X67.348 Y75.199 E3.63519
G1 X67.015 Y74.765 E3.68746
G1 X66.806 Y74.260 E3.73974
G1 X66.735 Y73.718 E3.79200
G1 X66.806 Y73.176 E3.84426
G1 X66.977 Y72.762 E3.88711
G1 X67.589 Y73.002 F7800.000
G1 X67.817 Y72.706 F540.000 E3.92284
G1 X67.870 Y72.665 E3.92932
G1 X68.113 Y72.478 E3.95857
G1 X68.458 Y72.335 E3.99430
G1 X68.829 Y72.287 E4.03002
G1 X69.199 Y72.335 E4.06575
G1 X69.544 Y72.478 E4.10148
G1 X69.841 Y72.706 E4.13720
G1 X70.068 Y73.002 E4.17293
G1 X70.211 Y73.347 E4.20866
G1 X70.260 Y73.718 E4.24439
G1 X70.251 Y73.785 E4.25087
G1 X70.211 Y74.088 E4.28011
G1 X70.068 Y74.434 E4.31584
G1 X69.841 Y74.730 E4.35157
G1 X69.544 Y74.958 E4.38730
G1 X69.199 Y75.101 E4.42302
G1 X68.829 Y75.149 E4.45875
G1 X68.458 Y75.101 E4.49448
G1 X68.113 Y74.958 E4.53021
G1 X67.817 Y74.730 E4.56593
G1 X67.589 Y74.434 E4.60166
G1 X67.446 Y74.088 E4.63739
G1 X67.397 Y73.718 E4.67311
G1 X67.446 Y73.348 E4.70884
G1 X67.551 Y73.093 E4.73514
G1 X67.962 Y73.019 F7800.000
G1 F1800.000 E3.73514
G92 E0
G1 X78.011 Y82.811 F7800.000
G1 F1800.000 E1.00000
G1 X78.390 Y82.520 F540.000 E1.04571
G1 X78.461 Y82.491 E1.05305
G1 X78.831 Y82.337 E1.09142
G1 X79.305 Y82.275 E1.13713
G1 X79.779 Y82.337 E1.18285
G1 X80.221 Y82.520 E1.22856
G1 X80.600 Y82.811 E1.27427
G1 X80.891 Y83.190 E1.31998
G1 X81.074 Y83.632 E1.36569
G1 X81.137 Y84.106 E1.41140
G1 X81.074 Y84.580 E1.45711
G1 X80.891 Y85.022 E1.50282
G1 X80.600 Y85.401 E1.54854
G1 X80.221 Y85.692 E1.59425
G1 X80.150 Y85.722 E1.60159
G1 X79.779 Y85.875 E1.63996
G1 X79.305 Y85.938 E1.68567
G1 X78.831 Y85.875 E1.73138
G1 X78.390 Y85.692 E1.77709
G1 X78.011 Y85.401 E1.82281
G1 X77.719 Y85.022 E1.86852
G1 X77.537 Y84.580 E1.91423
G1 X77.474 Y84.106 E1.95994
G1 X77.537 Y83.632 E2.00565
G1 X77.719 Y83.190 E2.05136
G1 X77.951 Y82.889 E2.08765
G1 X78.466 Y82.955 F7800.000
G1 F1800.000 E1.08765
G92 E0
G1 X80.798 Y105.971 F7800.000
G1 F1800.000 E1.00000
G1 X81.618 Y106.051 F540.000 E1.07881
G1 X82.390 Y106.341 E1.15758
G1 X83.059 Y106.821 E1.23636
G1 X83.583 Y107.458 E1.31520
G1 X83.923 Y108.209 E1.39396
G1 X84.057 Y109.022 E1.47276
G1 X83.977 Y109.842 E1.55155
G1 X83.896 Y110.057 E1.57354
G1 X83.687 Y110.613 E1.63036
G1 X83.207 Y111.283 E1.70916
G1 X82.570 Y111.806 E1.78797
G1 X81.819 Y112.147 E1.86673
G1 X81.006 Y112.281 E1.94555
G1 X80.186 Y112.200 E2.02436
G1 X79.415 Y111.910 E2.10313
G1 X78.745 Y111.431 E2.18192
G1 X78.222 Y110.794 E2.26072
G1 X77.881 Y110.043 E2.33952
G1 X77.747 Y109.230 E2.41833
G1 X77.828 Y108.410 E2.49711
G1 X77.908 Y108.195 E2.51909
G1 X78.118 Y107.638 E2.57592
G1 X78.598 Y106.968 E2.65472
G1 X79.234 Y106.446 E2.73348
G1 X79.985 Y106.105 E2.81228
G1 X80.701 Y105.987 E2.88168
G1 X80.820 Y106.633 F7800.000
G1 X81.468 Y106.697 F540.000 E2.94394
G1 X82.077 Y106.926 E3.00618
G1 X82.607 Y107.305 E3.06842
G1 X83.020 Y107.808 E3.13070
G1 X83.289 Y108.401 E3.19294
G1 X83.395 Y109.044 E3.25519
G1 X83.331 Y109.692 E3.31744
G1 X83.281 Y109.826 E3.33116
G1 X83.102 Y110.301 E3.37971
G1 X82.723 Y110.830 E3.44196
G1 X82.220 Y111.244 E3.50422
G1 X81.627 Y111.512 E3.56645
G1 X80.984 Y111.619 E3.62872
G1 X80.336 Y111.555 E3.69099
G1 X79.727 Y111.326 E3.75322
G1 X79.198 Y110.947 E3.81547
G1 X78.784 Y110.444 E3.87773
G1 X78.516 Y109.851 E3.93999
G1 X78.409 Y109.208 E4.00225
G1 X78.473 Y108.560 E4.06449
G1 X78.524 Y108.426 E4.07821
G1 X78.702 Y107.951 E4.12675
G1 X79.081 Y107.421 E4.18901
G1 X79.584 Y107.008 E4.25124
G1 X80.177 Y106.739 E4.31350
G1 X80.723 Y106.649 E4.36634
G1 X80.842 Y107.296 F7800.000
G1 X81.318 Y107.342 F540.000 E4.41206
G1 X81.765 Y107.511 E4.45777
G1 X82.154 Y107.789 E4.50347
G1 X82.457 Y108.158 E4.54919
G1 X82.655 Y108.594 E4.59490
G1 X82.733 Y109.066 E4.64061
G1 X82.686 Y109.541 E4.68632
G1 X82.666 Y109.595 E4.69177
G1 X82.517 Y109.989 E4.73204
G1 X82.239 Y110.378 E4.77775
G1 X81.870 Y110.681 E4.82346
G1 X81.434 Y110.878 E4.86916
G1 X80.962 Y110.956 E4.91488
G1 X80.487 Y110.910 E4.96060
G1 X80.039 Y110.741 E5.00630
G1 X79.651 Y110.463 E5.05201
G1 X79.347 Y110.093 E5.09772
G1 X79.150 Y109.658 E5.14344
G1 X79.072 Y109.186 E5.18915
G1 X79.119 Y108.710 E5.23486
G1 X79.139 Y108.657 E5.24030
G1 X79.287 Y108.263 E5.28057
G1 X79.565 Y107.874 E5.32628
G1 X79.935 Y107.571 E5.37199
G1 X80.370 Y107.374 E5.41770
G1 X80.745 Y107.312 E5.45399
G1 X81.076 Y107.712 F7800.000
G1 F1800.000 E4.45399
G92 E0
G1 X99.112 Y106.651 F7800.000
G1 F1800.000 E1.00000
G1 X99.226 Y105.782 F540.000 E1.08380
G1 X99.562 Y104.973 E1.16756
G1 X100.095 Y104.277 E1.25137
G1 X100.790 Y103.744 E1.33516
G1 X101.600 Y103.409 E1.41893
G1 X102.469 Y103.294 E1.50273
G1 X103.338 Y103.409 E1.58654
G1 X104.147 Y103.744 E1.67031
G1 X104.843 Y104.277 E1.75410
G1 X105.376 Y104.973 E1.83790
G1 X105.711 Y105.782 E1.92168
G1 X105.826 Y106.651 E2.00546
G1 X105.711 Y107.520 E2.08924
G1 X105.353 Y108.386 E2.17887
G1 X107.369 Y107.551 E2.38750
G1 X108.833 Y107.358 E2.52869
G1 X110.297 Y107.551 E2.66989
G1 X111.661 Y108.116 E2.81108
G1 X112.833 Y109.015 E2.95229
G1 X113.732 Y110.187 E3.09348
G1 X114.297 Y111.551 E3.23468
