; generated by Slic3r 0.9.10b on 2014-03-29 at 00:41:31

; layer_height = 0.4
; perimeters = 2
; top_solid_layers = 3
; bottom_solid_layers = 3
; fill_density = 0.14
; perimeter_speed = 30
; infill_speed = 60
; travel_speed = 130
; nozzle_diameter = 0.4
; filament_diameter = 1.75
; extrusion_multiplier = 1.1
; perimeters extrusion width = 0.42mm
; infill extrusion width = 0.42mm
; solid infill extrusion width = 0.42mm
; top infill extrusion width = 0.42mm
; first layer extrusion width = 0.70mm

G21 ; set units to millimeters
M107 ; disable fan
M190 S60 ; wait for bed temperature to be reached
M104 S175 ; set temperature
G28 ; home all axes
G1 Z5 F5000 ; lift nozzle
M109 S175 ; wait for temperature to be reached
G90 ; use absolute coordinates
G92 E0 ; reset extrusion distance
M82 ; use absolute distances for extrusion
G1 F1800.000 E-1.00000 ; retract
G92 E0 ; reset extrusion distance
G1 Z-0.250 F7800.000 ; move to next layer (0)
G1 X73.660 Y72.094 ; move to first skirt point
G1 F1800.000 E1.00000 ; compensate retraction
G1 X74.290 Y71.454 F540.000 E1.09137 ; skirt
G1 X74.990 Y70.894 E1.18257 ; skirt
G1 X80.040 Y67.224 E1.81770 ; skirt
G1 X80.790 Y66.734 E1.90885 ; skirt
G1 X81.590 Y66.324 E2.00031 ; skirt
G1 X87.300 Y63.784 E2.63613 ; skirt
G1 X88.130 Y63.474 E2.72627 ; skirt
G1 X88.990 Y63.244 E2.81684 ; skirt
G1 X95.090 Y61.944 E3.45140 ; skirt
G1 X95.970 Y61.794 E3.54222 ; skirt
G1 X96.870 Y61.754 E3.63387 ; skirt
G1 X103.120 Y61.754 E4.26975 ; skirt
G1 X104.020 Y61.794 E4.36141 ; skirt
G1 X104.900 Y61.944 E4.45223 ; skirt
G1 X111.000 Y63.244 E5.08678 ; skirt
G1 X111.860 Y63.474 E5.17735 ; skirt
G1 X112.700 Y63.794 E5.26880 ; skirt
G1 X118.400 Y66.334 E5.90369 ; skirt
G1 X119.190 Y66.734 E5.99378 ; skirt
G1 X119.940 Y67.214 E6.08438 ; skirt
G1 X125.000 Y70.884 E6.72034 ; skirt
G1 X125.700 Y71.454 E6.81218 ; skirt
G1 X126.330 Y72.094 E6.90355 ; skirt
G1 X130.500 Y76.734 E7.53825 ; skirt
G1 X131.060 Y77.424 E7.62866 ; skirt
G1 X131.550 Y78.174 E7.71981 ; skirt
G1 X134.670 Y83.584 E8.35519 ; skirt
G1 X135.070 Y84.384 E8.44619 ; skirt
G1 X135.390 Y85.214 E8.53670 ; skirt
G1 X137.320 Y91.144 E9.17116 ; skirt
G1 X137.560 Y92.004 E9.26200 ; skirt
G1 X137.700 Y92.894 E9.35367 ; skirt
G1 X138.350 Y99.104 E9.98892 ; skirt
G1 X138.390 Y99.994 E10.07956 ; skirt
G1 X138.350 Y100.884 E10.17020 ; skirt
G1 X137.700 Y107.094 E10.80546 ; skirt
G1 X137.560 Y107.974 E10.89612 ; skirt
G1 X137.320 Y108.844 E10.98794 ; skirt
G1 X135.390 Y114.784 E11.62337 ; skirt
G1 X135.070 Y115.624 E11.71483 ; skirt
G1 X134.670 Y116.414 E11.80492 ; skirt
G1 X131.550 Y121.814 E12.43942 ; skirt
G1 X131.060 Y122.564 E12.53057 ; skirt
G1 X130.500 Y123.254 E12.62098 ; skirt
G1 X126.330 Y127.894 E13.25568 ; skirt
G1 X125.700 Y128.534 E13.34705 ; skirt
G1 X125.000 Y129.104 E13.43889 ; skirt
G1 X119.940 Y132.774 E14.07485 ; skirt
G1 X119.190 Y133.254 E14.16544 ; skirt
G1 X118.400 Y133.654 E14.25553 ; skirt
G1 X112.700 Y136.194 E14.89042 ; skirt
G1 X111.860 Y136.514 E14.98188 ; skirt
G1 X111.000 Y136.744 E15.07245 ; skirt
G1 X104.900 Y138.044 E15.70700 ; skirt
G1 X104.020 Y138.194 E15.79782 ; skirt
G1 X103.120 Y138.234 E15.88948 ; skirt
G1 X96.870 Y138.234 E16.52535 ; skirt
G1 X95.970 Y138.194 E16.61701 ; skirt
G1 X95.090 Y138.044 E16.70783 ; skirt
G1 X88.990 Y136.744 E17.34238 ; skirt
G1 X88.130 Y136.514 E17.43296 ; skirt
G1 X87.300 Y136.204 E17.52310 ; skirt
G1 X81.590 Y133.664 E18.15892 ; skirt
G1 X80.790 Y133.254 E18.25038 ; skirt
G1 X80.040 Y132.764 E18.34152 ; skirt
G1 X74.990 Y129.094 E18.97666 ; skirt
G1 X74.290 Y128.534 E19.06786 ; skirt
G1 X73.660 Y127.904 E19.15851 ; skirt
G1 X69.500 Y123.284 E19.79102 ; skirt
G1 X68.940 Y122.584 E19.88222 ; skirt
G1 X68.450 Y121.834 E19.97337 ; skirt
G1 X65.320 Y116.414 E20.61014 ; skirt
G1 X64.920 Y115.614 E20.70114 ; skirt
G1 X64.600 Y114.784 E20.79164 ; skirt
G1 X62.670 Y108.844 E21.42708 ; skirt
G1 X62.430 Y107.974 E21.51890 ; skirt
G1 X62.290 Y107.094 E21.60956 ; skirt
G1 X61.640 Y100.884 E22.24481 ; skirt
G1 X61.600 Y99.994 E22.33545 ; skirt
G1 X61.640 Y99.104 E22.42609 ; skirt
G1 X62.290 Y92.894 E23.06135 ; skirt
G1 X62.430 Y92.004 E23.15301 ; skirt
G1 X62.670 Y91.144 E23.24385 ; skirt
G1 X64.600 Y85.214 E23.87832 ; skirt
G1 X64.920 Y84.384 E23.96882 ; skirt
G1 X65.320 Y83.584 E24.05982 ; skirt
G1 X68.440 Y78.174 E24.69521 ; skirt
G1 X68.930 Y77.424 E24.78636 ; skirt
G1 X69.490 Y76.734 E24.87677 ; skirt
G1 X73.596 Y72.165 E25.50177 ; skirt
G1 X74.130 Y72.514 F7800.000 ; move to first skirt point
G1 X74.720 Y71.934 F540.000 E25.58594 ; skirt
G1 X75.360 Y71.404 E25.67049 ; skirt
G1 X80.410 Y67.734 E26.30562 ; skirt
G1 X81.110 Y67.284 E26.39028 ; skirt
G1 X81.850 Y66.914 E26.47446 ; skirt
G1 X87.560 Y64.374 E27.11028 ; skirt
G1 X88.330 Y64.074 E27.19435 ; skirt
G1 X89.120 Y63.864 E27.27752 ; skirt
G1 X95.220 Y62.564 E27.91207 ; skirt
G1 X96.040 Y62.434 E27.99654 ; skirt
G1 X96.870 Y62.384 E28.08114 ; skirt
G1 X103.120 Y62.384 E28.71701 ; skirt
G1 X103.950 Y62.434 E28.80161 ; skirt
G1 X104.770 Y62.564 E28.88608 ; skirt
G1 X110.870 Y63.864 E29.52063 ; skirt
G1 X111.670 Y64.074 E29.60478 ; skirt
G1 X112.440 Y64.374 E29.68886 ; skirt
G1 X118.140 Y66.914 E30.32375 ; skirt
G1 X118.870 Y67.284 E30.40701 ; skirt
G1 X119.560 Y67.734 E30.49082 ; skirt
G1 X124.620 Y71.404 E31.12678 ; skirt
G1 X125.270 Y71.924 E31.21147 ; skirt
G1 X125.860 Y72.514 E31.29636 ; skirt
G1 X130.030 Y77.154 E31.93106 ; skirt
G1 X130.550 Y77.804 E32.01575 ; skirt
G1 X131.000 Y78.494 E32.09956 ; skirt
G1 X134.120 Y83.904 E32.73495 ; skirt
G1 X134.490 Y84.634 E32.81821 ; skirt
G1 X134.790 Y85.404 E32.90229 ; skirt
G1 X136.720 Y91.334 E33.53676 ; skirt
G1 X136.930 Y92.144 E33.62189 ; skirt
G1 X137.060 Y92.964 E33.70636 ; skirt
G1 X137.710 Y99.174 E34.34162 ; skirt
G1 X137.760 Y99.994 E34.42520 ; skirt
G1 X137.710 Y100.814 E34.50878 ; skirt
G1 X137.060 Y107.024 E35.14404 ; skirt
G1 X136.930 Y107.844 E35.22851 ; skirt
G1 X136.720 Y108.644 E35.31265 ; skirt
G1 X134.790 Y114.584 E35.94809 ; skirt
G1 X134.490 Y115.364 E36.03312 ; skirt
G1 X134.120 Y116.104 E36.11729 ; skirt
G1 X131.000 Y121.504 E36.75179 ; skirt
G1 X130.550 Y122.194 E36.83561 ; skirt
G1 X130.030 Y122.834 E36.91950 ; skirt
G1 X125.860 Y127.474 E37.55420 ; skirt
G1 X125.270 Y128.064 E37.63909 ; skirt
G1 X124.620 Y128.584 E37.72378 ; skirt
G1 X119.560 Y132.254 E38.35974 ; skirt
G1 X118.870 Y132.704 E38.44355 ; skirt
G1 X118.140 Y133.074 E38.52682 ; skirt
G1 X112.440 Y135.614 E39.16171 ; skirt
G1 X111.670 Y135.914 E39.24578 ; skirt
G1 X110.870 Y136.124 E39.32993 ; skirt
G1 X104.770 Y137.424 E39.96448 ; skirt
G1 X103.950 Y137.554 E40.04895 ; skirt
G1 X103.120 Y137.604 E40.13355 ; skirt
G1 X96.870 Y137.604 E40.76943 ; skirt
G1 X96.040 Y137.554 E40.85402 ; skirt
G1 X95.220 Y137.424 E40.93849 ; skirt
G1 X89.120 Y136.124 E41.57304 ; skirt
G1 X88.330 Y135.914 E41.65621 ; skirt
G1 X87.560 Y135.614 E41.74028 ; skirt
G1 X81.850 Y133.074 E42.37610 ; skirt
G1 X81.110 Y132.704 E42.46028 ; skirt
G1 X80.410 Y132.254 E42.54494 ; skirt
G1 X75.360 Y128.584 E43.18008 ; skirt
G1 X74.720 Y128.064 E43.26397 ; skirt
G1 X74.130 Y127.474 E43.34886 ; skirt
G1 X69.970 Y122.854 E43.98137 ; skirt
G1 X69.450 Y122.214 E44.06527 ; skirt
G1 X69.000 Y121.514 E44.14993 ; skirt
G1 X65.870 Y116.094 E44.78671 ; skirt
G1 X65.500 Y115.364 E44.86998 ; skirt
G1 X65.200 Y114.584 E44.95500 ; skirt
G1 X63.270 Y108.644 E45.59044 ; skirt
G1 X63.060 Y107.844 E45.67459 ; skirt
G1 X62.930 Y107.024 E45.75905 ; skirt
G1 X62.280 Y100.814 E46.39431 ; skirt
G1 X62.230 Y99.994 E46.47789 ; skirt
G1 X62.280 Y99.174 E46.56148 ; skirt
G1 X62.930 Y92.964 E47.19673 ; skirt
G1 X63.060 Y92.144 E47.28120 ; skirt
G1 X63.270 Y91.334 E47.36634 ; skirt
G1 X65.200 Y85.404 E48.00080 ; skirt
G1 X65.500 Y84.634 E48.08488 ; skirt
G1 X65.870 Y83.904 E48.16814 ; skirt
G1 X68.990 Y78.494 E48.80353 ; skirt
G1 X69.440 Y77.804 E48.88734 ; skirt
G1 X69.960 Y77.154 E48.97203 ; skirt
G1 X74.066 Y72.585 E49.59703 ; skirt
G1 X74.600 Y72.944 F7800.000 ; move to first skirt point
G1 X75.140 Y72.404 F540.000 E49.67473 ; skirt
G1 X75.740 Y71.924 E49.75290 ; skirt
G1 X80.790 Y68.254 E50.38804 ; skirt
G1 X81.430 Y67.834 E50.46592 ; skirt
G1 X82.100 Y67.494 E50.54236 ; skirt
G1 X87.810 Y64.954 E51.17818 ; skirt
G1 X88.520 Y64.674 E51.25583 ; skirt
G1 X89.250 Y64.484 E51.33257 ; skirt
G1 X95.350 Y63.184 E51.96713 ; skirt
G1 X96.110 Y63.064 E52.04541 ; skirt
G1 X96.870 Y63.024 E52.12284 ; skirt
G1 X103.120 Y63.024 E52.75871 ; skirt
G1 X103.880 Y63.064 E52.83614 ; skirt
G1 X104.640 Y63.184 E52.91442 ; skirt
G1 X110.740 Y64.484 E53.54897 ; skirt
G1 X111.470 Y64.684 E53.62598 ; skirt
G1 X112.180 Y64.954 E53.70326 ; skirt
G1 X117.880 Y67.494 E54.33815 ; skirt
G1 X118.550 Y67.834 E54.41459 ; skirt
G1 X119.190 Y68.244 E54.49192 ; skirt
G1 X124.250 Y71.914 E55.12788 ; skirt
G1 X124.850 Y72.404 E55.20669 ; skirt
G1 X125.390 Y72.944 E55.28439 ; skirt
G1 X129.560 Y77.584 E55.91909 ; skirt
G1 X130.040 Y78.174 E55.99647 ; skirt
G1 X130.450 Y78.814 E56.07380 ; skirt
G1 X133.570 Y84.224 E56.70919 ; skirt
G1 X133.910 Y84.894 E56.78563 ; skirt
G1 X134.180 Y85.604 E56.86291 ; skirt
G1 X136.110 Y91.534 E57.49738 ; skirt
G1 X136.310 Y92.274 E57.57537 ; skirt
G1 X136.430 Y93.024 E57.65264 ; skirt
G1 X137.080 Y99.234 E58.28790 ; skirt
G1 X137.120 Y99.994 E58.36533 ; skirt
G1 X137.080 Y100.754 E58.44276 ; skirt
G1 X136.430 Y106.964 E59.07802 ; skirt
G1 X136.310 Y107.714 E59.15529 ; skirt
G1 X136.120 Y108.454 E59.23302 ; skirt
G1 X134.190 Y114.394 E59.86846 ; skirt
G1 X133.910 Y115.104 E59.94611 ; skirt
G1 X133.570 Y115.784 E60.02346 ; skirt
G1 X130.450 Y121.184 E60.65796 ; skirt
G1 X130.030 Y121.814 E60.73500 ; skirt
G1 X129.560 Y122.404 E60.81174 ; skirt
G1 X125.390 Y127.044 E61.44644 ; skirt
G1 X124.850 Y127.584 E61.52414 ; skirt
G1 X124.250 Y128.074 E61.60296 ; skirt
G1 X119.190 Y131.744 E62.23891 ; skirt
G1 X118.550 Y132.154 E62.31624 ; skirt
G1 X117.880 Y132.494 E62.39268 ; skirt
G1 X112.180 Y135.034 E63.02757 ; skirt
G1 X111.470 Y135.304 E63.10485 ; skirt
G1 X110.740 Y135.504 E63.18186 ; skirt
G1 X104.640 Y136.804 E63.81641 ; skirt
G1 X103.880 Y136.924 E63.89469 ; skirt
G1 X103.120 Y136.964 E63.97212 ; skirt
G1 X96.870 Y136.964 E64.60800 ; skirt
G1 X96.110 Y136.924 E64.68543 ; skirt
G1 X95.350 Y136.804 E64.76371 ; skirt
G1 X89.250 Y135.504 E65.39826 ; skirt
G1 X88.520 Y135.314 E65.47500 ; skirt
G1 X87.810 Y135.034 E65.55265 ; skirt
G1 X82.100 Y132.494 E66.18847 ; skirt
G1 X81.430 Y132.154 E66.26491 ; skirt
G1 X80.790 Y131.734 E66.34280 ; skirt
G1 X75.740 Y128.064 E66.97793 ; skirt
G1 X75.140 Y127.584 E67.05610 ; skirt
G1 X74.610 Y127.054 E67.13236 ; skirt
G1 X70.450 Y122.434 E67.76487 ; skirt
G1 X69.970 Y121.834 E67.84305 ; skirt
G1 X69.550 Y121.204 E67.92008 ; skirt
G1 X66.420 Y115.784 E68.55686 ; skirt
G1 X66.080 Y115.104 E68.63421 ; skirt
G1 X65.800 Y114.394 E68.71185 ; skirt
G1 X63.870 Y108.454 E69.34729 ; skirt
G1 X63.680 Y107.714 E69.42502 ; skirt
G1 X63.560 Y106.964 E69.50230 ; skirt
G1 X62.910 Y100.754 E70.13755 ; skirt
G1 X62.870 Y99.994 E70.21498 ; skirt
G1 X62.910 Y99.234 E70.29241 ; skirt
G1 X63.560 Y93.024 E70.92767 ; skirt
G1 X63.680 Y92.274 E71.00494 ; skirt
G1 X63.880 Y91.534 E71.08293 ; skirt
G1 X65.810 Y85.604 E71.71740 ; skirt
G1 X66.080 Y84.894 E71.79468 ; skirt
G1 X66.420 Y84.224 E71.87112 ; skirt
G1 X69.540 Y78.814 E72.50651 ; skirt
G1 X69.950 Y78.174 E72.58384 ; skirt
G1 X70.430 Y77.584 E72.66122 ; skirt
G1 X74.536 Y73.015 E73.28623 ; skirt
G1 X75.070 Y73.364 F7800.000 ; move to first skirt point
G1 X75.570 Y72.874 F540.000 E73.35745 ; skirt
G1 X76.110 Y72.434 E73.42832 ; skirt
G1 X81.160 Y68.764 E74.06345 ; skirt
G1 X81.740 Y68.384 E74.13400 ; skirt
G1 X82.360 Y68.074 E74.20452 ; skirt
G1 X88.070 Y65.534 E74.84034 ; skirt
G1 X88.720 Y65.284 E74.91120 ; skirt
G1 X89.390 Y65.104 E74.98178 ; skirt
G1 X95.490 Y63.804 E75.61633 ; skirt
G1 X96.170 Y63.694 E75.68641 ; skirt
G1 X96.870 Y63.654 E75.75775 ; skirt
G1 X103.120 Y63.654 E76.39362 ; skirt
G1 X103.820 Y63.694 E76.46496 ; skirt
G1 X104.500 Y63.804 E76.53504 ; skirt
G1 X110.600 Y65.104 E77.16959 ; skirt
G1 X111.270 Y65.284 E77.24017 ; skirt
G1 X111.920 Y65.534 E77.31103 ; skirt
G1 X117.620 Y68.074 E77.94592 ; skirt
G1 X118.240 Y68.384 E78.01644 ; skirt
G1 X118.820 Y68.764 E78.08699 ; skirt
G1 X123.880 Y72.434 E78.72295 ; skirt
G1 X124.420 Y72.874 E78.79381 ; skirt
G1 X124.920 Y73.364 E78.86504 ; skirt
G1 X129.090 Y78.004 E79.49974 ; skirt
G1 X129.520 Y78.544 E79.56997 ; skirt
G1 X129.900 Y79.124 E79.64052 ; skirt
G1 X133.020 Y84.534 E80.27590 ; skirt
G1 X133.330 Y85.154 E80.34643 ; skirt
G1 X133.580 Y85.804 E80.41728 ; skirt
G1 X135.510 Y91.734 E81.05175 ; skirt
G1 X135.690 Y92.404 E81.12233 ; skirt
G1 X135.800 Y93.094 E81.19342 ; skirt
G1 X136.450 Y99.304 E81.82868 ; skirt
G1 X136.490 Y99.994 E81.89900 ; skirt
G1 X136.450 Y100.684 E81.96931 ; skirt
G1 X135.800 Y106.894 E82.60457 ; skirt
G1 X135.690 Y107.584 E82.67566 ; skirt
G1 X135.510 Y108.254 E82.74624 ; skirt
G1 X133.580 Y114.194 E83.38168 ; skirt
G1 X133.330 Y114.844 E83.45253 ; skirt
G1 X133.020 Y115.464 E83.52306 ; skirt
G1 X129.900 Y120.864 E84.15756 ; skirt
G1 X129.520 Y121.444 E84.22811 ; skirt
G1 X129.090 Y121.984 E84.29834 ; skirt
G1 X124.920 Y126.624 E84.93304 ; skirt
G1 X124.420 Y127.114 E85.00427 ; skirt
G1 X123.880 Y127.554 E85.07513 ; skirt
G1 X118.820 Y131.224 E85.71109 ; skirt
G1 X118.240 Y131.604 E85.78164 ; skirt
G1 X117.620 Y131.914 E85.85216 ; skirt
G1 X111.920 Y134.454 E86.48705 ; skirt
G1 X111.270 Y134.704 E86.55790 ; skirt
G1 X110.600 Y134.884 E86.62849 ; skirt
G1 X104.500 Y136.184 E87.26304 ; skirt
G1 X103.820 Y136.294 E87.33312 ; skirt
G1 X103.120 Y136.334 E87.40446 ; skirt
G1 X96.870 Y136.334 E88.04033 ; skirt
G1 X96.170 Y136.294 E88.11167 ; skirt
G1 X95.490 Y136.184 E88.18175 ; skirt
G1 X89.390 Y134.884 E88.81630 ; skirt
G1 X88.720 Y134.704 E88.88688 ; skirt
G1 X88.070 Y134.454 E88.95774 ; skirt
G1 X82.360 Y131.914 E89.59356 ; skirt
G1 X81.740 Y131.604 E89.66408 ; skirt
G1 X81.160 Y131.224 E89.73463 ; skirt
G1 X76.110 Y127.554 E90.36976 ; skirt
G1 X75.570 Y127.114 E90.44063 ; skirt
G1 X75.080 Y126.624 E90.51113 ; skirt
G1 X70.920 Y122.004 E91.14364 ; skirt
G1 X70.480 Y121.464 E91.21451 ; skirt
G1 X70.100 Y120.884 E91.28505 ; skirt
G1 X66.970 Y115.464 E91.92183 ; skirt
G1 X66.660 Y114.844 E91.99235 ; skirt
G1 X66.410 Y114.194 E92.06321 ; skirt
G1 X64.480 Y108.254 E92.69864 ; skirt
G1 X64.300 Y107.584 E92.76923 ; skirt
G1 X64.190 Y106.894 E92.84031 ; skirt
G1 X63.540 Y100.684 E93.47557 ; skirt
G1 X63.500 Y99.994 E93.54589 ; skirt
G1 X63.540 Y99.304 E93.61621 ; skirt
G1 X64.190 Y93.094 E94.25147 ; skirt
G1 X64.300 Y92.404 E94.32255 ; skirt
G1 X64.480 Y91.734 E94.39314 ; skirt
G1 X66.410 Y85.804 E95.02760 ; skirt
G1 X66.660 Y85.154 E95.09846 ; skirt
G1 X66.970 Y84.534 E95.16898 ; skirt
G1 X70.090 Y79.124 E95.80437 ; skirt
G1 X70.470 Y78.544 E95.87492 ; skirt
G1 X70.900 Y78.004 E95.94515 ; skirt
G1 X75.006 Y73.435 E96.57015 ; skirt
G1 F1800.000 E95.57015 ; retract
G92 E0 ; reset extrusion distance
G1 X122.245 Y98.673 F7800.000 ; move to first perimeter point
G1 F1800.000 E1.00000 ; compensate retraction
G1 X124.320 Y97.018 F540.000 E1.27000 ; perimeter
G1 X126.907 Y97.609 E1.54000 ; perimeter
G1 X128.058 Y100.000 E1.81000 ; perimeter
G1 X126.907 Y102.391 E2.08000 ; perimeter
G1 X124.320 Y102.982 E2.35000 ; perimeter
G1 X122.245 Y101.327 E2.62000 ; perimeter
G1 X122.245 Y98.768 E2.88030 ; perimeter
G1 X122.880 Y98.979 F7800.000 ; move to first perimeter point
G1 X124.477 Y97.706 F540.000 E3.08802 ; perimeter
G1 X126.467 Y98.161 E3.29573 ; perimeter
G1 X127.353 Y100.000 E3.50344 ; perimeter
G1 X126.467 Y101.839 E3.71116 ; perimeter
G1 X124.477 Y102.294 E3.91887 ; perimeter
G1 X122.880 Y101.021 E4.12659 ; perimeter
G1 X122.880 Y99.075 E4.32461 ; perimeter
G1 X123.514 Y99.027 F7800.000 ; move inwards before travel
G1 F1800.000 E3.32461 ; retract
G92 E0 ; reset extrusion distance
G1 X78.058 Y100.000 F7800.000 ; move to first perimeter point
G1 F1800.000 E1.00000 ; compensate retraction
