; generated by Slic3r 0.9.10b on 2014-02-02 at 03:11:44

; layer_height = 0.5
; perimeters = 3
; top_solid_layers = 3
; bottom_solid_layers = 3
; fill_density = 0.8
; perimeter_speed = 30
; infill_speed = 60
; travel_speed = 130
; nozzle_diameter = 0.5
; filament_diameter = 1.75
; extrusion_multiplier = 1.5
; perimeters extrusion width = 0.53mm
; infill extrusion width = 0.53mm
; solid infill extrusion width = 0.53mm
; top infill extrusion width = 0.53mm
; first layer extrusion width = 0.80mm

G21 ; set units to millimeters
M107
M104 S190 ; set temperature
G28 ; home all axes
G1 Z5 F5000 ; lift nozzle
M109 S190 ; wait for temperature to be reached
G90 ; use absolute coordinates
G92 E0
M82 ; use absolute distances for extrusion
G1 F1800.000 E-1.00000
G92 E0
G1 Z0.400 F7800.000
G1 X86.862 Y71.800
G1 F1800.000 E1.00000
G1 X87.172 Y71.490 F540.000 E1.08045
G1 X88.262 Y70.600 E1.33867
G1 X89.522 Y69.960 E1.59800
G1 X90.882 Y69.600 E1.85615
G1 X92.292 Y69.520 E2.11531
G1 X93.682 Y69.750 E2.37384
G1 X115.552 Y75.650 E6.53048
G1 X116.172 Y75.850 E6.65002
G1 X116.772 Y76.110 E6.77002
G1 X118.542 Y76.980 E7.13193
G1 X119.492 Y77.540 E7.33429
G1 X120.332 Y78.260 E7.53730
G1 X121.732 Y79.660 E7.90062
G1 X122.452 Y80.500 E8.10363
G1 X123.012 Y81.450 E8.30599
G1 X123.882 Y83.220 E8.66790
G1 X124.142 Y83.810 E8.78622
G1 X124.342 Y84.430 E8.90576
G1 X130.252 Y106.300 E13.06288
G1 X130.482 Y107.700 E13.32322
G1 X130.402 Y109.110 E13.58238
G1 X130.042 Y110.470 E13.84053
G1 X129.402 Y111.730 E14.09986
G1 X128.512 Y112.820 E14.35808
G1 X112.812 Y128.510 E18.43109
G1 X111.712 Y129.400 E18.69073
G1 X110.462 Y130.040 E18.94842
G1 X109.092 Y130.400 E19.20836
G1 X107.682 Y130.480 E19.46751
G1 X106.292 Y130.250 E19.72604
G1 X84.432 Y124.340 E23.88139
G1 X83.812 Y124.140 E24.00093
G1 X83.222 Y123.880 E24.11924
G1 X81.452 Y123.010 E24.48116
G1 X80.502 Y122.450 E24.68351
G1 X79.662 Y121.730 E24.88653
G1 X78.262 Y120.330 E25.24984
G1 X77.542 Y119.490 E25.45286
G1 X76.982 Y118.540 E25.65522
G1 X76.112 Y116.770 E26.01713
G1 X75.852 Y116.180 E26.13544
G1 X75.652 Y115.560 E26.25499
G1 X69.742 Y93.690 E30.41210
G1 X69.512 Y92.290 E30.67245
G1 X69.592 Y90.880 E30.93160
G1 X69.952 Y89.520 E31.18976
G1 X70.592 Y88.260 E31.44909
G1 X71.482 Y87.170 E31.70731
G1 X86.784 Y71.878 E35.67702
G1 F1800.000 E34.67702
G92 E0
G1 X108.385 Y86.020 F7800.000
G1 F1800.000 E1.00000
G1 X110.203 Y84.202 F540.000 E1.47183
G1 X112.742 Y83.799 E1.94364
G1 X115.033 Y84.967 E2.41545
G1 X116.201 Y87.258 E2.88726
G1 X115.798 Y89.797 E3.35907
G1 X113.980 Y91.615 E3.83090
G1 X111.441 Y92.018 E4.30271
G1 X109.150 Y90.850 E4.77452
G1 X107.982 Y88.559 E5.24633
G1 X108.367 Y86.129 E5.69789
G1 X109.074 Y86.371 F7800.000
G1 X110.554 Y84.891 F540.000 E6.08200
G1 X112.621 Y84.563 E6.46609
G1 X114.486 Y85.514 E6.85018
G1 X115.437 Y87.379 E7.23428
G1 X115.109 Y89.446 E7.61837
G1 X113.629 Y90.926 E8.00247
G1 X111.562 Y91.254 E8.38656
G1 X109.697 Y90.303 E8.77066
G1 X108.746 Y88.438 E9.15475
G1 X109.057 Y86.480 E9.51859
G1 X109.808 Y86.409 F7800.000
G1 F1800.000 E8.51859
G92 E0
G1 X90.850 Y109.150 F7800.000
G1 F1800.000 E1.00000
G1 X92.018 Y111.441 F540.000 E1.47182
G1 X91.615 Y113.980 E1.94363
G1 X91.257 Y114.339 E2.03663
G1 X89.797 Y115.798 E2.41544
G1 X87.258 Y116.201 E2.88724
G1 X84.967 Y115.033 E3.35906
G1 X83.799 Y112.742 E3.83088
G1 X84.202 Y110.203 E4.30269
G1 X86.020 Y108.385 E4.77449
G1 X88.559 Y107.982 E5.24630
G1 X90.752 Y109.100 E5.69787
G1 X90.303 Y109.697 F7800.000
G1 X91.254 Y111.562 F540.000 E6.08197
G1 X90.926 Y113.629 E6.46606
G1 X90.737 Y113.818 E6.51520
G1 X89.446 Y115.109 E6.85014
G1 X87.379 Y115.437 E7.23423
G1 X85.514 Y114.486 E7.61833
G1 X84.563 Y112.621 E8.00243
G1 X84.891 Y110.554 E8.38652
G1 X86.371 Y109.074 E8.77060
G1 X88.438 Y108.746 E9.15469
G1 X90.205 Y109.647 E9.51854
G1 X90.040 Y110.383 F7800.000
G1 F1800.000 E8.51854
G92 E0
G1 X91.736 Y109.267 F7800.000
G1 F1800.000 E1.00000
G1 X91.397 Y108.603 F540.000 E1.13687
G1 X88.680 Y107.219 E1.69640
G1 X86.888 Y107.502 E2.02945
G1 X86.795 Y107.321 E2.06691
G1 X90.509 Y103.606 E3.03082
G1 X78.842 Y91.939 E6.05858
G1 X91.939 Y78.842 E9.45737
G1 X103.606 Y90.509 E12.48514
G1 X107.321 Y86.795 E13.44903
G1 X107.502 Y86.888 E13.48650
G1 X107.219 Y88.680 E13.81955
G1 X108.603 Y91.397 E14.37908
G1 X111.320 Y92.781 E14.93861
G1 X113.112 Y92.498 E15.27166
G1 X113.205 Y92.679 E15.30912
G1 X109.491 Y96.394 E16.27302
G1 X121.158 Y108.061 E19.30078
G1 X108.061 Y121.158 E22.69957
G1 X96.394 Y109.491 E25.72734
G1 X92.679 Y113.205 E26.69125
G1 X92.498 Y113.112 E26.72871
G1 X92.781 Y111.320 E27.06175
G1 X91.786 Y109.366 E27.46418
G1 F1800.000 E26.46418
G92 E0
G1 X116.064 Y85.072 F7800.000
G1 F1800.000 E1.00000
G1 X116.770 Y86.516 F540.000 E1.29486
G1 X116.969 Y88.110 E1.58972
G1 X116.665 Y89.558 E1.86116
G1 X116.698 Y89.584 E1.86882
G1 X115.816 Y91.063 E2.18490
G1 X114.663 Y92.041 E2.46236
G1 X114.773 Y92.151 E2.49110
G1 X110.531 Y96.394 E3.59204
G1 X122.198 Y108.061 E6.61981
G1 X108.061 Y122.198 E10.28857
G1 X96.394 Y110.531 E13.31634
G1 X92.151 Y114.774 E14.41735
G1 X92.040 Y114.663 E14.44608
G1 X91.063 Y115.816 E14.72346
G1 X89.584 Y116.698 E15.03954
G1 X89.558 Y116.665 E15.04720
G1 X88.110 Y116.969 E15.31865
G1 X86.516 Y116.770 E15.61350
G1 X85.072 Y116.064 E15.90836
G1 X83.936 Y114.928 E16.20323
G1 X83.230 Y113.484 E16.49810
G1 X83.031 Y111.890 E16.79295
G1 X83.335 Y110.442 E17.06439
G1 X83.302 Y110.416 E17.07206
G1 X84.184 Y108.937 E17.38814
G1 X85.337 Y107.960 E17.66553
G1 X85.226 Y107.849 E17.69426
G1 X89.469 Y103.606 E18.79526
G1 X77.802 Y91.939 E21.82303
G1 X91.939 Y77.802 E25.49179
G1 X103.606 Y89.469 E28.51956
G1 X107.849 Y85.226 E29.62056
G1 X107.960 Y85.337 E29.64929
G1 X108.937 Y84.184 E29.92668
G1 X110.416 Y83.302 E30.24276
G1 X110.442 Y83.335 E30.25042
G1 X111.890 Y83.031 E30.52187
G1 X113.484 Y83.230 E30.81672
G1 X114.928 Y83.936 E31.11158
G1 X115.986 Y84.994 E31.38620
G1 X116.603 Y84.570 F7800.000
G1 X116.671 Y84.639 F378.000 E31.40394
G1 X117.485 Y86.303 E31.74385
G1 X117.714 Y88.141 E32.08375
G1 X117.334 Y89.954 E32.42366
G1 X116.385 Y91.545 E32.76358
G1 X115.748 Y92.085 E32.91689
G1 X115.814 Y92.151 E32.93400
G1 X111.571 Y96.394 E34.03498
G1 X123.239 Y108.061 E37.06275
G1 X108.061 Y123.239 E41.00148
G1 X96.394 Y111.571 E44.02925
G1 X92.151 Y115.814 E45.13026
G1 X92.085 Y115.748 E45.14736
G1 X91.545 Y116.385 E45.30064
G1 X89.954 Y117.334 E45.64056
G1 X88.141 Y117.714 E45.98048
G1 X86.303 Y117.485 E46.32038
G1 X84.639 Y116.671 E46.66029
G1 X83.329 Y115.361 E47.00022
G1 X82.515 Y113.697 E47.34013
G1 X82.286 Y111.859 E47.68003
G1 X82.666 Y110.046 E48.01995
G1 X83.615 Y108.455 E48.35987
G1 X84.252 Y107.915 E48.51315
G1 X84.186 Y107.849 E48.53025
G1 X88.429 Y103.606 E49.63126
G1 X76.761 Y91.939 E52.65902
G1 X91.939 Y76.761 E56.59776
G1 X103.606 Y88.429 E59.62553
G1 X107.849 Y84.186 E60.72653
G1 X107.915 Y84.252 E60.74363
G1 X108.455 Y83.615 E60.89692
G1 X110.046 Y82.666 E61.23684
G1 X111.859 Y82.286 E61.57675
G1 X113.697 Y82.515 E61.91665
G1 X115.361 Y83.329 E62.25657
G1 X116.525 Y84.492 E62.55851
G1 X116.578 Y84.664 F7800.000
G1 F1800.000 E61.55851
G92 E0
G1 X109.792 Y92.602 F7800.000
G1 F1800.000 E1.00000
G1 X111.161 Y93.970 F1080.000 E1.35557
G1 F1800.000 E0.35557
G92 E0
G1 X107.398 Y90.208 F7800.000
G1 F1800.000 E1.00000
G1 X106.030 Y88.839 F1080.000 E1.35556
G1 X105.509 Y89.360 E1.49095
G1 X110.640 Y94.491 E2.82431
G1 X110.119 Y95.012 E2.95970
G1 X104.988 Y89.881 E4.29305
G1 X104.467 Y90.402 E4.42844
G1 X109.598 Y95.533 E5.76180
G1 X109.077 Y96.054 E5.89719
G1 X103.946 Y90.923 E7.23054
G1 F1800.000 E6.23054
G92 E0
G1 X91.758 Y79.777 F7800.000
G1 F1800.000 E1.00000
G1 X120.223 Y108.242 F1080.000 E8.39785
G1 X119.702 Y108.763 E8.53323
G1 X91.237 Y80.298 E15.93108
G1 X90.716 Y80.819 E16.06646
G1 X119.181 Y109.284 E23.46431
G1 X118.660 Y109.805 E23.59970
G1 X90.195 Y81.340 E30.99754
G1 X89.675 Y81.861 E31.13293
G1 X118.139 Y110.325 E38.53077
G1 X117.619 Y110.846 E38.66616
G1 X89.154 Y82.381 E46.06401
G1 X88.633 Y82.902 E46.19939
G1 X117.098 Y111.367 E53.59724
G1 X116.577 Y111.888 E53.73262
G1 X88.112 Y83.423 E61.13047
G1 X87.591 Y83.944 E61.26586
G1 X116.056 Y112.409 E68.66370
G1 X115.535 Y112.930 E68.79909
G1 X87.070 Y84.465 E76.19693
G1 X86.549 Y84.986 E76.33232
G1 X115.014 Y113.451 E83.73017
G1 X114.493 Y113.972 E83.86555
G1 X86.028 Y85.507 E91.26340
G1 X85.507 Y86.028 E91.39878
G1 X113.972 Y114.493 E98.79663
G1 X113.451 Y115.014 E98.93202
G1 X84.986 Y86.549 E106.32986
G1 X84.465 Y87.070 E106.46525
G1 X112.930 Y115.535 E113.86309
G1 X112.409 Y116.056 E113.99848
G1 X83.944 Y87.591 E121.39633
G1 X83.423 Y88.112 E121.53171
G1 X111.888 Y116.577 E128.92956
G1 X111.367 Y117.098 E129.06494
G1 X82.902 Y88.633 E136.46279
G1 X82.381 Y89.154 E136.59818
G1 X110.846 Y117.618 E143.99602
G1 X110.326 Y118.139 E144.13141
G1 X81.861 Y89.674 E151.52925
G1 X81.340 Y90.195 E151.66464
G1 X109.805 Y118.660 E159.06249
G1 X109.284 Y119.181 E159.19787
G1 X80.819 Y90.716 E166.59572
G1 X80.298 Y91.237 E166.73110
G1 X108.763 Y119.702 E174.12895
G1 X108.242 Y120.223 E174.26434
G1 X79.777 Y91.758 E181.66218
G1 F1800.000 E180.66218
G92 E0
G1 X88.839 Y106.030 F7800.000
G1 F1800.000 E1.00000
G1 X90.208 Y107.398 F1080.000 E1.35561
G1 F1800.000 E0.35561
G92 E0
G1 X93.970 Y111.161 F7800.000
G1 F1800.000 E1.00000
G1 X92.602 Y109.792 F1080.000 E1.35562
G1 X94.491 Y110.640 E1.73613
G1 X89.360 Y105.509 E3.06949
G1 X89.881 Y104.988 E3.20488
G1 X95.012 Y110.119 E4.53824
G1 X95.533 Y109.598 E4.67362
G1 X90.402 Y104.467 E6.00698
G1 X90.923 Y103.946 E6.14237
G1 X96.054 Y109.077 E7.47573
M106 S470
M104 S185 ; set temperature
G1 F1800.000 E6.47573
G92 E0
G1 Z0.900 F7800.000
G1 X109.391 Y90.609
G1 F1800.000 E1.00000
G1 X108.319 Y88.506 F1800.000 E1.38249
G1 X108.688 Y86.174 E1.76498
G1 X109.838 Y85.025 E2.02834
G1 X110.357 Y84.505 E2.14749
G1 X112.689 Y84.136 E2.52998
G1 X114.792 Y85.208 E2.91247
G1 X115.864 Y87.311 E3.29496
G1 X115.495 Y89.643 E3.67745
G1 X113.826 Y91.312 E4.05996
G1 X111.494 Y91.681 E4.44245
G1 X109.460 Y90.645 E4.81231
G1 X109.777 Y90.223 F7800.000
G1 X108.859 Y88.421 F1800.000 E5.14009
G1 X109.175 Y86.422 E5.46787
G1 X110.205 Y85.393 E5.70387
G1 X110.606 Y84.992 E5.79566
G1 X112.604 Y84.676 E6.12343
G1 X114.406 Y85.594 E6.45121
G1 X115.324 Y87.396 E6.77899
G1 X115.008 Y89.394 E7.10677
G1 X113.578 Y90.825 E7.43456
G1 X111.579 Y91.141 E7.76233
G1 X109.846 Y90.258 E8.07749
G1 X109.963 Y89.738 F7800.000
G1 F1800.000 E7.07749
G92 E0
G1 X90.609 Y109.391 F7800.000
G1 F1800.000 E1.00000
G1 X91.681 Y111.494 F1800.000 E1.38250
G1 X91.312 Y113.826 E1.76499
G1 X89.643 Y115.495 E2.14747
G1 X87.311 Y115.864 E2.52996
G1 X85.208 Y114.792 E2.91246
G1 X84.136 Y112.689 E3.29496
G1 X84.505 Y110.357 E3.67745
G1 X86.174 Y108.688 E4.05993
G1 X88.506 Y108.319 E4.44242
G1 X90.540 Y109.355 E4.81229
G1 X90.223 Y109.777 F7800.000
G1 X91.141 Y111.580 F1800.000 E5.14007
G1 X90.825 Y113.578 E5.46785
G1 X89.394 Y115.008 E5.79562
G1 X87.396 Y115.324 E6.12340
G1 X85.594 Y114.406 E6.45118
G1 X84.676 Y112.604 E6.77896
G1 X84.992 Y110.606 E7.10674
G1 X86.422 Y109.175 E7.43451
G1 X88.420 Y108.859 E7.76229
G1 X90.154 Y109.742 E8.07744
G1 X90.037 Y110.262 F7800.000
G1 X91.406 Y109.810
G1 X90.996 Y109.004 F1800.000 E8.22394
G1 X88.591 Y107.779 E8.66115
G1 X85.865 Y108.211 E9.10838
G1 X85.503 Y107.849 E9.19138
G1 X89.746 Y103.606 E10.16356
G1 X78.078 Y91.939 E12.83704
G1 X91.939 Y78.078 E16.01311
G1 X103.606 Y89.746 E18.68660
G1 X107.849 Y85.503 E19.65877
G1 X108.211 Y85.865 E19.74177
G1 X107.779 Y88.591 E20.18901
G1 X109.004 Y90.996 E20.62621
G1 X111.409 Y92.221 E21.06342
G1 X114.135 Y91.789 E21.51064
G1 X114.497 Y92.151 E21.59365
G1 X110.254 Y96.394 E22.56582
G1 X121.922 Y108.061 E25.23930
G1 X108.061 Y121.922 E28.41537
G1 X96.394 Y110.254 E31.08885
G1 X92.151 Y114.497 E32.06102
G1 X91.789 Y114.135 E32.14403
G1 X92.221 Y111.409 E32.59124
G1 X91.442 Y109.879 E32.86932
G1 F1800.000 E31.86932
G92 E0
G1 X113.578 Y82.915 F7800.000
G1 F1800.000 E1.00000
G1 X115.119 Y83.668 F1800.000 E1.27788
G1 X116.332 Y84.881 E1.55577
G1 X117.085 Y86.422 E1.83365
G1 X117.297 Y88.124 E2.11152
G1 X116.945 Y89.802 E2.38940
G1 X116.067 Y91.276 E2.66729
G1 X115.141 Y92.060 E2.86396
G1 X115.232 Y92.151 E2.88481
G1 X110.989 Y96.394 E3.85698
G1 X122.656 Y108.061 E6.53046
G1 X108.061 Y122.656 E9.87493
G1 X96.394 Y110.989 E12.54841
G1 X92.151 Y115.232 E13.52058
G1 X92.060 Y115.141 E13.54143
G1 X91.276 Y116.067 E13.73810
G1 X89.802 Y116.945 E14.01599
G1 X88.124 Y117.297 E14.29387
G1 X86.422 Y117.085 E14.57174
G1 X84.881 Y116.332 E14.84962
G1 X83.668 Y115.119 E15.12751
G1 X82.915 Y113.578 E15.40539
G1 X82.703 Y111.876 E15.68326
G1 X83.055 Y110.198 E15.96114
G1 X83.933 Y108.724 E16.23903
G1 X84.859 Y107.940 E16.43570
G1 X84.768 Y107.849 E16.45655
G1 X89.011 Y103.606 E17.42872
G1 X77.344 Y91.939 E20.10220
G1 X91.939 Y77.344 E23.44667
G1 X103.606 Y89.011 E26.12015
G1 X107.849 Y84.768 E27.09233
G1 X107.940 Y84.859 E27.11317
G1 X108.724 Y83.933 E27.30984
G1 X110.198 Y83.055 E27.58773
G1 X111.876 Y82.703 E27.86561
G1 X113.501 Y82.906 E28.13085
G1 X113.728 Y82.410 F7800.000
G1 X115.425 Y83.240 F1260.000 E28.43683
G1 X116.760 Y84.575 E28.74282
G1 X117.590 Y86.272 E29.04880
G1 X117.823 Y88.146 E29.35477
G1 X117.436 Y89.994 E29.66075
G1 X116.469 Y91.616 E29.96673
G1 X115.907 Y92.092 E30.08600
G1 X115.967 Y92.151 E30.09959
G1 X111.724 Y96.394 E31.07177
G1 X123.391 Y108.061 E33.74525
G1 X108.061 Y123.391 E37.25810
G1 X96.394 Y111.724 E39.93159
G1 X92.151 Y115.967 E40.90376
G1 X92.092 Y115.907 E40.91735
G1 X91.616 Y116.469 E41.03662
G1 X89.994 Y117.436 E41.34260
G1 X88.145 Y117.823 E41.64858
G1 X86.272 Y117.590 E41.95455
G1 X84.575 Y116.760 E42.26053
G1 X83.240 Y115.425 E42.56652
G1 X82.410 Y113.728 E42.87250
G1 X82.177 Y111.855 E43.17847
G1 X82.564 Y110.006 E43.48445
G1 X83.531 Y108.384 E43.79043
G1 X84.093 Y107.908 E43.90969
G1 X84.033 Y107.849 E43.92329
G1 X88.276 Y103.606 E44.89546
G1 X76.609 Y91.939 E47.56895
G1 X91.939 Y76.609 E51.08180
G1 X103.606 Y88.276 E53.75529
G1 X107.849 Y84.033 E54.72746
G1 X107.908 Y84.093 E54.74105
G1 X108.384 Y83.531 E54.86032
G1 X110.006 Y82.564 E55.16630
G1 X111.854 Y82.177 E55.47228
G1 X113.651 Y82.401 E55.76562
G1 X113.821 Y82.922 F7800.000
G1 F1800.000 E54.76562
G92 E0
G1 X113.358 Y92.293 F7800.000
G1 F1800.000 E1.00000
G1 X92.293 Y113.358 F3600.000 E5.85051
G1 X92.432 Y112.481 E5.99516
G1 X112.481 Y92.432 E10.61163
G1 X111.603 Y92.571 E10.75628
G1 X92.571 Y111.603 E15.13870
G1 F1800.000 E14.13870
G92 E0
G1 X86.910 Y107.664 F7800.000
G1 F1800.000 E1.00000
G1 X107.664 Y86.910 F3600.000 E5.77886
G1 X107.525 Y87.788 E5.92351
G1 X87.788 Y107.525 E10.46832
G1 X88.660 Y107.392 E10.61200
G1 X107.391 Y88.660 E14.92517
G1 X107.641 Y89.149 E15.01457
G1 X89.149 Y107.641 E19.27250
G1 X89.638 Y107.890 E19.36189
G1 X107.890 Y89.638 E23.56458
G1 X108.139 Y90.128 E23.65397
G1 X90.128 Y108.139 E27.80141
G1 X90.617 Y108.389 E27.89081
G1 X108.389 Y90.617 E31.98300
G1 X108.638 Y91.106 E32.07239
G1 X91.106 Y108.638 E36.10934
G1 X91.438 Y109.044 E36.19478
G1 X109.044 Y91.438 E40.24864
G1 X109.533 Y91.688 E40.33804
G1 X91.688 Y109.533 E44.44714
G1 X91.937 Y110.022 E44.53654
G1 X110.022 Y91.937 E48.70089
G1 X110.511 Y92.186 E48.79029
G1 X92.186 Y110.511 E53.00989
G1 X92.436 Y111.001 E53.09928
G1 X111.001 Y92.436 E57.37413
G1 F1800.000 E56.37413
G92 E0
G1 X109.859 Y96.531 F7800.000
G1 F1800.000 E1.00000
G1 X96.531 Y109.859 F3600.000 E4.06894
G1 X96.900 Y110.228 E4.15396
G1 X110.228 Y96.900 E7.22289
G1 X110.597 Y97.269 E7.30791
G1 X97.269 Y110.597 E10.37685
G1 X97.639 Y110.967 E10.46187
G1 X110.967 Y97.639 E13.53080
G1 X111.336 Y98.008 E13.61582
G1 X98.008 Y111.336 E16.68476
G1 X98.377 Y111.705 E16.76978
G1 X111.705 Y98.377 E19.83872
G1 X112.074 Y98.746 E19.92374
G1 X98.746 Y112.074 E22.99267
G1 X99.116 Y112.444 E23.07769
G1 X112.444 Y99.116 E26.14663
G1 X112.813 Y99.485 E26.23165
G1 X99.485 Y112.813 E29.30059
G1 X99.854 Y113.182 E29.38561
G1 X113.182 Y99.854 E32.45454
G1 X113.551 Y100.223 E32.53956
G1 X100.223 Y113.551 E35.60850
G1 X100.593 Y113.921 E35.69352
