; generated by Slic3r 0.9.10b on 2014-02-02 at 14:20:51

; layer_height = 0.4
; perimeters = 3
; top_solid_layers = 3
; bottom_solid_layers = 3
; fill_density = 0.8
; perimeter_speed = 30
; infill_speed = 60
; travel_speed = 130
; nozzle_diameter = 0.5
; filament_diameter = 1.75
; extrusion_multiplier = 1.1
; perimeters extrusion width = 0.53mm
; infill extrusion width = 0.53mm
; solid infill extrusion width = 0.53mm
; top infill extrusion width = 0.53mm
; first layer extrusion width = 0.70mm

G21 ; set units to millimeters
M107
M104 S190 ; set temperature
G28 ; home all axes
G1 Z5 F5000 ; lift nozzle
M109 S190 ; wait for temperature to be reached
G90 ; use absolute coordinates
G92 E0
M82 ; use absolute distances for extrusion
G1 F1800.000 E-1.00000
G92 E0
G1 Z0.550 F7800.000
G1 X77.745 Y84.000
G1 F1800.000 E1.00000
G1 X78.775 Y83.100 F540.000 E1.14386
G1 X79.975 Y82.420 E1.28892
G1 X81.035 Y81.960 E1.41046
G1 X81.605 Y81.750 E1.47434
G1 X85.435 Y80.490 E1.89840
G1 X86.085 Y80.310 E1.96934
G1 X86.745 Y80.200 E2.03971
G1 X90.585 Y79.750 E2.44635
G1 X91.955 Y79.730 E2.59045
G1 X93.305 Y80.000 E2.73525
G1 X94.575 Y80.530 E2.87999
G1 X95.705 Y81.320 E3.02500
G1 X96.645 Y82.320 E3.16935
G1 X97.365 Y83.490 E3.31384
G1 X97.825 Y84.790 E3.45887
G1 X98.005 Y86.150 E3.60316
G1 X97.905 Y87.530 E3.74868
G1 X94.015 Y109.380 E6.08289
G1 X93.755 Y110.760 E6.23058
G1 X93.485 Y112.040 E6.36817
G1 X93.105 Y113.260 E6.50256
G1 X92.495 Y114.380 E6.63670
G1 X91.685 Y115.370 E6.77123
G1 X90.695 Y116.180 E6.90577
G1 X89.575 Y116.790 E7.03990
G1 X88.355 Y117.170 E7.17429
G1 X87.085 Y117.320 E7.30880
G1 X85.815 Y117.220 E7.44278
G1 X84.585 Y116.870 E7.57728
G1 X83.445 Y116.300 E7.71133
G1 X82.425 Y115.520 E7.84638
G1 X81.585 Y114.570 E7.97976
G1 X80.935 Y113.470 E8.11414
G1 X75.655 Y102.110 E9.43168
G1 X75.235 Y100.890 E9.56738
G1 X75.045 Y99.620 E9.70244
G1 X74.735 Y93.260 E10.37215
G1 X74.765 Y91.600 E10.54677
G1 X74.825 Y90.820 E10.62905
G1 X74.985 Y90.060 E10.71073
G1 X75.555 Y87.920 E10.94365
G1 X75.755 Y87.270 E11.01518
G1 X76.035 Y86.650 E11.08673
G1 X76.375 Y86.000 E11.16388
G1 X76.915 Y85.100 E11.27427
G1 X77.686 Y84.079 E11.40883
G1 F1800.000 E10.40883
G92 E0
G1 X83.763 Y89.835 F7800.000
G1 F1800.000 E1.00000
G1 X84.139 Y89.672 F540.000 E1.04314
G1 X85.387 Y89.483 E1.17583
G1 X87.936 Y88.421 E1.46632
G1 X89.296 Y88.333 E1.60969
G1 X87.765 Y96.951 E2.53034
G1 X86.751 Y102.830 E3.15773
G1 X86.200 Y102.201 E3.24564
G1 X84.953 Y101.268 E3.40952
G1 X84.364 Y100.645 E3.49965
G1 X83.994 Y99.532 E3.62299
G1 X83.753 Y99.202 E3.66598
G1 X83.402 Y98.777 E3.72399
G1 X83.577 Y96.739 E3.93905
G1 X83.551 Y96.352 E3.97989
G1 X83.296 Y95.174 E4.10659
G1 X83.271 Y94.107 E4.21891
G1 X83.229 Y93.774 E4.25414
G1 X83.032 Y92.885 E4.34998
G1 X83.053 Y92.018 E4.44117
G1 X83.536 Y90.211 E4.63788
G1 X83.712 Y89.919 E4.67369
G1 F1800.000 E3.67369
G92 E0
G1 X87.086 Y104.688 F7800.000
G1 F1800.000 E1.00000
G1 X86.524 Y103.848 F540.000 E1.10630
G1 X85.914 Y102.872 E1.22736
G1 X85.751 Y102.686 E1.25332
G1 X84.514 Y101.760 E1.41592
G1 X83.787 Y100.990 E1.52730
G1 X83.403 Y99.837 E1.65513
G1 X82.722 Y98.985 E1.76989
G1 X82.918 Y96.735 E2.00742
G1 X82.898 Y96.444 E2.03808
G1 X82.640 Y95.227 E2.16891
G1 X82.614 Y94.156 E2.28162
G1 X82.581 Y93.886 E2.31016
G1 X82.381 Y92.982 E2.40759
G1 X82.398 Y91.923 E2.51894
G1 X82.918 Y89.980 E2.73051
G1 X83.309 Y89.316 E2.81159
G1 X83.956 Y89.035 E2.88582
G1 X85.209 Y88.846 E3.01909
G1 X87.783 Y87.772 E3.31236
G1 X88.979 Y87.694 E3.43839
G1 X90.111 Y87.541 E3.55853
G1 X88.673 Y95.585 E4.41797
G1 X87.103 Y104.591 E5.37951
G1 X87.730 Y104.824 F7800.000
G1 X86.996 Y108.922 F378.000 E5.81732
G1 X86.859 Y108.928 E5.83173
G1 X86.605 Y108.067 E5.92617
G1 X86.372 Y106.964 E6.04481
G1 X86.385 Y105.546 E6.19393
G1 X86.017 Y104.272 E6.33339
G1 X85.385 Y103.265 E6.45842
G1 X85.303 Y103.171 E6.47155
G1 X84.064 Y102.241 E6.63449
G1 X83.231 Y101.359 E6.76209
G1 X83.198 Y101.303 E6.76889
G1 X82.812 Y100.142 E6.89764
G1 X82.042 Y99.193 E7.02622
G1 X82.259 Y96.730 E7.28621
G1 X82.246 Y96.536 E7.30668
G1 X81.984 Y95.277 E7.44186
G1 X81.958 Y94.204 E7.55475
G1 X81.933 Y93.998 E7.57660
G1 X81.730 Y93.083 E7.67517
G1 X81.717 Y92.934 E7.69095
G1 X81.744 Y91.826 E7.80745
G1 X82.300 Y89.750 E8.03354
G1 X82.376 Y89.589 E8.05230
G1 X82.855 Y88.796 E8.14970
G1 X83.779 Y88.396 E8.25562
G1 X85.032 Y88.208 E8.38888
G1 X87.630 Y87.124 E8.68492
G1 X88.907 Y87.040 E8.81959
G1 X90.930 Y86.767 E9.03423
G1 X90.803 Y87.324 E9.09434
G1 X90.757 Y87.657 E9.12969
G1 X90.408 Y89.548 E9.33187
G1 X87.747 Y104.727 E10.95273
G1 X87.112 Y105.048 F7800.000
G1 F1800.000 E9.95273
G92 E0
G1 X86.144 Y101.565 F7800.000
G1 F1800.000 E1.00000
G1 X84.688 Y100.108 F1080.000 E1.21682
G1 X83.913 Y98.404 E1.41382
G1 X86.574 Y101.065 E1.80981
G1 X86.712 Y100.273 E1.89436
G1 X83.986 Y97.547 E2.30011
G1 X84.050 Y96.681 E2.39146
G1 X86.851 Y99.482 E2.80826
G1 X86.989 Y98.690 E2.89281
G1 X83.869 Y95.570 E3.35715
G1 X83.757 Y94.529 E3.46740
G1 X87.127 Y97.899 E3.96899
G1 X87.266 Y97.107 E4.05354
G1 X83.655 Y93.497 E4.59086
G1 X83.520 Y92.432 E4.70391
G1 X87.404 Y96.316 E5.28203
G1 X87.542 Y95.525 E5.36659
G1 X83.650 Y91.632 E5.94596
G1 X83.846 Y90.899 E6.02584
G1 X87.681 Y94.733 E6.59653
G1 X87.819 Y93.942 E6.68108
G1 X84.045 Y90.168 E7.24275
G1 X84.853 Y90.046 E7.32872
G1 X87.958 Y93.150 E7.79076
G1 X88.096 Y92.359 E7.87531
G1 X85.634 Y89.897 E8.24176
G1 X86.291 Y89.624 E8.31667
G1 X88.234 Y91.567 E8.60584
G1 X88.373 Y90.776 E8.69039
G1 X86.949 Y89.352 E8.90227
G1 X87.604 Y89.078 E8.97704
G1 X88.511 Y89.985 E9.11201
G1 X88.649 Y89.193 E9.19656
G1 X88.258 Y88.802 E9.25481
G1 F1800.000 E8.25481
G92 E0
G1 X86.869 Y106.938 F7800.000
G1 F1800.000 E1.00000
G1 X86.841 Y106.910 F360.000 E1.00206
G1 X86.940 Y106.545 E1.02200
G1 X86.847 Y106.452 E1.02893
G1 X87.012 Y106.151 E1.04695
G1 X86.853 Y105.993 E1.05877
G1 X87.083 Y105.758 E1.07606
G1 X86.854 Y105.528 E1.09317
M106 S650
M104 S185 ; set temperature
G1 F1800.000 E0.09317
G92 E0
G1 Z0.950 F7800.000
G1 X87.358 Y105.775
G1 F1800.000 E1.00000
G1 X87.332 Y105.213 F1682.778 E1.05349
G1 X86.978 Y103.988 E1.17471
G1 X86.239 Y102.834 E1.30501
G1 X85.794 Y102.327 E1.36914
G1 X84.644 Y101.448 E1.50669
G1 X84.170 Y100.946 E1.57231
G1 X84.010 Y100.674 E1.60229
G1 X83.712 Y99.777 E1.69211
G1 X83.321 Y99.242 E1.75512
G1 X83.044 Y98.907 E1.79644
G1 X83.218 Y96.913 E1.98671
G1 X83.170 Y96.205 E2.05415
G1 X82.998 Y95.408 E2.13164
G1 X82.948 Y95.027 E2.16817
G1 X82.931 Y94.329 E2.23451
G1 X82.844 Y93.629 E2.30164
G1 X82.734 Y93.133 E2.34985
G1 X82.693 Y92.689 E2.39223
G1 X82.712 Y91.953 E2.46230
G1 X83.154 Y90.301 E2.62479
G1 X83.388 Y89.811 E2.67641
G1 X83.541 Y89.556 E2.70468
G1 X84.045 Y89.340 E2.75682
G1 X85.268 Y89.158 E2.87437
G1 X87.737 Y88.130 E3.12861
G1 X87.983 Y88.073 E3.15258
G1 X89.090 Y87.995 E3.25805
G1 X91.353 Y87.689 E3.47515
G1 X92.576 Y87.433 E3.59392
G1 X93.746 Y87.066 E3.71049
G1 X94.481 Y86.921 E3.78171
G1 X95.657 Y86.764 E3.89451
G1 X97.282 Y86.701 E4.04908
G1 X100.140 Y86.486 E4.32147
G1 X101.571 Y86.356 E4.45811
G1 X102.651 Y86.227 E4.56148
G1 X105.651 Y85.959 E4.84772
G1 X107.612 Y85.689 E5.03591
G1 X109.323 Y85.281 E5.20317
G1 X107.752 Y94.223 E6.06619
G1 X106.510 Y100.877 E6.70959
G1 X105.864 Y104.797 E7.08731
G1 X105.049 Y109.931 E7.58143
G1 X103.426 Y110.564 E7.74701
G1 X103.169 Y110.725 E7.77584
G1 X101.774 Y112.065 E7.95978
G1 X100.884 Y113.168 E8.09447
G1 X100.376 Y114.082 E8.19389
G1 X99.725 Y114.674 E8.27752
G1 X98.949 Y114.934 E8.35535
G1 X97.684 Y115.050 E8.47611
G1 X96.231 Y115.226 E8.61522
G1 X94.898 Y114.856 E8.74667
G1 X94.570 Y114.786 E8.77853
G1 X93.256 Y114.600 E8.90474
G1 X92.013 Y114.324 E9.02571
G1 X91.005 Y114.018 E9.12585
G1 X90.904 Y113.964 E9.13682
G1 X89.216 Y112.754 E9.33418
G1 X89.157 Y112.691 E9.34238
G1 X88.759 Y112.028 E9.41592
G1 X88.695 Y111.897 E9.42976
G1 X88.398 Y110.921 E9.52675
G1 X87.874 Y108.936 E9.72190
G1 X87.539 Y107.800 E9.83452
G1 X87.369 Y106.998 E9.91240
G1 X87.345 Y106.776 E9.93366
G1 X87.357 Y105.853 E10.02135
G1 F1800.000 E9.02135
G92 E0
G1 X82.665 Y90.119 F7800.000
G1 F1800.000 E1.00000
G1 X82.929 Y89.564 F1682.778 E1.05841
G1 X83.182 Y89.145 E1.10493
G1 X83.907 Y88.834 E1.17989
G1 X85.128 Y88.654 E1.29726
G1 X87.577 Y87.633 E1.54946
G1 X87.908 Y87.558 E1.58172
G1 X89.034 Y87.478 E1.68898
G1 X91.268 Y87.176 E1.90335
G1 X92.444 Y86.930 E2.01756
G1 X93.614 Y86.563 E2.13410
G1 X94.393 Y86.409 E2.20961
G1 X95.604 Y86.247 E2.32567
G1 X97.247 Y86.182 E2.48202
G1 X100.096 Y85.969 E2.75358
G1 X101.515 Y85.840 E2.88904
G1 X102.599 Y85.710 E2.99279
G1 X105.702 Y85.430 E3.28896
G1 X107.506 Y85.180 E3.46209
G1 X109.408 Y84.727 E3.64795
G1 X109.971 Y84.572 E3.70342
G1 X108.528 Y92.848 E4.50201
G1 X107.978 Y95.892 E4.79600
G1 X106.976 Y101.232 E5.31244
G1 X106.377 Y104.880 E5.66388
G1 X105.516 Y110.307 E6.18619
G1 X103.661 Y111.030 E6.37548
G1 X103.491 Y111.137 E6.39459
G1 X102.160 Y112.414 E6.56988
G1 X101.321 Y113.453 E6.69684
G1 X100.788 Y114.410 E6.80100
G1 X99.994 Y115.132 E6.90305
G1 X99.031 Y115.448 E6.99940
G1 X97.738 Y115.567 E7.12278
G1 X96.191 Y115.754 E7.27090
G1 X94.774 Y115.361 E7.41068
G1 X94.479 Y115.298 E7.43933
G1 X92.946 Y115.072 E7.58668
G1 X91.888 Y114.828 E7.68986
G1 X90.802 Y114.499 E7.79769
G1 X90.626 Y114.404 E7.81678
G1 X88.873 Y113.149 E8.02172
G1 X88.740 Y113.005 E8.04033
G1 X88.302 Y112.277 E8.12110
G1 X88.210 Y112.088 E8.14103
G1 X87.900 Y111.067 E8.24253
G1 X87.374 Y109.078 E8.43805
G1 X87.035 Y107.927 E8.55215
G1 X86.856 Y107.081 E8.63437
G1 X86.825 Y106.801 E8.66110
G1 X86.838 Y105.784 E8.75778
G1 X86.816 Y105.299 E8.80397
G1 X86.501 Y104.210 E8.91168
G1 X85.820 Y103.145 E9.03185
G1 X85.439 Y102.710 E9.08681
G1 X84.292 Y101.831 E9.22422
G1 X83.752 Y101.260 E9.29887
G1 X83.535 Y100.890 E9.33965
G1 X83.244 Y100.019 E9.42700
G1 X82.910 Y99.561 E9.48085
G1 X82.506 Y99.071 E9.54119
G1 X82.697 Y96.909 E9.74752
G1 X82.654 Y96.278 E9.80768
G1 X82.485 Y95.497 E9.88364
G1 X82.429 Y95.067 E9.92483
G1 X82.413 Y94.368 E9.99129
G1 X82.331 Y93.717 E10.05363
G1 X82.220 Y93.214 E10.10265
G1 X82.173 Y92.707 E10.15101
G1 X82.195 Y91.876 E10.23008
G1 X82.645 Y90.195 E10.39550
G1 X82.177 Y89.937 F7800.000
G1 X82.471 Y89.318 F1177.945 E10.46070
G1 X82.823 Y88.735 E10.52547
G1 X83.768 Y88.328 E10.62326
G1 X84.988 Y88.150 E10.74044
G1 X87.417 Y87.137 E10.99060
G1 X87.833 Y87.042 E11.03115
G1 X88.977 Y86.961 E11.14021
G1 X91.184 Y86.663 E11.35184
G1 X92.313 Y86.427 E11.46149
G1 X93.482 Y86.059 E11.57799
G1 X94.306 Y85.897 E11.65781
G1 X95.550 Y85.730 E11.77711
G1 X97.212 Y85.664 E11.93524
G1 X100.052 Y85.451 E12.20597
G1 X101.459 Y85.323 E12.34026
G1 X102.547 Y85.193 E12.44439
G1 X105.547 Y84.925 E12.73074
G1 X107.265 Y84.693 E12.89556
G1 X109.257 Y84.228 E13.08994
G1 X110.622 Y83.862 E13.22431
G1 X109.039 Y92.941 E14.10033
G1 X108.489 Y95.986 E14.39446
G1 X107.488 Y101.320 E14.91032
G1 X106.890 Y104.962 E15.26125
G1 X105.968 Y110.779 E15.82101
G1 X105.649 Y110.813 E15.85153
G1 X103.896 Y111.496 E16.03042
G1 X103.812 Y111.549 E16.03980
G1 X102.547 Y112.762 E16.20643
G1 X101.759 Y113.738 E16.32567
G1 X101.200 Y114.738 E16.43456
G1 X100.262 Y115.590 E16.55503
G1 X99.111 Y115.962 E16.67002
G1 X97.792 Y116.084 E16.79592
G1 X96.151 Y116.282 E16.95308
G1 X94.650 Y115.866 E17.10114
G1 X94.388 Y115.810 E17.12659
G1 X92.841 Y115.581 E17.27526
G1 X91.487 Y115.259 E17.40758
G1 X90.600 Y114.980 E17.49598
G1 X90.347 Y114.844 E17.52319
G1 X88.530 Y113.543 E17.73572
G1 X88.322 Y113.319 E17.76473
G1 X87.845 Y112.525 E17.85274
G1 X87.725 Y112.280 E17.87877
G1 X87.278 Y110.777 E18.02780
G1 X86.874 Y109.220 E18.18065
G1 X86.531 Y108.054 E18.29623
G1 X86.342 Y107.163 E18.38279
G1 X86.305 Y106.826 E18.41500
G1 X86.318 Y105.793 E18.51326
G1 X86.299 Y105.384 E18.55215
G1 X86.024 Y104.432 E18.64636
G1 X85.402 Y103.456 E18.75639
G1 X85.084 Y103.094 E18.80218
G1 X83.939 Y102.214 E18.93946
G1 X83.334 Y101.574 E19.02313
G1 X83.059 Y101.107 E19.07471
G1 X82.777 Y100.260 E19.15959
G1 X82.500 Y99.880 E19.20427
G1 X81.976 Y99.245 E19.28254
G1 X82.176 Y96.906 E19.50571
G1 X82.138 Y96.350 E19.55860
G1 X81.973 Y95.585 E19.63302
G1 X81.911 Y95.107 E19.67886
G1 X81.894 Y94.407 E19.74545
G1 X81.818 Y93.806 E19.80301
G1 X81.705 Y93.294 E19.85284
G1 X81.653 Y92.725 E19.90717
G1 X81.678 Y91.799 E19.99524
G1 X82.156 Y90.013 E20.17100
G1 X82.691 Y89.865 F7800.000
G1 X83.824 Y89.844
G1 X83.781 Y89.887 F3365.557 E20.17676
G1 X83.339 Y91.066 E20.29679
G1 X84.796 Y89.609 E20.49318
G1 X85.796 Y89.346 E20.59172
G1 X83.086 Y92.056 E20.95702
G1 X83.082 Y92.798 E21.02774
G1 X87.059 Y88.820 E21.56399
G1 X87.701 Y88.916 E21.62579
G1 X83.186 Y93.431 E22.23446
G1 X83.279 Y94.074 E22.29645
G1 X87.541 Y89.813 E22.87095
G1 X87.457 Y90.634 E22.94961
G1 X83.319 Y94.772 E23.50744
G1 X83.390 Y95.438 E23.57130
G1 X88.084 Y90.744 E24.20411
G1 X88.711 Y90.854 E24.26479
G1 X83.520 Y96.044 E24.96448
G1 X83.582 Y96.719 E25.02911
G1 X89.337 Y90.964 E25.80500
G1 X89.300 Y91.739 E25.87895
G1 X83.546 Y97.493 E26.65465
G1 X83.476 Y98.299 E26.73184
G1 X89.146 Y92.629 E27.49621
G1 X88.992 Y93.520 E27.58237
G1 X83.565 Y98.947 E28.31396
G1 X83.880 Y99.369 E28.36417
G1 X88.838 Y94.411 E29.03261
G1 X88.685 Y95.301 E29.11878
G1 X84.134 Y99.852 E29.73229
G1 X84.318 Y100.405 E29.78784
G1 X88.531 Y96.192 E30.35582
G1 X88.377 Y97.083 E30.44198
G1 X84.604 Y100.856 E30.95067
G1 X84.972 Y101.225 E31.00035
G1 X88.223 Y97.974 E31.43864
G1 X88.069 Y98.864 E31.52481
G1 X85.390 Y101.544 E31.88604
G1 X85.808 Y101.863 E31.93616
G1 X87.916 Y99.755 E32.22034
G1 X87.762 Y100.646 E32.30651
G1 X86.195 Y102.213 E32.51776
G1 X86.539 Y102.605 E32.56754
G1 X87.608 Y101.536 E32.71163
G1 X87.454 Y102.427 E32.79779
G1 X86.828 Y103.054 E32.88231
G1 X87.115 Y103.503 E32.93317
G1 X87.301 Y103.318 E32.95816
G1 F1800.000 E31.95816
G92 E0
G1 X88.382 Y88.423 F7800.000
G1 F1800.000 E1.00000
M106 S650
G1 X88.015 Y90.494 F3600.000 E1.18893
G1 X88.557 Y90.590 E1.23831
G1 X88.948 Y88.383 E1.43958
G1 X89.518 Y88.317 E1.49111
G1 X89.099 Y90.685 E1.70700
G1 X89.640 Y90.780 E1.75639
G1 X90.090 Y88.240 E1.98800
G1 X90.662 Y88.163 E2.03985
G1 X87.674 Y105.042 E3.57913
G1 X87.826 Y107.339 E3.78583
G1 X91.234 Y88.085 E5.54162
G1 X91.812 Y87.978 E5.59437
G1 X88.164 Y108.588 E7.47383
G1 X88.501 Y109.837 E7.59000
G1 X92.392 Y87.856 E9.59443
G1 X92.978 Y87.702 E9.64884
G1 X88.840 Y111.079 E11.78066
G1 X89.225 Y112.062 E11.87538
G1 X93.569 Y87.517 E14.11366
G1 X94.154 Y87.370 E14.16778
G1 X89.683 Y112.626 E16.47093
G1 X90.179 Y112.981 E16.52569
G1 X94.730 Y87.268 E18.87054
G1 X95.302 Y87.191 E18.92237
G1 X90.675 Y113.336 E21.30660
G1 X91.173 Y113.676 E21.36074
G1 X95.872 Y87.132 E23.78131
G1 X96.434 Y87.110 E23.83185
G1 X91.703 Y113.837 E26.26907
G1 X92.235 Y113.988 E26.31872
G1 X96.996 Y87.088 E28.77169
G1 X97.560 Y87.058 E28.82241
G1 X92.773 Y114.107 E31.28909
G1 X93.310 Y114.226 E31.33852
G1 X98.126 Y87.015 E33.81993
G1 X98.692 Y86.973 E33.87090
G1 X93.855 Y114.304 E36.36324
G1 X94.400 Y114.381 E36.41266
G1 X99.258 Y86.931 E38.91588
G1 X99.824 Y86.889 E38.96685
G1 X94.941 Y114.480 E41.48293
G1 X95.474 Y114.625 E41.53252
G1 X100.392 Y86.840 E44.06629
G1 X100.959 Y86.790 E44.11744
G1 X96.006 Y114.773 E46.66922
G1 X96.559 Y114.807 E46.71893
G1 X101.527 Y86.736 E49.27870
G1 X102.097 Y86.670 E49.33025
G1 X97.129 Y114.738 E51.88976
G1 X97.700 Y114.670 E51.94134
G1 X102.667 Y86.604 E54.50074
G1 X103.235 Y86.553 E54.55192
G1 X98.268 Y114.618 E57.11124
G1 X98.835 Y114.566 E57.16244
G1 X103.803 Y86.502 E59.72162
G1 X104.370 Y86.452 E59.77278
G1 X99.427 Y114.377 E62.31931
G1 X100.081 Y113.838 E62.39538
G1 X104.938 Y86.401 E64.89742
G1 X105.505 Y86.350 E64.94859
G1 X100.859 Y112.600 E67.34233
G1 X101.570 Y111.740 E67.44253
G1 X106.076 Y86.280 E69.76421
G1 X106.649 Y86.201 E69.81610
G1 X102.243 Y111.093 E72.08602
G1 X102.916 Y110.447 E72.16982
G1 X107.221 Y86.122 E74.38799
G1 X107.796 Y86.032 E74.44021
G1 X103.532 Y110.118 E76.63665
G1 X104.132 Y109.884 E76.69447
G1 X108.379 Y85.893 E78.88226
M106 S600
G1 F1800.000 E77.88226
M106 S600
G92 E0
G1 Z1.350 F7800.000
G1 X107.886 Y85.642
G1 F1800.000 E1.00000
