; generated by Slic3r 0.9.10b on 2014-02-13 at 16:54:43

; layer_height = 0.35
; perimeters = 3
; top_solid_layers = 3
; bottom_solid_layers = 3
; fill_density = 0.2
; perimeter_speed = 30
; infill_speed = 60
; travel_speed = 130
; nozzle_diameter = 0.35
; filament_diameter = 1.75
; extrusion_multiplier = 1.1
; perimeters extrusion width = 0.37mm
; infill extrusion width = 0.37mm
; solid infill extrusion width = 0.37mm
; top infill extrusion width = 0.37mm
; first layer extrusion width = 0.70mm

G21 ; set units to millimeters
M107
M104 S185 ; set temperature
G28 ; home all axes
G1 Z5 F5000 ; lift nozzle
M109 S185 ; wait for temperature to be reached
G90 ; use absolute coordinates
G92 E0
M82 ; use absolute distances for extrusion
G1 F1800.000 E-1.00000
G92 E0
G1 Z0.450 F7800.000
G1 X75.320 Y75.320
G1 F1800.000 E1.00000
G1 X76.320 Y74.490 F540.000 E1.12999
G1 X77.460 Y73.880 E1.25931
G1 X78.710 Y73.500 E1.38999
G1 X80.000 Y73.380 E1.51957
G1 X120.000 Y73.380 E5.52048
G1 X121.290 Y73.500 E5.65006
G1 X122.540 Y73.880 E5.78074
G1 X123.680 Y74.490 E5.91006
G1 X124.680 Y75.320 E6.04005
G1 X125.510 Y76.320 E6.17004
G1 X126.120 Y77.460 E6.29936
G1 X126.500 Y78.710 E6.43004
G1 X126.620 Y80.000 E6.55962
G1 X126.620 Y120.000 E10.56053
G1 X126.500 Y121.290 E10.69011
G1 X126.120 Y122.540 E10.82079
G1 X125.510 Y123.680 E10.95011
G1 X124.680 Y124.680 E11.08010
G1 X123.680 Y125.510 E11.21009
G1 X122.540 Y126.120 E11.33941
G1 X121.290 Y126.500 E11.47009
G1 X120.000 Y126.620 E11.59968
G1 X80.000 Y126.620 E15.60058
G1 X78.710 Y126.500 E15.73016
G1 X77.460 Y126.120 E15.86084
G1 X76.320 Y125.510 E15.99016
G1 X75.320 Y124.680 E16.12015
G1 X74.490 Y123.680 E16.25014
G1 X73.880 Y122.540 E16.37946
G1 X73.500 Y121.290 E16.51014
G1 X73.380 Y120.000 E16.63973
G1 X73.380 Y80.000 E20.64063
G1 X73.500 Y78.710 E20.77021
G1 X73.880 Y77.460 E20.90089
G1 X74.490 Y76.320 E21.03021
G1 X75.260 Y75.392 E21.15083
G1 X76.320 Y74.490 F7800.000 E20.74934
G1 X77.460 Y73.880 E20.37638
G1 X78.208 Y73.653 E20.15083
G92 E0
G1 X81.562 Y81.562
G1 F1800.000 E1.00000
G1 X118.438 Y81.562 F540.000 E4.68839
G1 X118.438 Y118.438 E8.37677
G1 X81.562 Y118.438 E12.06516
G1 X81.562 Y81.656 E15.74417
G1 X85.029 Y81.647 F7800.000 E14.74417
G92 E0
G1 X80.937 Y119.063
G1 F1800.000 E1.00000
G1 X80.937 Y80.937 F540.000 E4.81339
G1 X119.063 Y80.937 E8.62679
G1 X119.063 Y119.063 E12.44018
G1 X81.031 Y119.063 E16.24420
G1 X80.312 Y119.688 F7800.000
G1 X80.312 Y80.312 F378.000 E20.18259
G1 X119.688 Y80.312 E24.12099
G1 X119.688 Y119.688 E28.05939
G1 X80.406 Y119.688 E31.98841
G1 X80.625 Y119.146 F7800.000
G1 X80.597 Y115.680 E30.98841
G92 E0
G1 X82.630 Y117.985
G1 F1800.000 E1.00000
G1 X82.015 Y117.370 F1080.000 E1.08692
G1 X82.015 Y116.487 E1.17535
G1 X83.513 Y117.985 E1.38732
G1 X84.397 Y117.985 E1.47574
G1 X82.015 Y115.603 E1.81276
G1 X82.015 Y114.719 E1.90119
G1 X85.281 Y117.985 E2.36326
G1 X86.165 Y117.985 E2.45168
G1 X82.015 Y113.835 E3.03881
G1 X82.015 Y112.951 E3.12723
G1 X87.049 Y117.985 E3.83940
G1 X87.933 Y117.985 E3.92783
G1 X82.015 Y112.067 E4.76505
G1 X82.015 Y111.183 E4.85348
G1 X88.817 Y117.985 E5.81575
G1 X89.701 Y117.985 E5.90417
G1 X82.015 Y110.299 E6.99150
G1 X82.015 Y109.416 E7.07992
G1 X90.584 Y117.985 E8.29230
G1 X91.468 Y117.985 E8.38072
G1 X82.015 Y108.532 E9.71815
G1 X82.015 Y107.648 E9.80657
G1 X92.352 Y117.985 E11.26905
G1 X93.236 Y117.985 E11.35747
G1 X82.015 Y106.764 E12.94500
G1 X82.015 Y105.880 E13.03342
G1 X94.120 Y117.985 E14.74600
G1 X95.004 Y117.985 E14.83442
G1 X82.015 Y104.996 E16.67205
G1 X82.015 Y104.112 E16.76048
G1 X95.888 Y117.985 E18.72315
G1 X96.772 Y117.985 E18.81158
G1 X82.015 Y103.228 E20.89931
G1 X82.015 Y102.344 E20.98773
G1 X97.656 Y117.985 E23.20051
G1 X98.539 Y117.985 E23.28893
G1 X82.015 Y101.461 E25.62676
G1 X82.015 Y100.577 E25.71519
G1 X99.423 Y117.985 E28.17807
G1 X100.307 Y117.985 E28.26649
G1 X82.015 Y99.693 E30.85442
G1 X82.015 Y98.809 E30.94284
G1 X101.191 Y117.985 E33.65582
G1 X102.075 Y117.985 E33.74425
G1 X82.015 Y97.925 E36.58228
G1 X82.015 Y97.041 E36.67070
G1 X102.959 Y117.985 E39.63378
G1 X103.843 Y117.985 E39.72221
G1 X82.015 Y96.157 E42.81034
G1 X82.015 Y95.273 E42.89876
G1 X104.727 Y117.985 E46.11195
G1 X105.611 Y117.985 E46.20037
G1 X82.015 Y94.389 E49.53860
G1 X82.015 Y93.506 E49.62703
G1 X106.494 Y117.985 E53.09031
G1 X107.378 Y117.985 E53.17874
G1 X82.015 Y92.622 E56.76707
G1 X82.015 Y91.738 E56.85549
G1 X108.262 Y117.985 E60.56888
G1 X109.146 Y117.985 E60.65730
G1 X82.015 Y90.854 E64.49574
G1 X82.015 Y89.970 E64.58416
G1 X110.030 Y117.985 E68.54765
G1 X110.914 Y117.985 E68.63607
G1 X82.015 Y89.086 E72.72460
G1 X82.015 Y88.202 E72.81303
G1 X111.798 Y117.985 E77.02661
G1 X112.682 Y117.985 E77.11504
G1 X82.015 Y87.318 E81.45368
G1 X82.015 Y86.435 E81.54210
G1 X113.565 Y117.985 E86.00579
G1 X114.449 Y117.985 E86.09421
G1 X82.015 Y85.551 E90.68295
G1 X82.015 Y84.667 E90.77137
G1 X115.333 Y117.985 E95.48516
G1 X116.217 Y117.985 E95.57358
G1 X82.015 Y83.783 E100.41242
G1 X82.015 Y82.899 E100.50085
G1 X117.101 Y117.985 E105.46473
G1 X117.985 Y117.985 E105.55316
G1 X82.015 Y82.015 E110.64209
G1 X82.899 Y82.015 E110.73051
G1 X117.985 Y117.101 E115.69439
G1 X117.985 Y116.217 E115.78281
G1 X83.783 Y82.015 E120.62164
G1 X84.667 Y82.015 E120.71007
G1 X117.985 Y115.333 E125.42384
G1 X117.985 Y114.449 E125.51227
G1 X85.551 Y82.015 E130.10100
G1 X86.435 Y82.015 E130.18942
G1 X117.985 Y113.565 E134.65310
G1 X117.985 Y112.682 E134.74152
G1 X87.318 Y82.015 E139.08015
G1 X88.202 Y82.015 E139.16857
G1 X117.985 Y111.798 E143.38215
G1 X117.985 Y110.914 E143.47057
G1 X89.086 Y82.015 E147.55910
G1 X89.970 Y82.015 E147.64753
G1 X117.985 Y110.030 E151.61100
G1 X117.985 Y109.146 E151.69942
G1 X90.854 Y82.015 E155.53785
G1 X91.738 Y82.015 E155.62627
G1 X117.985 Y108.262 E159.33965
G1 X117.985 Y107.378 E159.42807
G1 X92.622 Y82.015 E163.01640
G1 X93.506 Y82.015 E163.10482
G1 X117.985 Y106.494 E166.56810
G1 X117.985 Y105.610 E166.65652
G1 X94.390 Y82.015 E169.99474
G1 X95.273 Y82.015 E170.08317
G1 X117.985 Y104.727 E173.29634
G1 X117.985 Y103.843 E173.38476
G1 X96.157 Y82.015 E176.47289
G1 X97.041 Y82.015 E176.56131
G1 X117.985 Y102.959 E179.52438
G1 X117.985 Y102.075 E179.61281
G1 X97.925 Y82.015 E182.45083
G1 X98.809 Y82.015 E182.53925
G1 X117.985 Y101.191 E185.25222
G1 X117.985 Y100.307 E185.34065
G1 X99.693 Y82.015 E187.92857
G1 X100.577 Y82.015 E188.01699
G1 X117.985 Y99.423 E190.47986
G1 X117.985 Y98.539 E190.56829
G1 X101.461 Y82.015 E192.90611
G1 X102.345 Y82.015 E192.99453
G1 X117.985 Y97.655 E195.20730
G1 X117.985 Y96.772 E195.29573
G1 X103.228 Y82.015 E197.38344
G1 X104.112 Y82.015 E197.47187
G1 X117.985 Y95.888 E199.43454
G1 X117.985 Y95.004 E199.52296
G1 X104.996 Y82.015 E201.36058
G1 X105.880 Y82.015 E201.44900
G1 X117.985 Y94.120 E203.16157
G1 X117.985 Y93.236 E203.25000
G1 X106.764 Y82.015 E204.83751
G1 X107.648 Y82.015 E204.92594
G1 X117.985 Y92.352 E206.38840
G1 X117.985 Y91.468 E206.47683
G1 X108.532 Y82.015 E207.81424
G1 X109.416 Y82.015 E207.90267
G1 X117.985 Y90.584 E209.11503
G1 X117.985 Y89.701 E209.20346
G1 X110.299 Y82.015 E210.29077
G1 X111.183 Y82.015 E210.37920
G1 X117.985 Y88.817 E211.34146
G1 X117.985 Y87.933 E211.42989
G1 X112.067 Y82.015 E212.26710
G1 X112.951 Y82.015 E212.35552
G1 X117.985 Y87.049 E213.06769
G1 X117.985 Y86.165 E213.15611
G1 X113.835 Y82.015 E213.74323
G1 X114.719 Y82.015 E213.83165
G1 X117.985 Y85.281 E214.29371
G1 X117.985 Y84.397 E214.38214
G1 X115.603 Y82.015 E214.71915
G1 X116.487 Y82.015 E214.80757
G1 X117.985 Y83.513 E215.01954
G1 X117.985 Y82.629 E215.10796
G1 X117.371 Y82.015 E215.19487
M104 S195 ; set temperature
G1 X117.985 Y82.629 F7800.000 E214.94427
G1 X117.985 Y83.513 E214.68930
G1 X116.773 Y82.301 E214.19487
G92 E0
G1 Z0.800
G1 X119.091 Y80.909
G1 F1800.000 E1.00000
G1 X119.091 Y119.091 F1800.000 E3.22301
G1 X80.909 Y119.091 E5.44602
G1 X80.909 Y80.909 E7.66903
G1 X119.036 Y80.909 E9.88887
G1 X119.041 Y84.376 F7800.000 E8.88887
G92 E0
G1 X119.454 Y119.454
G1 F1800.000 E1.00000
G1 X80.546 Y119.454 F1800.000 E3.26537
G1 X80.546 Y80.546 E5.53073
G1 X119.454 Y80.546 E7.79610
G1 X119.454 Y119.400 E10.05829
G1 X119.818 Y119.818 F7800.000
G1 X80.182 Y119.818 F1260.000 E12.36602
G1 X80.182 Y80.182 E14.67374
G1 X119.818 Y80.182 E16.98146
G1 X119.818 Y119.764 E19.28601
G1 X119.503 Y119.636 F7800.000
G1 X116.036 Y119.652 E18.28601
G92 E0
G1 X118.827 Y118.664
G1 F1800.000 E1.00000
G1 X118.664 Y118.827 F3600.000 E1.01348
G1 X118.147 Y118.827 E1.04368
G1 X118.827 Y118.147 E1.09988
G1 X118.827 Y117.631 E1.13008
G1 X117.631 Y118.827 E1.22900
G1 X117.114 Y118.827 E1.25921
G1 X118.827 Y117.114 E1.40084
G1 X118.827 Y116.598 E1.43104
G1 X116.598 Y118.827 E1.61540
G1 X116.081 Y118.827 E1.64560
G1 X118.827 Y116.081 E1.87267
G1 X118.827 Y115.564 E1.90288
G1 X115.564 Y118.827 E2.17267
G1 X115.048 Y118.827 E2.20287
G1 X118.827 Y115.048 E2.51538
G1 X118.827 Y114.531 E2.54559
G1 X114.531 Y118.827 E2.90081
G1 X114.015 Y118.827 E2.93102
G1 X118.827 Y114.015 E3.32896
G1 X118.827 Y113.498 E3.35917
G1 X113.498 Y118.827 E3.79983
G1 X112.981 Y118.827 E3.83004
G1 X118.827 Y112.981 E4.31342
G1 X118.827 Y112.465 E4.34363
G1 X112.465 Y118.827 E4.86973
G1 X111.948 Y118.827 E4.89994
G1 X118.827 Y111.948 E5.46876
G1 X118.827 Y111.432 E5.49896
G1 X111.432 Y118.827 E6.11050
G1 X110.915 Y118.827 E6.14071
G1 X118.827 Y110.915 E6.79496
G1 X118.827 Y110.398 E6.82517
G1 X110.398 Y118.827 E7.52214
G1 X109.882 Y118.827 E7.55235
G1 X118.827 Y109.882 E8.29204
G1 X118.827 Y109.365 E8.32225
G1 X109.365 Y118.827 E9.10466
G1 X108.849 Y118.827 E9.13487
G1 X118.827 Y108.849 E9.96000
G1 X118.827 Y108.332 E9.99021
G1 X108.332 Y118.827 E10.85806
G1 X107.815 Y118.827 E10.88826
G1 X118.827 Y107.815 E11.79883
G1 X118.827 Y107.299 E11.82904
G1 X107.299 Y118.827 E12.78233
G1 X106.782 Y118.827 E12.81253
G1 X118.827 Y106.782 E13.80854
G1 X118.827 Y106.265 E13.83874
G1 X106.265 Y118.827 E14.87747
G1 X105.749 Y118.827 E14.90768
G1 X118.827 Y105.749 E15.98912
G1 X118.827 Y105.232 E16.01932
G1 X105.232 Y118.827 E17.14349
G1 X104.716 Y118.827 E17.17369
G1 X118.827 Y104.716 E18.34057
G1 X118.827 Y104.199 E18.37078
G1 X104.199 Y118.827 E19.58038
G1 X103.682 Y118.827 E19.61059
G1 X118.827 Y103.682 E20.86290
G1 X118.827 Y103.166 E20.89311
G1 X103.166 Y118.827 E22.18815
G1 X102.649 Y118.827 E22.21835
G1 X118.827 Y102.649 E23.55611
G1 X118.827 Y102.133 E23.58631
G1 X102.133 Y118.827 E24.96679
G1 X101.616 Y118.827 E24.99699
G1 X118.827 Y101.616 E26.42019
G1 X118.827 Y101.099 E26.45039
G1 X101.099 Y118.827 E27.91630
G1 X100.583 Y118.827 E27.94651
G1 X118.827 Y100.583 E29.45514
G1 X118.827 Y100.066 E29.48535
G1 X100.066 Y118.827 E31.03669
G1 X99.550 Y118.827 E31.06690
G1 X118.827 Y99.550 E32.66097
G1 X118.827 Y99.033 E32.69117
G1 X99.033 Y118.827 E34.32796
G1 X98.516 Y118.827 E34.35817
G1 X118.827 Y98.516 E36.03767
G1 X118.827 Y98.000 E36.06788
G1 X98.000 Y118.827 E37.79010
G1 X97.483 Y118.827 E37.82031
G1 X118.827 Y97.483 E39.58525
G1 X118.827 Y96.967 E39.61545
G1 X96.967 Y118.827 E41.42311
G1 X96.450 Y118.827 E41.45332
G1 X118.827 Y96.450 E43.30370
G1 X118.827 Y95.933 E43.33391
G1 X95.933 Y118.827 E45.22700
G1 X95.417 Y118.827 E45.25721
G1 X118.827 Y95.417 E47.19303
G1 X118.827 Y94.900 E47.22323
G1 X94.900 Y118.827 E49.20177
G1 X94.383 Y118.827 E49.23197
G1 X118.827 Y94.383 E51.25323
G1 X118.827 Y93.867 E51.28343
G1 X93.867 Y118.827 E53.34741
G1 X93.350 Y118.827 E53.37761
G1 X118.827 Y93.350 E55.48430
G1 X118.827 Y92.834 E55.51451
G1 X92.834 Y118.827 E57.66392
G1 X92.317 Y118.827 E57.69413
G1 X118.827 Y92.317 E59.88625
G1 X118.827 Y91.800 E59.91646
G1 X91.800 Y118.827 E62.15131
G1 X91.284 Y118.827 E62.18151
G1 X118.827 Y91.284 E64.45908
G1 X118.827 Y90.767 E64.48929
G1 X90.767 Y118.827 E66.80957
G1 X90.251 Y118.827 E66.83978
G1 X118.827 Y90.251 E69.20278
G1 X118.827 Y89.734 E69.23299
G1 X89.734 Y118.827 E71.63871
G1 X89.217 Y118.827 E71.66891
G1 X118.827 Y89.217 E74.11735
G1 X118.827 Y88.701 E74.14756
G1 X88.701 Y118.827 E76.63872
G1 X88.184 Y118.827 E76.66893
G1 X118.827 Y88.184 E79.20280
G1 X118.827 Y87.668 E79.23301
G1 X87.668 Y118.827 E81.80960
G1 X87.151 Y118.827 E81.83981
G1 X118.827 Y87.151 E84.45913
G1 X118.827 Y86.634 E84.48933
G1 X86.634 Y118.827 E87.15137
G1 X86.118 Y118.827 E87.18157
G1 X118.827 Y86.118 E89.88632
G1 X118.827 Y85.601 E89.91653
G1 X85.601 Y118.827 E92.66400
G1 X85.085 Y118.827 E92.69421
G1 X118.827 Y85.085 E95.48440
G1 X118.827 Y84.568 E95.51460
G1 X84.568 Y118.827 E98.34751
G1 X84.051 Y118.827 E98.37772
G1 X118.827 Y84.051 E101.25334
G1 X118.827 Y83.535 E101.28355
G1 X83.535 Y118.827 E104.20190
G1 X83.018 Y118.827 E104.23210
G1 X118.827 Y83.018 E107.19317
G1 X118.827 Y82.501 E107.22337
G1 X82.501 Y118.827 E110.22716
G1 X81.985 Y118.827 E110.25736
G1 X118.827 Y81.985 E113.30386
G1 X118.827 Y81.468 E113.33407
G1 X81.468 Y118.827 E116.42329
G1 X81.173 Y118.606 E116.44487
G1 X118.606 Y81.173 E119.54021
G1 X118.089 Y81.173 E119.57041
G1 X81.173 Y118.089 E122.62303
G1 X81.173 Y117.573 E122.65324
G1 X117.573 Y81.173 E125.66314
G1 X117.056 Y81.173 E125.69335
G1 X81.173 Y117.056 E128.66053
G1 X81.173 Y116.539 E128.69074
G1 X116.539 Y81.173 E131.61521
G1 X116.023 Y81.173 E131.64541
G1 X81.173 Y116.023 E134.52716
G1 X81.173 Y115.506 E134.55737
G1 X115.506 Y81.173 E137.39639
G1 X114.989 Y81.173 E137.42660
G1 X81.173 Y114.989 E140.22291
G1 X81.173 Y114.473 E140.25312
G1 X114.473 Y81.173 E143.00671
G1 X113.956 Y81.173 E143.03691
G1 X81.173 Y113.956 E145.74779
G1 X81.173 Y113.440 E145.77799
G1 X113.440 Y81.173 E148.44615
G1 X112.923 Y81.173 E148.47635
G1 X81.173 Y112.923 E151.10179
G1 X81.173 Y112.406 E151.13199
G1 X112.406 Y81.173 E153.71471
G1 X111.890 Y81.173 E153.74492
G1 X81.173 Y111.890 E156.28491
G1 X81.173 Y111.373 E156.31512
G1 X111.373 Y81.173 E158.81240
G1 X110.857 Y81.173 E158.84261
G1 X81.173 Y110.857 E161.29717
G1 X81.173 Y110.340 E161.32737
G1 X110.340 Y81.173 E163.73922
G1 X109.823 Y81.173 E163.76942
G1 X81.173 Y109.823 E166.13854
G1 X81.173 Y109.307 E166.16875
G1 X109.307 Y81.173 E168.49516
G1 X108.790 Y81.173 E168.52536
G1 X81.173 Y108.790 E170.80905
G1 X81.173 Y108.274 E170.83925
G1 X108.274 Y81.173 E173.08022
G1 X107.757 Y81.173 E173.11043
G1 X81.173 Y107.757 E175.30868
G1 X81.173 Y107.240 E175.33888
G1 X107.240 Y81.173 E177.49441
G1 X106.724 Y81.173 E177.52462
G1 X81.173 Y106.724 E179.63743
G1 X81.173 Y106.207 E179.66764
G1 X106.207 Y81.173 E181.73773
G1 X105.691 Y81.173 E181.76793
G1 X81.173 Y105.691 E183.79531
G1 X81.173 Y105.174 E183.82551
G1 X105.174 Y81.173 E185.81017
G1 X104.657 Y81.173 E185.84038
G1 X81.173 Y104.657 E187.78231
G1 X81.173 Y104.141 E187.81252
G1 X104.141 Y81.173 E189.71174
G1 X103.624 Y81.173 E189.74194
G1 X81.173 Y103.624 E191.59844
G1 X81.173 Y103.107 E191.62865
G1 X103.107 Y81.173 E193.44243
G1 X102.591 Y81.173 E193.47264
G1 X81.173 Y102.591 E195.24370
G1 X81.173 Y102.074 E195.27390
G1 X102.074 Y81.173 E197.00225
G1 X101.558 Y81.173 E197.03245
G1 X81.173 Y101.558 E198.71808
G1 X81.173 Y101.041 E198.74828
G1 X101.041 Y81.173 E200.39119
G1 X100.524 Y81.173 E200.42140
G1 X81.173 Y100.524 E202.02158
G1 X81.173 Y100.008 E202.05179
G1 X100.008 Y81.173 E203.60926
G1 X99.491 Y81.173 E203.63946
G1 X81.173 Y99.491 E205.15421
G1 X81.173 Y98.975 E205.18442
G1 X98.975 Y81.173 E206.65645
G1 X98.458 Y81.173 E206.68666
G1 X81.173 Y98.458 E208.11597
G1 X81.173 Y97.941 E208.14618
G1 X97.941 Y81.173 E209.53277
G1 X97.425 Y81.173 E209.56298
G1 X81.173 Y97.425 E210.90685
G1 X81.173 Y96.908 E210.93706
G1 X96.908 Y81.173 E212.23822
G1 X96.392 Y81.173 E212.26842
G1 X81.173 Y96.392 E213.52686
G1 X81.173 Y95.875 E213.55707
G1 X95.875 Y81.173 E214.77279
G1 X95.358 Y81.173 E214.80299
G1 X81.173 Y95.358 E215.97599
G1 X81.173 Y94.842 E216.00620
G1 X94.842 Y81.173 E217.13648
G1 X94.325 Y81.173 E217.16669
G1 X81.173 Y94.325 E218.25425
G1 X81.173 Y93.809 E218.28446
G1 X93.809 Y81.173 E219.32930
G1 X93.292 Y81.173 E219.35951
G1 X81.173 Y93.292 E220.36163
G1 X81.173 Y92.775 E220.39184
G1 X92.775 Y81.173 E221.35125
G1 X92.259 Y81.173 E221.38146
G1 X81.173 Y92.259 E222.29814
G1 X81.173 Y91.742 E222.32835
