; generated by Slic3r 0.9.10b on 2014-01-20 at 01:18:57

; layer_height = 0.4
; perimeters = 5
; top_solid_layers = 3
; bottom_solid_layers = 3
; fill_density = 0.4
; perimeter_speed = 30
; infill_speed = 60
; travel_speed = 130
; nozzle_diameter = 0.5
; filament_diameter = 1.75
; extrusion_multiplier = 0.98
; perimeters extrusion width = 0.53mm
; infill extrusion width = 0.53mm
; solid infill extrusion width = 0.53mm
; top infill extrusion width = 0.53mm
; first layer extrusion width = 0.70mm

G21 ; set units to millimeters
M107
M104 S195 ; set temperature
G28 ; home all axes
G1 Z5 F5000 ; lift nozzle
M109 S195 ; wait for temperature to be reached
G90 ; use absolute coordinates
G92 E0
M82 ; use absolute distances for extrusion
G1 F1800.000 E-1.00000
G92 E0
G1 Z0.000 F7800.000
G1 X61.630 Y79.580
G1 F1800.000 E1.00000
G1 X62.830 Y78.900 F540.000 E1.12924
G1 X64.130 Y78.480 E1.25725
G1 X65.500 Y78.340 E1.38629
G1 X135.500 Y78.340 E7.94539
G1 X136.800 Y78.470 E8.06781
G1 X138.050 Y78.850 E8.19023
G1 X139.200 Y79.460 E8.31221
G1 X140.210 Y80.290 E8.43470
G1 X141.040 Y81.300 E8.55720
G1 X141.650 Y82.450 E8.67917
G1 X142.030 Y83.700 E8.80159
G1 X142.160 Y85.000 E8.92401
G1 X142.160 Y115.000 E11.73505
G1 X142.030 Y116.300 E11.85747
G1 X141.650 Y117.550 E11.97989
G1 X141.040 Y118.700 E12.10187
G1 X140.210 Y119.710 E12.22437
G1 X139.200 Y120.540 E12.34686
G1 X138.050 Y121.150 E12.46884
G1 X136.800 Y121.530 E12.59126
G1 X135.500 Y121.660 E12.71368
G1 X65.500 Y121.660 E19.27278
G1 X64.100 Y121.510 E19.40471
G1 X62.750 Y121.060 E19.53805
G1 X61.540 Y120.350 E19.66950
G1 X60.500 Y119.390 E19.80212
G1 X59.680 Y118.240 E19.93447
G1 X59.130 Y116.940 E20.06673
G1 X58.870 Y115.550 E20.19924
G1 X57.870 Y103.550 E21.32755
G1 X57.840 Y103.000 E21.37916
G1 X57.840 Y93.000 E22.31618
G1 X57.890 Y92.170 E22.39409
G1 X58.890 Y84.170 E23.14954
G1 X59.200 Y82.840 E23.27750
G1 X59.780 Y81.590 E23.40662
G1 X60.600 Y80.490 E23.53518
G1 X61.556 Y79.645 E23.65473
G1 F1800.000 E22.65473
G92 E0
G1 X74.437 Y93.593 F7800.000
G1 F1800.000 E1.00000
G1 X76.751 Y91.508 F540.000 E1.29187
G1 X79.717 Y90.545 E1.58407
G1 X82.817 Y90.871 E1.87613
G1 X84.929 Y92.090 E2.10468
G1 X85.516 Y92.429 E2.16818
G1 X87.348 Y94.950 E2.46015
G1 X87.996 Y98.000 E2.75234
G1 X87.348 Y101.049 E3.04443
G1 X85.516 Y103.571 E3.33649
G1 X82.816 Y105.129 E3.62858
G1 X79.717 Y105.455 E3.92064
G1 X76.752 Y104.492 E4.21277
G1 X74.435 Y102.406 E4.50487
G1 X73.167 Y99.560 E4.79677
G1 X73.167 Y96.441 E5.08900
G1 X74.396 Y93.683 E5.37199
G1 X74.980 Y93.988 F7800.000
G1 X77.087 Y92.090 F540.000 E5.63774
G1 X79.787 Y91.213 E5.90373
G1 X82.609 Y91.510 E6.16962
G1 X84.601 Y92.659 E6.38510
G1 X85.067 Y92.928 E6.43550
G1 X86.734 Y95.223 E6.70133
G1 X87.325 Y98.000 E6.96732
G1 X86.734 Y100.776 E7.23323
G1 X85.067 Y103.072 E7.49913
G1 X82.609 Y104.491 E7.76504
G1 X79.787 Y104.787 E8.03093
G1 X77.088 Y103.910 E8.29687
G1 X74.979 Y102.011 E8.56280
G1 X73.825 Y99.420 E8.82856
G1 X73.825 Y96.581 E9.09459
G1 X74.940 Y94.078 E9.35137
G1 X75.523 Y94.383 F7800.000
G1 X77.423 Y92.672 F540.000 E9.59099
G1 X79.857 Y91.881 E9.83079
G1 X82.402 Y92.148 E10.07051
G1 X84.272 Y93.228 E10.27290
G1 X84.617 Y93.428 E10.31022
G1 X86.121 Y95.497 E10.54990
G1 X86.653 Y98.000 E10.78969
G1 X86.121 Y100.503 E11.02943
G1 X84.617 Y102.572 E11.26916
G1 X82.401 Y103.852 E11.50890
G1 X79.857 Y104.119 E11.74861
G1 X77.423 Y103.328 E11.98837
G1 X75.522 Y101.616 E12.22812
G1 X74.482 Y99.280 E12.46775
G1 X74.482 Y96.721 E12.70757
G1 X75.483 Y94.473 E12.93815
G1 X76.066 Y94.778 F7800.000
G1 X77.759 Y93.253 F540.000 E13.15164
G1 X79.927 Y92.549 E13.36524
G1 X82.194 Y92.787 E13.57878
G1 X83.944 Y93.797 E13.76810
G1 X84.168 Y93.927 E13.79234
G1 X85.507 Y95.770 E14.00586
G1 X85.981 Y98.000 E14.21946
G1 X85.507 Y100.229 E14.43302
G1 X84.168 Y102.073 E14.64658
G1 X82.194 Y103.213 E14.86014
G1 X79.927 Y103.451 E15.07369
G1 X77.759 Y102.747 E15.28727
G1 X76.066 Y101.222 E15.50083
G1 X75.139 Y99.140 E15.71433
G1 X75.139 Y96.860 E15.92794
G1 X76.026 Y94.868 E16.13232
G1 X76.609 Y95.173 F7800.000
G1 X78.095 Y93.835 F540.000 E16.31968
G1 X79.997 Y93.217 E16.50708
G1 X81.986 Y93.426 E16.69446
G1 X83.615 Y94.366 E16.87069
G1 X83.718 Y94.426 E16.88184
G1 X84.894 Y96.044 E17.06922
G1 X85.309 Y98.000 E17.25662
G1 X84.894 Y99.956 E17.44400
G1 X83.718 Y101.574 E17.63139
G1 X81.986 Y102.574 E17.81878
G1 X79.997 Y102.783 E18.00616
G1 X78.095 Y102.165 E18.19355
G1 X76.609 Y100.827 E18.38094
G1 X75.796 Y99.000 E18.56831
G1 X75.796 Y97.000 E18.75571
G1 X76.569 Y95.263 E18.93388
G1 X77.256 Y95.287 F7800.000
G1 F1800.000 E17.93388
G92 E0
G1 X70.567 Y95.457 F7800.000
G1 F1800.000 E1.00000
G1 X70.567 Y87.957 F540.000 E1.70276
G1 X90.433 Y87.957 E3.56416
G1 X90.433 Y95.457 E4.26692
G1 X90.543 Y95.457 E4.27728
G1 X90.543 Y101.064 E4.80266
G1 X92.543 Y101.064 E4.99007
G1 X92.543 Y104.543 E5.31608
G1 X90.433 Y104.543 E5.51384
G1 X90.433 Y112.043 E6.21660
G1 X70.567 Y112.043 E8.07800
G1 X70.567 Y104.543 E8.78076
G1 X68.457 Y104.543 E8.97852
G1 X68.457 Y101.064 E9.30454
G1 X70.457 Y101.064 E9.49194
G1 X70.469 Y95.457 E10.01732
G1 X69.800 Y95.593 F7800.000
G1 X67.800 Y95.593 F540.000 E10.20473
G1 X67.800 Y94.800 E10.27907
G1 X69.910 Y94.800 E10.47683
G1 X69.910 Y87.300 E11.17959
G1 X91.090 Y87.300 E13.16413
G1 X91.090 Y94.800 E13.86689
G1 X93.200 Y94.800 E14.06465
G1 X93.200 Y95.593 E14.13900
G1 X91.200 Y95.593 E14.32640
G1 X91.200 Y100.407 E14.77744
G1 X93.200 Y100.407 E14.96484
G1 X93.200 Y105.200 E15.41400
G1 X91.090 Y105.200 E15.61175
G1 X91.090 Y112.700 E16.31452
G1 X69.910 Y112.700 E18.29906
G1 X69.910 Y105.200 E19.00182
G1 X67.800 Y105.200 E19.19957
G1 X67.800 Y100.407 E19.64873
G1 X69.800 Y100.407 E19.83613
G1 X69.800 Y95.692 E20.27793
G1 X69.143 Y96.250 F7800.000
G1 X66.143 Y96.250 F540.000 E20.55903
G1 X66.143 Y94.643 E20.70967
G1 X67.143 Y94.643 E20.80337
G1 X67.143 Y94.143 E20.85022
G1 X69.253 Y94.143 E21.04798
G1 X69.253 Y86.643 E21.75074
G1 X91.747 Y86.643 E23.85842
G1 X91.747 Y94.143 E24.56118
G1 X93.857 Y94.143 E24.75894
G1 X93.857 Y94.643 E24.80579
G1 X94.857 Y94.643 E24.89949
G1 X94.857 Y96.250 E25.05013
G1 X91.857 Y96.250 E25.33123
G1 X91.857 Y99.750 E25.65913
G1 X94.857 Y99.750 E25.94023
G1 X94.857 Y101.357 E26.09087
G1 X93.857 Y101.357 E26.18457
G1 X93.857 Y105.857 E26.60623
G1 X91.747 Y105.857 E26.80399
G1 X91.747 Y113.357 E27.50675
G1 X69.253 Y113.357 E29.61443
G1 X69.253 Y105.857 E30.31719
G1 X67.143 Y105.857 E30.51494
G1 X67.143 Y101.357 E30.93660
G1 X66.143 Y101.357 E31.03030
G1 X66.143 Y99.750 E31.18094
G1 X69.143 Y99.750 E31.46204
G1 X69.143 Y96.349 E31.78070
G1 F1800.000 E30.78070
G92 E0
G1 X92.404 Y114.014 F7800.000
G1 F1800.000 E1.00000
G1 X68.596 Y114.014 F540.000 E3.23082
G1 X68.596 Y106.514 E3.93358
G1 X66.486 Y106.514 E4.13134
G1 X66.486 Y102.014 E4.55299
G1 X65.486 Y102.014 E4.64669
G1 X65.486 Y99.093 E4.92047
G1 X68.486 Y99.093 E5.20157
G1 X68.486 Y96.907 E5.40633
G1 X65.486 Y96.907 E5.68743
G1 X65.486 Y93.986 E5.96121
G1 X66.486 Y93.986 E6.05491
G1 X66.486 Y93.486 E6.10176
G1 X68.596 Y93.486 E6.29952
G1 X68.596 Y85.986 E7.00228
G1 X92.404 Y85.986 E9.23310
G1 X92.404 Y93.486 E9.93586
G1 X94.514 Y93.486 E10.13362
G1 X94.514 Y93.986 E10.18047
G1 X95.514 Y93.986 E10.27417
G1 X95.514 Y96.907 E10.54794
G1 X92.514 Y96.907 E10.82905
G1 X92.514 Y99.093 E11.03380
G1 X95.514 Y99.093 E11.31491
G1 X95.514 Y102.014 E11.58868
G1 X94.514 Y102.014 E11.68238
G1 X94.514 Y106.514 E12.10404
G1 X92.404 Y106.514 E12.30180
G1 X92.404 Y113.916 E12.99533
G1 X93.061 Y112.829 F7800.000
G1 X95.171 Y112.829 F378.000 E13.19309
G1 X95.171 Y114.671 E13.36577
G1 X65.829 Y114.671 E16.11524
G1 X65.829 Y112.829 E16.28793
G1 X67.939 Y112.829 E16.48568
G1 X67.939 Y107.171 E17.01576
G1 X65.829 Y107.171 E17.21352
G1 X65.829 Y102.671 E17.63517
G1 X64.829 Y102.671 E17.72888
G1 X64.829 Y98.436 E18.12579
G1 X67.829 Y98.436 E18.40689
G1 X67.829 Y97.564 E18.48851
G1 X64.829 Y97.564 E18.76962
G1 X64.829 Y93.329 E19.16653
G1 X65.829 Y93.329 E19.26023
G1 X65.829 Y92.829 E19.30708
G1 X67.939 Y92.829 E19.50484
G1 X67.939 Y87.171 E20.03491
G1 X65.829 Y87.171 E20.23267
G1 X65.829 Y85.329 E20.40536
G1 X95.171 Y85.329 E23.15483
G1 X95.171 Y87.171 E23.32751
G1 X93.061 Y87.171 E23.52527
G1 X93.061 Y92.829 E24.05535
G1 X95.171 Y92.829 E24.25311
G1 X95.171 Y93.329 E24.29996
G1 X96.171 Y93.329 E24.39366
G1 X96.171 Y97.564 E24.79057
G1 X93.171 Y97.564 E25.07168
G1 X93.171 Y98.436 E25.15330
G1 X96.171 Y98.436 E25.43440
G1 X96.171 Y102.671 E25.83131
G1 X95.171 Y102.671 E25.92502
G1 X95.171 Y107.171 E26.34667
G1 X93.061 Y107.171 E26.54443
G1 X93.061 Y112.730 E27.06527
G1 X93.061 Y113.486 F7800.000
G1 F1800.000 E26.06527
G92 E0
G1 X110.567 Y112.043 F7800.000
G1 F1800.000 E1.00000
G1 X110.567 Y104.543 F540.000 E1.70276
G1 X108.457 Y104.543 E1.90052
G1 X108.457 Y95.457 E2.75192
G1 X110.567 Y95.457 E2.94968
G1 X110.567 Y87.957 E3.65244
G1 X130.433 Y87.957 E5.51384
G1 X130.433 Y95.457 E6.21660
G1 X132.543 Y95.457 E6.41436
G1 X132.543 Y104.543 E7.26576
G1 X130.433 Y104.543 E7.46351
G1 X130.433 Y112.043 E8.16627
G1 X110.666 Y112.043 E10.01844
G1 X109.910 Y112.700 F7800.000
G1 X109.910 Y105.200 F540.000 E10.72120
G1 X107.800 Y105.200 E10.91896
G1 X107.800 Y94.800 E11.89350
G1 X109.910 Y94.800 E12.09126
G1 X109.910 Y87.300 E12.79402
G1 X131.090 Y87.300 E14.77856
G1 X131.090 Y94.800 E15.48132
G1 X133.200 Y94.800 E15.67908
G1 X133.200 Y105.200 E16.65361
G1 X131.090 Y105.200 E16.85137
G1 X131.090 Y112.700 E17.55413
G1 X110.009 Y112.700 E19.52944
G1 X109.253 Y113.357 F7800.000
G1 X109.253 Y105.857 F540.000 E20.23220
G1 X107.143 Y105.857 E20.42996
G1 X107.143 Y94.143 E21.52763
G1 X109.253 Y94.143 E21.72539
G1 X109.253 Y86.643 E22.42815
G1 X131.747 Y86.643 E24.53583
G1 X131.747 Y94.143 E25.23859
G1 X133.857 Y94.143 E25.43635
G1 X133.857 Y105.857 E26.53402
G1 X131.747 Y105.857 E26.73178
G1 X131.747 Y113.357 E27.43454
G1 X109.352 Y113.357 E29.53298
G1 X108.596 Y114.014 F7800.000
G1 X108.596 Y106.514 F540.000 E30.23575
G1 X106.486 Y106.514 E30.43350
G1 X106.486 Y93.486 E31.65432
G1 X108.596 Y93.486 E31.85208
G1 X108.596 Y85.986 E32.55484
G1 X132.404 Y85.986 E34.78566
G1 X132.404 Y93.486 E35.48842
G1 X134.514 Y93.486 E35.68617
G1 X134.514 Y106.514 E36.90699
G1 X132.404 Y106.514 E37.10474
G1 X132.404 Y114.014 E37.80751
G1 X108.695 Y114.014 E40.02909
G1 X107.939 Y112.829 F7800.000
G1 X107.939 Y107.171 F378.000 E40.55916
G1 X105.829 Y107.171 E40.75692
G1 X105.829 Y92.829 E42.10088
G1 X107.939 Y92.829 E42.29863
G1 X107.939 Y87.171 E42.82871
G1 X105.829 Y87.171 E43.02647
G1 X105.829 Y85.329 E43.19915
G1 X135.171 Y85.329 E45.94863
G1 X135.171 Y87.171 E46.12131
G1 X133.061 Y87.171 E46.31907
G1 X133.061 Y92.829 E46.84915
G1 X135.171 Y92.829 E47.04690
G1 X135.171 Y107.171 E48.39086
G1 X133.061 Y107.171 E48.58861
G1 X133.061 Y112.829 E49.11869
G1 X135.171 Y112.829 E49.31645
G1 X135.171 Y114.671 E49.48913
G1 X105.829 Y114.671 E52.23860
G1 X105.829 Y112.829 E52.41129
G1 X107.841 Y112.829 E52.59981
G1 X108.596 Y112.829 F7800.000
G1 F1800.000 E51.59981
G92 E0
G1 X92.067 Y102.714 F7800.000
G1 F1800.000 E1.00000
G1 X90.893 Y101.540 F1080.000 E1.15622
G1 X91.827 Y101.540 E1.24410
G1 X92.067 Y101.780 E1.27604
G1 F1800.000 E0.27604
G92 E0
G1 X89.956 Y95.002 F7800.000
G1 F1800.000 E1.00000
G1 X83.388 Y88.433 F1080.000 E1.87446
G1 X84.321 Y88.433 E1.96234
G1 X89.956 Y94.068 E2.71252
G1 X89.956 Y93.134 E2.80040
G1 X85.255 Y88.433 E3.42629
G1 X86.189 Y88.433 E3.51417
G1 X89.956 Y92.201 E4.01578
G1 X89.956 Y91.267 E4.10366
G1 X87.122 Y88.433 E4.48098
G1 X88.056 Y88.433 E4.56886
G1 X89.956 Y90.334 E4.82190
G1 X89.956 Y89.400 E4.90978
G1 X88.989 Y88.433 E5.03853
G1 X89.923 Y88.433 E5.12641
G1 X89.956 Y88.467 E5.13087
G1 F1800.000 E4.13087
G92 E0
G1 X83.182 Y111.567 F7800.000
G1 F1800.000 E1.00000
G1 X76.539 Y104.924 F1080.000 E1.88442
G1 X77.922 Y105.373 E2.02130
G1 X84.116 Y111.567 E2.84589
G1 X85.050 Y111.567 E2.93378
G1 X79.305 Y105.822 E3.69854
G1 X80.290 Y105.874 E3.79140
G1 X85.983 Y111.567 E4.54930
G1 X86.917 Y111.567 E4.63718
G1 X81.135 Y105.785 E5.40690
G1 X81.980 Y105.696 E5.48686
G1 X87.850 Y111.567 E6.26841
G1 X88.784 Y111.567 E6.35629
G1 X82.824 Y105.607 E7.14966
G1 X83.459 Y105.308 E7.21569
G1 X89.717 Y111.567 E8.04888
G1 X89.956 Y110.872 E8.11803
G1 X84.051 Y104.967 E8.90423
G1 X84.643 Y104.625 E8.96856
G1 X89.956 Y109.939 E9.67597
G1 X89.956 Y109.005 E9.76385
G1 X85.235 Y104.283 E10.39246
G1 X85.826 Y103.942 E10.45680
G1 X89.956 Y108.072 E11.00661
G1 X89.956 Y107.138 E11.09450
G1 X86.224 Y103.406 E11.59132
G1 X86.617 Y102.865 E11.65424
G1 X89.956 Y106.204 E12.09876
G1 X89.956 Y105.271 E12.18665
G1 X87.010 Y102.325 E12.57887
G1 X87.403 Y101.784 E12.64179
G1 X89.956 Y104.337 E12.98171
G1 X90.620 Y104.067 E13.04913
G1 X87.794 Y101.242 E13.42527
G1 X87.958 Y100.472 E13.49936
G1 X91.553 Y104.067 E13.97800
G1 X92.067 Y103.647 E14.04045
G1 X88.122 Y99.702 E14.56570
G1 X88.285 Y98.932 E14.63979
G1 X90.067 Y100.714 E14.87699
G1 X90.067 Y99.780 E14.96487
G1 X88.449 Y98.162 E15.18028
G1 X88.284 Y97.064 E15.28481
G1 X90.067 Y98.846 E15.52213
G1 X90.067 Y97.913 E15.61001
G1 X88.032 Y95.878 E15.88087
G1 X87.669 Y94.582 E16.00763
G1 X90.067 Y96.979 E16.32682
G1 X90.067 Y96.046 E16.41471
G1 X82.454 Y88.433 E17.42817
G1 X81.521 Y88.433 E17.51605
G1 X84.217 Y91.129 E17.87495
G1 X82.514 Y90.360 E18.05083
G1 X80.587 Y88.433 E18.30735
G1 X79.654 Y88.433 E18.39523
G1 X81.471 Y90.250 E18.63713
G1 X80.427 Y90.141 E18.73588
G1 X78.720 Y88.433 E18.96319
G1 X77.786 Y88.433 E19.05107
G1 X79.476 Y90.122 E19.27597
G1 X78.771 Y90.351 E19.34571
G1 X76.853 Y88.433 E19.60108
G1 X75.919 Y88.433 E19.68897
G1 X78.066 Y90.580 E19.97481
G1 X77.362 Y90.809 E20.04456
G1 X74.986 Y88.433 E20.36087
G1 X74.052 Y88.433 E20.44875
G1 X76.657 Y91.038 E20.79554
G1 X76.121 Y91.435 E20.85837
G1 X73.119 Y88.433 E21.25802
G1 X72.185 Y88.433 E21.34591
G1 X75.629 Y91.877 E21.80445
G1 X75.138 Y92.320 E21.86668
G1 X71.251 Y88.433 E22.38412
G1 X71.044 Y89.159 E22.45518
G1 X74.647 Y92.762 E22.93490
G1 X74.156 Y93.205 E22.99713
G1 X71.044 Y90.092 E23.41145
G1 X71.044 Y91.026 E23.49933
G1 X73.821 Y93.804 E23.86912
G1 X73.534 Y94.449 E23.93568
G1 X71.044 Y91.960 E24.26716
G1 X71.044 Y92.893 E24.35504
G1 X73.246 Y95.095 E24.64822
G1 X72.958 Y95.741 E24.71478
G1 X71.044 Y93.827 E24.96965
G1 X71.044 Y94.760 E25.05753
G1 X72.691 Y96.408 E25.27687
G1 X72.691 Y97.341 E25.36475
G1 X71.044 Y95.694 E25.58409
G1 X70.933 Y96.517 E25.66227
G1 X72.691 Y98.275 E25.89632
G1 X72.691 Y99.208 E25.98420
G1 X70.933 Y97.450 E26.21825
G1 X70.933 Y98.384 E26.30613
G1 X73.077 Y100.528 E26.59157
G1 X73.827 Y102.212 E26.76508
G1 X70.933 Y99.318 E27.15038
G1 X70.933 Y100.251 E27.23827
G1 X82.249 Y111.567 E28.74473
G1 X81.315 Y111.567 E28.83261
G1 X70.933 Y101.185 E30.21478
G1 X70.355 Y101.540 E30.27867
G1 X80.382 Y111.567 E31.61353
G1 X79.448 Y111.567 E31.70141
G1 X69.421 Y101.540 E33.03627
G1 X68.933 Y101.985 E33.09848
G1 X71.015 Y104.067 E33.37558
G1 X71.044 Y104.096 F7800.000
G1 X78.515 Y111.567 F1080.000 E34.37019
G1 X77.581 Y111.567 E34.45807
G1 X71.044 Y105.029 E35.32839
G1 X71.044 Y105.963 E35.41628
G1 X76.647 Y111.567 E36.16231
G1 X75.714 Y111.567 E36.25020
G1 X71.044 Y106.897 E36.87195
G1 X71.044 Y107.830 E36.95983
G1 X74.780 Y111.567 E37.45730
G1 X73.847 Y111.567 E37.54518
G1 X71.044 Y108.764 E37.91836
G1 X71.044 Y109.697 E38.00625
G1 X72.913 Y111.567 E38.25514
G1 X71.980 Y111.567 E38.34303
G1 X71.044 Y110.631 E38.46764
G1 X71.046 Y111.567 E38.55575
G1 F1800.000 E37.55575
G92 E0
G1 X70.081 Y104.067 F7800.000
G1 F1800.000 E1.00000
G1 X68.933 Y102.919 F1080.000 E1.15282
G1 X68.933 Y103.853 E1.24070
G1 X69.147 Y104.067 E1.26924
G1 F1800.000 E0.26924
G92 E0
G1 X67.533 Y113.818 F7800.000
G1 F1800.000 E1.00000
G1 X67.397 Y113.682 F360.000 E1.02675
G1 F1800.000 E0.02675
G92 E0
G1 X67.121 Y95.506 F7800.000
G1 F1800.000 E1.00000
G1 X66.937 Y95.321 F360.000 E1.02447
G1 F1800.000 E0.02447
G92 E0
G1 X67.743 Y86.293 F7800.000
G1 F1800.000 E1.00000
G1 X67.632 Y86.182 F360.000 E1.02182
G1 F1800.000 E0.02182
G92 E0
G1 X94.116 Y86.318 F7800.000
G1 F1800.000 E1.00000
