; generated by Slic3r 0.9.10b on 2014-01-21 at 04:22:55

; layer_height = 0.4
; perimeters = 5
; top_solid_layers = 3
; bottom_solid_layers = 3
; fill_density = 0.4
; perimeter_speed = 30
; infill_speed = 60
; travel_speed = 130
; nozzle_diameter = 0.5
; filament_diameter = 1.75
; extrusion_multiplier = 1.15
; perimeters extrusion width = 0.53mm
; infill extrusion width = 0.53mm
; solid infill extrusion width = 0.53mm
; top infill extrusion width = 0.53mm
; first layer extrusion width = 0.70mm

G21 ; set units to millimeters
M107 ; disable fan
M104 S200 ; set temperature
G28 ; home all axes
G1 Z5 F5000 ; lift nozzle
M109 S200 ; wait for temperature to be reached
G90 ; use absolute coordinates
G92 E0 ; reset extrusion distance
M82 ; use absolute distances for extrusion
G1 F1800.000 E-1.00000 ; retract
G92 E0 ; reset extrusion distance
G1 Z0.450 F7800.000 ; move to next layer (0)
G1 X64.270 Y66.580 ; move to first skirt point
G1 F1800.000 E1.00000 ; compensate retraction
G1 X65.310 Y65.630 F540.000 E1.15488 ; skirt
G1 X66.520 Y64.930 E1.30859 ; skirt
G1 X67.860 Y64.490 E1.46367 ; skirt
G1 X69.250 Y64.340 E1.61739 ; skirt
G1 X139.250 Y64.340 E9.31430 ; skirt
G1 X140.620 Y64.480 E9.46572 ; skirt
G1 X141.920 Y64.900 E9.61594 ; skirt
G1 X143.120 Y65.580 E9.76760 ; skirt
G1 X144.150 Y66.490 E9.91872 ; skirt
G1 X144.970 Y67.590 E10.06958 ; skirt
G1 X145.550 Y68.840 E10.22110 ; skirt
G1 X145.860 Y70.170 E10.37126 ; skirt
G1 X152.860 Y126.170 E16.57670 ; skirt
G1 X152.910 Y127.000 E16.66813 ; skirt
G1 X152.910 Y129.000 E16.88804 ; skirt
G1 X152.780 Y130.300 E17.03170 ; skirt
G1 X152.400 Y131.550 E17.17535 ; skirt
G1 X151.790 Y132.700 E17.31849 ; skirt
G1 X150.960 Y133.710 E17.46223 ; skirt
G1 X149.950 Y134.540 E17.60598 ; skirt
G1 X148.800 Y135.150 E17.74911 ; skirt
G1 X147.550 Y135.530 E17.89277 ; skirt
G1 X146.250 Y135.660 E18.03643 ; skirt
G1 X69.250 Y135.660 E26.50302 ; skirt
G1 X67.770 Y135.490 E26.66682 ; skirt
G1 X66.370 Y135.000 E26.82992 ; skirt
G1 X65.110 Y134.210 E26.99344 ; skirt
G1 X64.050 Y133.160 E27.15750 ; skirt
G1 X48.050 Y113.160 E29.97374 ; skirt
G1 X47.260 Y111.890 E30.13819 ; skirt
G1 X46.760 Y110.480 E30.30269 ; skirt
G1 X46.590 Y109.000 E30.46649 ; skirt
G1 X46.590 Y89.000 E32.66561 ; skirt
G1 X46.790 Y87.400 E32.84291 ; skirt
G1 X47.360 Y85.900 E33.01935 ; skirt
G1 X48.270 Y84.580 E33.19564 ; skirt
G1 X64.205 Y66.654 E35.83288 ; skirt
G1 F1800.000 E34.83288 ; retract
G92 E0 ; reset extrusion distance
G1 X69.579 Y127.329 F7800.000 ; move to first perimeter point
G1 F1800.000 E1.00000 ; compensate retraction
G1 X88.921 Y127.329 F378.000 E3.12687 ; perimeter
G1 X88.921 Y128.671 E3.27453 ; perimeter
G1 X69.579 Y128.671 E5.40139 ; perimeter
G1 X69.579 Y127.427 E5.53822 ; perimeter
G1 X70.148 Y127.657 F7800.000 ; move inwards before travel
G1 F1800.000 E4.53822 ; retract
G92 E0 ; reset extrusion distance
G1 X54.921 Y108.671 F7800.000 ; move to first perimeter point
G1 F1800.000 E1.00000 ; compensate retraction
G1 X53.579 Y108.671 F378.000 E1.14766 ; perimeter
G1 X53.579 Y89.329 E3.27453 ; perimeter
G1 X54.921 Y89.329 E3.42219 ; perimeter
G1 X54.921 Y108.573 E5.53822 ; perimeter
G1 X54.352 Y108.343 F7800.000 ; move inwards before travel
G1 F1800.000 E4.53822 ; retract
G92 E0 ; reset extrusion distance
G1 X69.579 Y72.671 F7800.000 ; move to first perimeter point
G1 F1800.000 E1.00000 ; compensate retraction
G1 X69.579 Y71.329 F378.000 E1.14766 ; perimeter
G1 X88.921 Y71.329 E3.27453 ; perimeter
G1 X88.921 Y72.671 E3.42219 ; perimeter
G1 X69.677 Y72.671 E5.53822 ; perimeter
G1 X69.907 Y72.102 F7800.000 ; move inwards before travel
G1 F1800.000 E4.53822 ; retract
G92 E0 ; reset extrusion distance
G1 X119.579 Y72.671 F7800.000 ; move to first perimeter point
G1 F1800.000 E1.00000 ; compensate retraction
G1 X119.579 Y71.329 F378.000 E1.14766 ; perimeter
G1 X138.921 Y71.329 E3.27453 ; perimeter
G1 X138.921 Y72.671 E3.42219 ; perimeter
G1 X119.677 Y72.671 E5.53822 ; perimeter
G1 X119.907 Y72.102 F7800.000 ; move inwards before travel
G1 F1800.000 E4.53822 ; retract
G92 E0 ; reset extrusion distance
G1 X126.579 Y127.329 F7800.000 ; move to first perimeter point
G1 F1800.000 E1.00000 ; compensate retraction
G1 X145.921 Y127.329 F378.000 E3.12687 ; perimeter
G1 X145.921 Y128.671 E3.27453 ; perimeter
G1 X126.579 Y128.671 E5.40139 ; perimeter
G1 X126.579 Y127.427 E5.53822 ; perimeter
G1 X127.148 Y127.657 F7800.000 ; move inwards before travel
G1 F1800.000 E4.53822 ; retract
G92 E0 ; reset extrusion distance
G1 X70.479 Y128.203 F7800.000 ; move to first fill point
G1 F1800.000 E1.00000 ; compensate retraction
G1 X70.073 Y127.797 F360.000 E1.03147 ; fill
G1 X70.536 Y127.797 E1.05686 ; fill
G1 X70.942 Y128.203 E1.08833 ; fill
G1 X70.999 Y127.797 E1.11080 ; fill
G1 X71.405 Y128.203 E1.14227 ; fill
G1 X71.463 Y127.797 E1.16475 ; fill
G1 X71.869 Y128.203 E1.19622 ; fill
G1 X71.926 Y127.797 E1.21869 ; fill
G1 X72.332 Y128.203 E1.25016 ; fill
G1 X72.389 Y127.797 E1.27264 ; fill
G1 X72.795 Y128.203 E1.30411 ; fill
G1 X72.852 Y127.797 E1.32658 ; fill
G1 X73.258 Y128.203 E1.35805 ; fill
G1 X73.315 Y127.797 E1.38053 ; fill
G1 X73.721 Y128.203 E1.41200 ; fill
G1 X73.778 Y127.797 E1.43447 ; fill
G1 X74.184 Y128.203 E1.46594 ; fill
G1 X74.242 Y127.797 E1.48842 ; fill
G1 X74.648 Y128.203 E1.51989 ; fill
G1 X74.705 Y127.797 E1.54236 ; fill
G1 X75.111 Y128.203 E1.57383 ; fill
G1 X75.168 Y127.797 E1.59631 ; fill
G1 X75.574 Y128.203 E1.62778 ; fill
G1 X75.631 Y127.797 E1.65025 ; fill
G1 X76.037 Y128.203 E1.68172 ; fill
G1 X76.094 Y127.797 E1.70420 ; fill
G1 X76.500 Y128.203 E1.73567 ; fill
G1 X76.557 Y127.797 E1.75814 ; fill
G1 X76.964 Y128.203 E1.78961 ; fill
G1 X77.021 Y127.797 E1.81208 ; fill
G1 X77.427 Y128.203 E1.84356 ; fill
G1 X77.484 Y127.797 E1.86603 ; fill
G1 X77.890 Y128.203 E1.89750 ; fill
G1 X77.947 Y127.797 E1.91997 ; fill
G1 X78.353 Y128.203 E1.95145 ; fill
G1 X78.410 Y127.797 E1.97392 ; fill
G1 X78.816 Y128.203 E2.00539 ; fill
G1 X78.873 Y127.797 E2.02786 ; fill
G1 X79.279 Y128.203 E2.05934 ; fill
G1 X79.337 Y127.797 E2.08181 ; fill
G1 X79.743 Y128.203 E2.11328 ; fill
G1 X79.800 Y127.797 E2.13575 ; fill
G1 X80.206 Y128.203 E2.16723 ; fill
G1 X80.263 Y127.797 E2.18970 ; fill
G1 X80.669 Y128.203 E2.22117 ; fill
G1 X80.726 Y127.797 E2.24364 ; fill
G1 X81.132 Y128.203 E2.27511 ; fill
G1 X81.189 Y127.797 E2.29759 ; fill
G1 X81.595 Y128.203 E2.32906 ; fill
G1 X81.652 Y127.797 E2.35153 ; fill
G1 X82.058 Y128.203 E2.38300 ; fill
G1 X82.116 Y127.797 E2.40548 ; fill
G1 X82.522 Y128.203 E2.43695 ; fill
G1 X82.579 Y127.797 E2.45942 ; fill
G1 X82.985 Y128.203 E2.49089 ; fill
G1 X83.042 Y127.797 E2.51337 ; fill
G1 X83.448 Y128.203 E2.54484 ; fill
G1 X83.505 Y127.797 E2.56731 ; fill
G1 X83.911 Y128.203 E2.59878 ; fill
G1 X83.968 Y127.797 E2.62126 ; fill
G1 X84.374 Y128.203 E2.65273 ; fill
G1 X84.431 Y127.797 E2.67520 ; fill
G1 X84.838 Y128.203 E2.70667 ; fill
G1 X84.895 Y127.797 E2.72915 ; fill
G1 X85.301 Y128.203 E2.76062 ; fill
G1 X85.358 Y127.797 E2.78309 ; fill
G1 X85.764 Y128.203 E2.81456 ; fill
G1 X85.821 Y127.797 E2.83704 ; fill
G1 X86.227 Y128.203 E2.86851 ; fill
G1 X86.284 Y127.797 E2.89098 ; fill
G1 X86.690 Y128.203 E2.92245 ; fill
G1 X86.747 Y127.797 E2.94492 ; fill
G1 X87.153 Y128.203 E2.97640 ; fill
G1 X87.211 Y127.797 E2.99887 ; fill
G1 X87.617 Y128.203 E3.03034 ; fill
G1 X87.674 Y127.797 E3.05281 ; fill
G1 X88.080 Y128.203 E3.08429 ; fill
G1 X88.453 Y128.113 E3.10533 ; fill
G1 X88.137 Y127.797 E3.12983 ; fill
G1 F1800.000 E2.12983 ; retract
G92 E0 ; reset extrusion distance
G1 X54.184 Y108.203 F7800.000 ; move to first fill point
G1 F1800.000 E1.00000 ; compensate retraction
G1 X54.047 Y108.066 F360.000 E1.01065 ; fill
G1 X54.453 Y108.008 E1.03310 ; fill
G1 X54.047 Y107.602 E1.06454 ; fill
G1 X54.453 Y107.545 E1.08699 ; fill
G1 X54.047 Y107.139 E1.11844 ; fill
G1 X54.453 Y107.082 E1.14089 ; fill
G1 X54.047 Y106.676 E1.17233 ; fill
G1 X54.453 Y106.619 E1.19478 ; fill
G1 X54.047 Y106.213 E1.22623 ; fill
G1 X54.453 Y106.156 E1.24868 ; fill
G1 X54.047 Y105.750 E1.28012 ; fill
G1 X54.453 Y105.693 E1.30257 ; fill
G1 X54.047 Y105.286 E1.33402 ; fill
G1 X54.453 Y105.229 E1.35647 ; fill
G1 X54.047 Y104.823 E1.38791 ; fill
G1 X54.453 Y104.766 E1.41036 ; fill
G1 X54.047 Y104.360 E1.44180 ; fill
G1 X54.453 Y104.303 E1.46426 ; fill
G1 X54.047 Y103.897 E1.49570 ; fill
G1 X54.453 Y103.840 E1.51815 ; fill
G1 X54.047 Y103.434 E1.54959 ; fill
G1 X54.453 Y103.377 E1.57205 ; fill
G1 X54.047 Y102.971 E1.60349 ; fill
G1 X54.453 Y102.913 E1.62594 ; fill
G1 X54.047 Y102.507 E1.65738 ; fill
G1 X54.453 Y102.450 E1.67984 ; fill
G1 X54.047 Y102.044 E1.71128 ; fill
G1 X54.453 Y101.987 E1.73373 ; fill
G1 X54.047 Y101.581 E1.76517 ; fill
G1 X54.453 Y101.524 E1.78763 ; fill
G1 X54.047 Y101.118 E1.81907 ; fill
G1 X54.453 Y101.061 E1.84152 ; fill
G1 X54.047 Y100.655 E1.87296 ; fill
G1 X54.453 Y100.598 E1.89542 ; fill
G1 X54.047 Y100.192 E1.92686 ; fill
G1 X54.453 Y100.134 E1.94931 ; fill
G1 X54.047 Y99.728 E1.98075 ; fill
G1 X54.453 Y99.671 E2.00320 ; fill
G1 X54.047 Y99.265 E2.03465 ; fill
G1 X54.453 Y99.208 E2.05710 ; fill
G1 X54.047 Y98.802 E2.08854 ; fill
G1 X54.453 Y98.745 E2.11099 ; fill
G1 X54.047 Y98.339 E2.14244 ; fill
G1 X54.453 Y98.282 E2.16489 ; fill
G1 X54.047 Y97.876 E2.19633 ; fill
G1 X54.453 Y97.819 E2.21878 ; fill
G1 X54.047 Y97.412 E2.25023 ; fill
G1 X54.453 Y97.355 E2.27268 ; fill
G1 X54.047 Y96.949 E2.30412 ; fill
G1 X54.453 Y96.892 E2.32657 ; fill
G1 X54.047 Y96.486 E2.35802 ; fill
G1 X54.453 Y96.429 E2.38047 ; fill
G1 X54.047 Y96.023 E2.41191 ; fill
G1 X54.453 Y95.966 E2.43436 ; fill
G1 X54.047 Y95.560 E2.46581 ; fill
G1 X54.453 Y95.503 E2.48826 ; fill
G1 X54.047 Y95.097 E2.51970 ; fill
G1 X54.453 Y95.039 E2.54215 ; fill
G1 X54.047 Y94.633 E2.57360 ; fill
G1 X54.453 Y94.576 E2.59605 ; fill
G1 X54.047 Y94.170 E2.62749 ; fill
G1 X54.453 Y94.113 E2.64994 ; fill
G1 X54.047 Y93.707 E2.68139 ; fill
G1 X54.453 Y93.650 E2.70384 ; fill
G1 X54.047 Y93.244 E2.73528 ; fill
G1 X54.453 Y93.187 E2.75773 ; fill
G1 X54.047 Y92.781 E2.78917 ; fill
G1 X54.453 Y92.724 E2.81163 ; fill
G1 X54.047 Y92.318 E2.84307 ; fill
G1 X54.453 Y92.260 E2.86552 ; fill
G1 X54.047 Y91.854 E2.89696 ; fill
G1 X54.453 Y91.797 E2.91942 ; fill
G1 X54.047 Y91.391 E2.95086 ; fill
G1 X54.453 Y91.334 E2.97331 ; fill
G1 X54.047 Y90.928 E3.00475 ; fill
G1 X54.453 Y90.871 E3.02721 ; fill
G1 X54.047 Y90.465 E3.05865 ; fill
G1 X54.453 Y90.408 E3.08110 ; fill
G1 X54.047 Y90.002 E3.11254 ; fill
G1 X54.306 Y89.797 E3.13060 ; fill
G1 X54.453 Y89.944 E3.14202 ; fill
G1 F1800.000 E2.14202 ; retract
G92 E0 ; reset extrusion distance
G1 X70.060 Y72.203 F7800.000 ; move to first fill point
G1 F1800.000 E1.00000 ; compensate retraction
G1 X70.047 Y72.190 F360.000 E1.00103 ; fill
G1 X70.117 Y71.797 E1.02288 ; fill
G1 X70.523 Y72.203 E1.05432 ; fill
G1 X70.581 Y71.797 E1.07677 ; fill
G1 X70.987 Y72.203 E1.10822 ; fill
G1 X71.044 Y71.797 E1.13067 ; fill
G1 X71.450 Y72.203 E1.16211 ; fill
G1 X71.507 Y71.797 E1.18456 ; fill
G1 X71.913 Y72.203 E1.21601 ; fill
G1 X71.970 Y71.797 E1.23846 ; fill
G1 X72.376 Y72.203 E1.26990 ; fill
G1 X72.433 Y71.797 E1.29235 ; fill
G1 X72.839 Y72.203 E1.32380 ; fill
G1 X72.897 Y71.797 E1.34625 ; fill
G1 X73.303 Y72.203 E1.37769 ; fill
G1 X73.360 Y71.797 E1.40014 ; fill
G1 X73.766 Y72.203 E1.43159 ; fill
G1 X73.823 Y71.797 E1.45404 ; fill
G1 X74.229 Y72.203 E1.48548 ; fill
G1 X74.286 Y71.797 E1.50793 ; fill
G1 X74.692 Y72.203 E1.53938 ; fill
G1 X74.749 Y71.797 E1.56183 ; fill
G1 X75.155 Y72.203 E1.59327 ; fill
G1 X75.212 Y71.797 E1.61572 ; fill
G1 X75.618 Y72.203 E1.64716 ; fill
G1 X75.676 Y71.797 E1.66962 ; fill
G1 X76.082 Y72.203 E1.70106 ; fill
G1 X76.139 Y71.797 E1.72351 ; fill
G1 X76.545 Y72.203 E1.75495 ; fill
G1 X76.602 Y71.797 E1.77741 ; fill
G1 X77.008 Y72.203 E1.80885 ; fill
G1 X77.065 Y71.797 E1.83130 ; fill
G1 X77.471 Y72.203 E1.86274 ; fill
G1 X77.528 Y71.797 E1.88520 ; fill
G1 X77.934 Y72.203 E1.91664 ; fill
G1 X77.991 Y71.797 E1.93909 ; fill
G1 X78.398 Y72.203 E1.97053 ; fill
G1 X78.455 Y71.797 E1.99299 ; fill
G1 X78.861 Y72.203 E2.02443 ; fill
G1 X78.918 Y71.797 E2.04688 ; fill
G1 X79.324 Y72.203 E2.07832 ; fill
G1 X79.381 Y71.797 E2.10078 ; fill
G1 X79.787 Y72.203 E2.13222 ; fill
G1 X79.844 Y71.797 E2.15467 ; fill
G1 X80.250 Y72.203 E2.18611 ; fill
G1 X80.307 Y71.797 E2.20857 ; fill
G1 X80.713 Y72.203 E2.24001 ; fill
G1 X80.771 Y71.797 E2.26246 ; fill
G1 X81.177 Y72.203 E2.29390 ; fill
G1 X81.234 Y71.797 E2.31635 ; fill
G1 X81.640 Y72.203 E2.34780 ; fill
G1 X81.697 Y71.797 E2.37025 ; fill
G1 X82.103 Y72.203 E2.40169 ; fill
G1 X82.160 Y71.797 E2.42414 ; fill
G1 X82.566 Y72.203 E2.45559 ; fill
G1 X82.623 Y71.797 E2.47804 ; fill
G1 X83.029 Y72.203 E2.50948 ; fill
G1 X83.086 Y71.797 E2.53193 ; fill
G1 X83.492 Y72.203 E2.56338 ; fill
G1 X83.550 Y71.797 E2.58583 ; fill
G1 X83.956 Y72.203 E2.61727 ; fill
G1 X84.013 Y71.797 E2.63972 ; fill
G1 X84.419 Y72.203 E2.67117 ; fill
G1 X84.476 Y71.797 E2.69362 ; fill
G1 X84.882 Y72.203 E2.72506 ; fill
G1 X84.939 Y71.797 E2.74751 ; fill
G1 X85.345 Y72.203 E2.77896 ; fill
G1 X85.402 Y71.797 E2.80141 ; fill
G1 X85.808 Y72.203 E2.83285 ; fill
G1 X85.865 Y71.797 E2.85530 ; fill
G1 X86.272 Y72.203 E2.88674 ; fill
G1 X86.329 Y71.797 E2.90920 ; fill
G1 X86.735 Y72.203 E2.94064 ; fill
G1 X86.792 Y71.797 E2.96309 ; fill
G1 X87.198 Y72.203 E2.99453 ; fill
G1 X87.255 Y71.797 E3.01699 ; fill
G1 X87.661 Y72.203 E3.04843 ; fill
G1 X87.718 Y71.797 E3.07088 ; fill
G1 X88.124 Y72.203 E3.10232 ; fill
G1 X88.453 Y72.069 E3.12177 ; fill
G1 X88.181 Y71.797 E3.14281 ; fill
G1 F1800.000 E2.14281 ; retract
G92 E0 ; reset extrusion distance
G1 X120.083 Y72.203 F7800.000 ; move to first fill point
G1 F1800.000 E1.00000 ; compensate retraction
G1 X120.047 Y72.167 F360.000 E1.00283 ; fill
G1 X120.141 Y71.797 E1.02370 ; fill
G1 X120.547 Y72.203 E1.05514 ; fill
G1 X120.604 Y71.797 E1.07759 ; fill
G1 X121.010 Y72.203 E1.10904 ; fill
G1 X121.067 Y71.797 E1.13149 ; fill
G1 X121.473 Y72.203 E1.16293 ; fill
G1 X121.530 Y71.797 E1.18538 ; fill
G1 X121.936 Y72.203 E1.21683 ; fill
G1 X121.993 Y71.797 E1.23928 ; fill
G1 X122.399 Y72.203 E1.27072 ; fill
G1 X122.456 Y71.797 E1.29317 ; fill
G1 X122.863 Y72.203 E1.32462 ; fill
G1 X122.920 Y71.797 E1.34707 ; fill
G1 X123.326 Y72.203 E1.37851 ; fill
G1 X123.383 Y71.797 E1.40096 ; fill
G1 X123.789 Y72.203 E1.43241 ; fill
G1 X123.846 Y71.797 E1.45486 ; fill
G1 X124.252 Y72.203 E1.48630 ; fill
G1 X124.309 Y71.797 E1.50875 ; fill
G1 X124.715 Y72.203 E1.54020 ; fill
G1 X124.772 Y71.797 E1.56265 ; fill
G1 X125.178 Y72.203 E1.59409 ; fill
G1 X125.236 Y71.797 E1.61654 ; fill
G1 X125.642 Y72.203 E1.64799 ; fill
G1 X125.699 Y71.797 E1.67044 ; fill
G1 X126.105 Y72.203 E1.70188 ; fill
G1 X126.162 Y71.797 E1.72433 ; fill
G1 X126.568 Y72.203 E1.75578 ; fill
G1 X126.625 Y71.797 E1.77823 ; fill
G1 X127.031 Y72.203 E1.80967 ; fill
G1 X127.088 Y71.797 E1.83212 ; fill
G1 X127.494 Y72.203 E1.86357 ; fill
G1 X127.551 Y71.797 E1.88602 ; fill
G1 X127.957 Y72.203 E1.91746 ; fill
G1 X128.015 Y71.797 E1.93991 ; fill
G1 X128.421 Y72.203 E1.97136 ; fill
G1 X128.478 Y71.797 E1.99381 ; fill
G1 X128.884 Y72.203 E2.02525 ; fill
G1 X128.941 Y71.797 E2.04770 ; fill
G1 X129.347 Y72.203 E2.07915 ; fill
G1 X129.404 Y71.797 E2.10160 ; fill
G1 X129.810 Y72.203 E2.13304 ; fill
G1 X129.867 Y71.797 E2.15549 ; fill
G1 X130.273 Y72.203 E2.18694 ; fill
G1 X130.330 Y71.797 E2.20939 ; fill
G1 X130.737 Y72.203 E2.24083 ; fill
G1 X130.794 Y71.797 E2.26328 ; fill
G1 X131.200 Y72.203 E2.29472 ; fill
G1 X131.257 Y71.797 E2.31718 ; fill
G1 X131.663 Y72.203 E2.34862 ; fill
G1 X131.720 Y71.797 E2.37107 ; fill
G1 X132.126 Y72.203 E2.40251 ; fill
G1 X132.183 Y71.797 E2.42497 ; fill
G1 X132.589 Y72.203 E2.45641 ; fill
G1 X132.646 Y71.797 E2.47886 ; fill
G1 X133.052 Y72.203 E2.51030 ; fill
G1 X133.110 Y71.797 E2.53276 ; fill
G1 X133.516 Y72.203 E2.56420 ; fill
G1 X133.573 Y71.797 E2.58665 ; fill
G1 X133.979 Y72.203 E2.61809 ; fill
G1 X134.036 Y71.797 E2.64055 ; fill
G1 X134.442 Y72.203 E2.67199 ; fill
G1 X134.499 Y71.797 E2.69444 ; fill
