; generated by Slic3r 0.9.10b on 2014-01-21 at 04:22:16

; layer_height = 0.4
; perimeters = 5
; top_solid_layers = 3
; bottom_solid_layers = 3
; fill_density = 0.4
; perimeter_speed = 30
; infill_speed = 60
; travel_speed = 130
; nozzle_diameter = 0.5
; filament_diameter = 1.75
; extrusion_multiplier = 1.15
; perimeters extrusion width = 0.53mm
; infill extrusion width = 0.53mm
; solid infill extrusion width = 0.53mm
; top infill extrusion width = 0.53mm
; first layer extrusion width = 0.70mm

G21 ; set units to millimeters
M107 ; disable fan
M104 S200 ; set temperature
G28 ; home all axes
G1 Z5 F5000 ; lift nozzle
M109 S200 ; wait for temperature to be reached
G90 ; use absolute coordinates
G92 E0 ; reset extrusion distance
M82 ; use absolute distances for extrusion
G1 F1800.000 E-1.00000 ; retract
G92 E0 ; reset extrusion distance
G1 Z0.450 F7800.000 ; move to next layer (0)
G1 X47.550 Y63.460 ; move to first skirt point
G1 F1800.000 E1.00000 ; compensate retraction
G1 X48.700 Y62.850 F540.000 E1.14314 ; skirt
G1 X49.950 Y62.470 E1.28679 ; skirt
G1 X51.250 Y62.340 E1.43045 ; skirt
G1 X142.250 Y62.340 E11.43642 ; skirt
G1 X143.650 Y62.490 E11.59124 ; skirt
G1 X144.990 Y62.930 E11.74632 ; skirt
G1 X146.200 Y63.640 E11.90058 ; skirt
G1 X147.240 Y64.590 E12.05546 ; skirt
G1 X148.050 Y65.740 E12.21013 ; skirt
G1 X148.610 Y67.030 E12.36476 ; skirt
G1 X155.110 Y88.030 E14.78191 ; skirt
G1 X155.330 Y89.000 E14.89128 ; skirt
G1 X155.410 Y90.000 E15.00158 ; skirt
G1 X155.410 Y131.000 E19.50977 ; skirt
G1 X155.280 Y132.300 E19.65342 ; skirt
G1 X154.900 Y133.550 E19.79708 ; skirt
G1 X154.290 Y134.700 E19.94022 ; skirt
G1 X153.460 Y135.710 E20.08396 ; skirt
G1 X152.450 Y136.540 E20.22770 ; skirt
G1 X151.300 Y137.150 E20.37084 ; skirt
G1 X150.050 Y137.530 E20.51450 ; skirt
G1 X148.750 Y137.660 E20.65815 ; skirt
G1 X51.250 Y137.660 E31.37884 ; skirt
G1 X49.950 Y137.530 E31.52249 ; skirt
G1 X48.700 Y137.150 E31.66615 ; skirt
G1 X47.550 Y136.540 E31.80928 ; skirt
G1 X46.540 Y135.710 E31.95303 ; skirt
G1 X45.710 Y134.700 E32.09677 ; skirt
G1 X45.100 Y133.550 E32.23991 ; skirt
G1 X44.720 Y132.300 E32.38356 ; skirt
G1 X44.590 Y131.000 E32.52722 ; skirt
G1 X44.590 Y69.000 E39.34448 ; skirt
G1 X44.720 Y67.700 E39.48813 ; skirt
G1 X45.100 Y66.450 E39.63179 ; skirt
G1 X45.710 Y65.300 E39.77492 ; skirt
G1 X46.540 Y64.290 E39.91867 ; skirt
G1 X47.474 Y63.523 E40.05157 ; skirt
G1 F1800.000 E39.05157 ; retract
G92 E0 ; reset extrusion distance
G1 X54.207 Y71.957 F7800.000 ; move to first perimeter point
G1 F1800.000 E1.00000 ; compensate retraction
G1 X139.293 Y71.957 F540.000 E10.35573 ; perimeter
G1 X139.293 Y92.957 E12.66480 ; perimeter
G1 X145.793 Y92.957 E13.37951 ; perimeter
G1 X145.793 Y128.043 E17.23745 ; perimeter
G1 X54.207 Y128.043 E27.30788 ; perimeter
G1 X54.207 Y72.055 E33.46406 ; perimeter
G1 X53.550 Y71.300 F7800.000 ; move to first perimeter point
G1 X139.950 Y71.300 F540.000 E42.96428 ; perimeter
G1 X139.950 Y92.300 E45.27335 ; perimeter
G1 X146.450 Y92.300 E45.98806 ; perimeter
G1 X146.450 Y128.700 E49.99050 ; perimeter
G1 X53.550 Y128.700 E60.20544 ; perimeter
G1 X53.550 Y71.398 E66.50611 ; perimeter
G1 X52.893 Y70.643 F7800.000 ; move to first perimeter point
G1 X140.607 Y70.643 F540.000 E76.15083 ; perimeter
G1 X140.607 Y91.643 E78.45991 ; perimeter
G1 X147.107 Y91.643 E79.17462 ; perimeter
G1 X147.107 Y129.357 E83.32155 ; perimeter
G1 X52.893 Y129.357 E93.68099 ; perimeter
G1 X52.893 Y70.741 E100.12616 ; perimeter
G1 X52.236 Y69.986 F7800.000 ; move to first perimeter point
G1 X141.264 Y69.986 F540.000 E109.91539 ; perimeter
G1 X141.264 Y90.986 E112.22446 ; perimeter
G1 X147.764 Y90.986 E112.93917 ; perimeter
G1 X147.764 Y130.014 E117.23060 ; perimeter
G1 X52.236 Y130.014 E127.73454 ; perimeter
G1 X52.236 Y70.084 E134.32421 ; perimeter
G1 X51.579 Y69.329 F7800.000 ; move to first perimeter point
G1 X141.921 Y69.329 F378.000 E144.25793 ; perimeter
G1 X141.921 Y90.329 E146.56700 ; perimeter
G1 X148.421 Y90.329 E147.28172 ; perimeter
G1 X148.421 Y130.671 E151.71765 ; perimeter
G1 X51.579 Y130.671 E162.36609 ; perimeter
G1 X51.579 Y69.427 E169.10026 ; perimeter
G1 X52.148 Y69.657 F7800.000 ; move inwards before travel
G1 X54.759 Y127.567 ; move to first fill point
G1 X54.683 Y127.491 F1080.000 E169.11209 ; fill
G1 X54.683 Y126.559 E169.21490 ; fill
G1 X55.691 Y127.567 E169.37212 ; fill
G1 X56.623 Y127.567 E169.47492 ; fill
G1 X54.683 Y125.627 E169.77753 ; fill
G1 X54.683 Y124.695 E169.88033 ; fill
G1 X57.555 Y127.567 E170.32833 ; fill
G1 X58.487 Y127.567 E170.43113 ; fill
G1 X54.683 Y123.763 E171.02451 ; fill
G1 X54.683 Y122.831 E171.12731 ; fill
G1 X59.419 Y127.567 E171.86608 ; fill
G1 X60.352 Y127.567 E171.96888 ; fill
G1 X54.683 Y121.898 E172.85303 ; fill
G1 X54.683 Y120.966 E172.95583 ; fill
G1 X61.284 Y127.567 E173.98537 ; fill
G1 X62.216 Y127.567 E174.08817 ; fill
G1 X54.683 Y120.034 E175.26310 ; fill
G1 X54.683 Y119.102 E175.36590 ; fill
G1 X63.148 Y127.567 E176.68621 ; fill
G1 X64.080 Y127.567 E176.78901 ; fill
G1 X54.683 Y118.170 E178.25470 ; fill
G1 X54.683 Y117.238 E178.35750 ; fill
G1 X65.012 Y127.567 E179.96858 ; fill
G1 X65.944 Y127.567 E180.07139 ; fill
G1 X54.683 Y116.306 E181.82785 ; fill
G1 X54.683 Y115.374 E181.93065 ; fill
G1 X66.876 Y127.567 E183.83250 ; fill
G1 X67.808 Y127.567 E183.93531 ; fill
G1 X54.683 Y114.442 E185.98254 ; fill
G1 X54.683 Y113.510 E186.08534 ; fill
G1 X68.740 Y127.567 E188.27797 ; fill
G1 X69.673 Y127.567 E188.38077 ; fill
G1 X54.683 Y112.577 E190.71878 ; fill
G1 X54.683 Y111.645 E190.82158 ; fill
G1 X70.605 Y127.567 E193.30497 ; fill
G1 X71.537 Y127.567 E193.40777 ; fill
G1 X54.683 Y110.713 E196.03655 ; fill
G1 X54.683 Y109.781 E196.13935 ; fill
G1 X72.469 Y127.567 E198.91352 ; fill
G1 X73.401 Y127.567 E199.01632 ; fill
G1 X54.683 Y108.849 E201.93587 ; fill
G1 X54.683 Y107.917 E202.03867 ; fill
G1 X74.333 Y127.567 E205.10361 ; fill
G1 X75.265 Y127.567 E205.20641 ; fill
G1 X54.683 Y106.985 E208.41673 ; fill
G1 X54.683 Y106.053 E208.51953 ; fill
G1 X76.197 Y127.567 E211.87524 ; fill
G1 X77.129 Y127.567 E211.97804 ; fill
G1 X54.683 Y105.121 E215.47913 ; fill
G1 X54.683 Y104.189 E215.58194 ; fill
G1 X78.061 Y127.567 E219.22841 ; fill
G1 X78.994 Y127.567 E219.33122 ; fill
G1 X54.683 Y103.256 E223.12308 ; fill
G1 X54.683 Y102.324 E223.22588 ; fill
G1 X79.926 Y127.567 E227.16313 ; fill
G1 X80.858 Y127.567 E227.26593 ; fill
G1 X54.683 Y101.392 E231.34857 ; fill
G1 X54.683 Y100.460 E231.45137 ; fill
G1 X81.790 Y127.567 E235.67939 ; fill
G1 X82.722 Y127.567 E235.78219 ; fill
G1 X54.683 Y99.528 E240.15560 ; fill
G1 X54.683 Y98.596 E240.25840 ; fill
G1 X83.654 Y127.567 E244.77719 ; fill
G1 X84.586 Y127.567 E244.87999 ; fill
G1 X54.683 Y97.664 E249.54417 ; fill
G1 X54.683 Y96.732 E249.64697 ; fill
G1 X85.518 Y127.567 E254.45653 ; fill
G1 X86.450 Y127.567 E254.55934 ; fill
G1 X54.683 Y95.800 E259.51428 ; fill
G1 X54.683 Y94.868 E259.61709 ; fill
G1 X87.382 Y127.567 E264.71742 ; fill
G1 X88.314 Y127.567 E264.82022 ; fill
G1 X54.683 Y93.936 E270.06594 ; fill
G1 X54.683 Y93.003 E270.16874 ; fill
G1 X89.247 Y127.567 E275.55985 ; fill
G1 X90.179 Y127.567 E275.66265 ; fill
G1 X54.683 Y92.071 E281.19914 ; fill
G1 X54.683 Y91.139 E281.30194 ; fill
G1 X91.111 Y127.567 E286.98382 ; fill
G1 X92.043 Y127.567 E287.08662 ; fill
G1 X54.683 Y90.207 E292.91388 ; fill
G1 X54.683 Y89.275 E293.01669 ; fill
G1 X92.975 Y127.567 E298.98933 ; fill
G1 X93.907 Y127.567 E299.09213 ; fill
G1 X54.683 Y88.343 E305.21017 ; fill
G1 X54.683 Y87.411 E305.31297 ; fill
G1 X94.839 Y127.567 E311.57639 ; fill
G1 X95.771 Y127.567 E311.67919 ; fill
G1 X54.683 Y86.479 E318.08799 ; fill
G1 X54.683 Y85.547 E318.19080 ; fill
G1 X96.703 Y127.567 E324.74498 ; fill
G1 X97.635 Y127.567 E324.84779 ; fill
G1 X54.683 Y84.615 E331.54736 ; fill
G1 X54.683 Y83.682 E331.65017 ; fill
G1 X98.568 Y127.567 E338.49513 ; fill
G1 X99.500 Y127.567 E338.59793 ; fill
G1 X54.683 Y82.750 E345.58827 ; fill
G1 X54.683 Y81.818 E345.69108 ; fill
G1 X100.432 Y127.567 E352.82681 ; fill
G1 X101.364 Y127.567 E352.92961 ; fill
G1 X54.683 Y80.886 E360.21073 ; fill
G1 X54.683 Y79.954 E360.31353 ; fill
G1 X102.296 Y127.567 E367.74003 ; fill
G1 X103.228 Y127.567 E367.84284 ; fill
G1 X54.683 Y79.022 E375.41472 ; fill
G1 X54.683 Y78.090 E375.51753 ; fill
G1 X104.160 Y127.567 E383.23480 ; fill
G1 X105.092 Y127.567 E383.33760 ; fill
G1 X54.683 Y77.158 E391.20026 ; fill
G1 X54.683 Y76.226 E391.30307 ; fill
G1 X106.024 Y127.567 E399.31111 ; fill
G1 X106.956 Y127.567 E399.41391 ; fill
G1 X54.683 Y75.294 E407.56734 ; fill
G1 X54.683 Y74.362 E407.67015 ; fill
G1 X107.888 Y127.567 E415.96896 ; fill
G1 X108.821 Y127.567 E416.07177 ; fill
G1 X54.683 Y73.429 E424.51597 ; fill
G1 X54.683 Y72.497 E424.61877 ; fill
G1 X109.753 Y127.567 E433.20836 ; fill
G1 X110.685 Y127.567 E433.31116 ; fill
G1 X55.551 Y72.433 E441.91076 ; fill
G1 X56.483 Y72.433 E442.01356 ; fill
G1 X111.617 Y127.567 E450.61316 ; fill
G1 X112.549 Y127.567 E450.71597 ; fill
G1 X57.415 Y72.433 E459.31557 ; fill
G1 X58.347 Y72.433 E459.41837 ; fill
G1 X113.481 Y127.567 E468.01797 ; fill
G1 X114.413 Y127.567 E468.12077 ; fill
G1 X59.279 Y72.433 E476.72037 ; fill
G1 X60.211 Y72.433 E476.82318 ; fill
G1 X115.345 Y127.567 E485.42278 ; fill
G1 X116.277 Y127.567 E485.52558 ; fill
G1 X61.144 Y72.433 E494.12518 ; fill
G1 X62.076 Y72.433 E494.22798 ; fill
G1 X117.209 Y127.567 E502.82758 ; fill
G1 X118.142 Y127.567 E502.93039 ; fill
G1 X63.008 Y72.433 E511.52999 ; fill
G1 X63.940 Y72.433 E511.63279 ; fill
G1 X119.074 Y127.567 E520.23239 ; fill
G1 X120.006 Y127.567 E520.33519 ; fill
G1 X64.872 Y72.433 E528.93479 ; fill
G1 X65.804 Y72.433 E529.03760 ; fill
G1 X120.938 Y127.567 E537.63720 ; fill
G1 X121.870 Y127.567 E537.74000 ; fill
G1 X66.736 Y72.433 E546.33960 ; fill
G1 X67.668 Y72.433 E546.44240 ; fill
G1 X122.802 Y127.567 E555.04200 ; fill
G1 X123.734 Y127.567 E555.14481 ; fill
G1 X68.600 Y72.433 E563.74441 ; fill
G1 X69.532 Y72.433 E563.84721 ; fill
G1 X124.666 Y127.567 E572.44681 ; fill
G1 X125.598 Y127.567 E572.54961 ; fill
G1 X70.465 Y72.433 E581.14921 ; fill
G1 X71.397 Y72.433 E581.25202 ; fill
G1 X126.530 Y127.567 E589.85162 ; fill
G1 X127.463 Y127.567 E589.95442 ; fill
G1 X72.329 Y72.433 E598.55402 ; fill
G1 X73.261 Y72.433 E598.65682 ; fill
G1 X128.395 Y127.567 E607.25642 ; fill
G1 X129.327 Y127.567 E607.35922 ; fill
G1 X74.193 Y72.433 E615.95883 ; fill
G1 X75.125 Y72.433 E616.06163 ; fill
G1 X130.259 Y127.567 E624.66123 ; fill
G1 X131.191 Y127.567 E624.76403 ; fill
G1 X76.057 Y72.433 E633.36363 ; fill
G1 X76.989 Y72.433 E633.46643 ; fill
G1 X132.123 Y127.567 E642.06603 ; fill
G1 X133.055 Y127.567 E642.16884 ; fill
G1 X77.921 Y72.433 E650.76844 ; fill
G1 X78.853 Y72.433 E650.87124 ; fill
G1 X133.987 Y127.567 E659.47084 ; fill
G1 X134.919 Y127.567 E659.57364 ; fill
G1 X79.786 Y72.433 E668.17324 ; fill
G1 X80.718 Y72.433 E668.27605 ; fill
G1 X135.851 Y127.567 E676.87565 ; fill
G1 X136.783 Y127.567 E676.97845 ; fill
G1 X81.650 Y72.433 E685.57805 ; fill
G1 X82.582 Y72.433 E685.68085 ; fill
G1 X137.716 Y127.567 E694.28045 ; fill
G1 X138.648 Y127.567 E694.38326 ; fill
G1 X83.514 Y72.433 E702.98286 ; fill
G1 X84.446 Y72.433 E703.08566 ; fill
G1 X139.580 Y127.567 E711.68526 ; fill
G1 X140.512 Y127.567 E711.78806 ; fill
G1 X85.378 Y72.433 E720.38766 ; fill
G1 X86.310 Y72.433 E720.49047 ; fill
G1 X141.444 Y127.567 E729.09007 ; fill
G1 X142.376 Y127.567 E729.19287 ; fill
G1 X87.242 Y72.433 E737.79247 ; fill
G1 X88.174 Y72.433 E737.89527 ; fill
G1 X143.308 Y127.567 E746.49487 ; fill
G1 X144.240 Y127.567 E746.59768 ; fill
G1 X89.106 Y72.433 E755.19728 ; fill
G1 X90.039 Y72.433 E755.30008 ; fill
G1 X145.172 Y127.567 E763.89968 ; fill
G1 X145.317 Y126.779 E763.98799 ; fill
G1 X90.971 Y72.433 E772.46475 ; fill
G1 X91.903 Y72.433 E772.56755 ; fill
G1 X145.317 Y125.847 E780.89893 ; fill
G1 X145.317 Y124.915 E781.00173 ; fill
G1 X92.835 Y72.433 E789.18772 ; fill
G1 X93.767 Y72.433 E789.29052 ; fill
G1 X145.317 Y123.983 E797.33113 ; fill
G1 X145.317 Y123.051 E797.43393 ; fill
G1 X94.699 Y72.433 E805.32915 ; fill
G1 X95.631 Y72.433 E805.43195 ; fill
G1 X145.317 Y122.119 E813.18178 ; fill
G1 X145.317 Y121.187 E813.28459 ; fill
G1 X96.563 Y72.433 E820.88903 ; fill
G1 X97.495 Y72.433 E820.99184 ; fill
G1 X145.317 Y120.255 E828.45090 ; fill
G1 X145.317 Y119.323 E828.55370 ; fill
G1 X98.427 Y72.433 E835.86737 ; fill
G1 X99.360 Y72.433 E835.97018 ; fill
G1 X145.317 Y118.390 E843.13847 ; fill
G1 X145.317 Y117.458 E843.24127 ; fill
G1 X100.292 Y72.433 E850.26417 ; fill
G1 X101.224 Y72.433 E850.36698 ; fill
G1 X145.317 Y116.526 E857.24449 ; fill
G1 X145.317 Y115.594 E857.34730 ; fill
G1 X102.156 Y72.433 E864.07943 ; fill
G1 X103.088 Y72.433 E864.18223 ; fill
G1 X145.317 Y114.662 E870.76898 ; fill
G1 X145.317 Y113.730 E870.87178 ; fill
G1 X104.020 Y72.433 E877.31315 ; fill
G1 X104.952 Y72.433 E877.41595 ; fill
G1 X145.317 Y112.798 E883.71192 ; fill
G1 X145.317 Y111.866 E883.81473 ; fill
G1 X105.884 Y72.433 E889.96532 ; fill
G1 X106.816 Y72.433 E890.06812 ; fill
G1 X145.317 Y110.934 E896.07333 ; fill
G1 X145.317 Y110.002 E896.17613 ; fill
G1 X107.748 Y72.433 E902.03595 ; fill
G1 X108.680 Y72.433 E902.13875 ; fill
G1 X145.317 Y109.069 E907.85318 ; fill
G1 X145.317 Y108.137 E907.95599 ; fill
G1 X109.613 Y72.433 E913.52504 ; fill
G1 X110.545 Y72.433 E913.62784 ; fill
G1 X145.317 Y107.205 E919.05150 ; fill
G1 X145.317 Y106.273 E919.15430 ; fill
G1 X111.477 Y72.433 E924.43258 ; fill
G1 X112.409 Y72.433 E924.53538 ; fill
G1 X145.317 Y105.341 E929.66827 ; fill
G1 X145.317 Y104.409 E929.77108 ; fill
G1 X113.341 Y72.433 E934.75858 ; fill
G1 X114.273 Y72.433 E934.86139 ; fill
G1 X145.317 Y103.477 E939.70351 ; fill
G1 X145.317 Y102.545 E939.80631 ; fill
G1 X115.205 Y72.433 E944.50304 ; fill
G1 X116.137 Y72.433 E944.60585 ; fill
G1 X145.317 Y101.613 E949.15720 ; fill
G1 X145.317 Y100.681 E949.26000 ; fill
G1 X117.069 Y72.433 E953.66596 ; fill
G1 X118.001 Y72.433 E953.76876 ; fill
G1 X138.817 Y93.249 E957.01549 ; fill
G1 X139.001 Y93.433 F7800.000 ; move to first fill point
G1 X145.317 Y99.749 F1080.000 E958.00055 ; fill
G1 X145.317 Y98.816 E958.10335 ; fill
G1 X139.934 Y93.433 E958.94303 ; fill
G1 X140.866 Y93.433 E959.04583 ; fill
G1 X145.317 Y97.884 E959.74012 ; fill
G1 X145.317 Y96.952 E959.84292 ; fill
G1 X141.798 Y93.433 E960.39183 ; fill
G1 X142.730 Y93.433 E960.49463 ; fill
G1 X145.317 Y96.020 E960.89815 ; fill
G1 X145.317 Y95.088 E961.00095 ; fill
G1 X143.662 Y93.433 E961.25908 ; fill
G1 X144.594 Y93.433 E961.36189 ; fill
G1 X145.317 Y94.156 E961.47463 ; fill
G1 X138.817 Y92.316 F7800.000 ; move to first fill point
G1 X118.934 Y72.433 F1080.000 E964.57597 ; fill
G1 X119.866 Y72.433 E964.67878 ; fill
G1 X138.817 Y91.384 E967.63473 ; fill
G1 X138.817 Y90.452 E967.73753 ; fill
G1 X120.798 Y72.433 E970.54810 ; fill
G1 X121.730 Y72.433 E970.65091 ; fill
G1 X138.817 Y89.520 E973.31609 ; fill
G1 X138.817 Y88.588 E973.41890 ; fill
G1 X122.662 Y72.433 E975.93869 ; fill
G1 X123.594 Y72.433 E976.04150 ; fill
G1 X138.817 Y87.656 E978.41591 ; fill
G1 X138.817 Y86.724 E978.51871 ; fill
G1 X124.526 Y72.433 E980.74774 ; fill
G1 X125.458 Y72.433 E980.85054 ; fill
G1 X138.817 Y85.792 E982.93419 ; fill
G1 X138.817 Y84.860 E983.03699 ; fill
G1 X126.390 Y72.433 E984.97525 ; fill
G1 X127.322 Y72.433 E985.07805 ; fill
G1 X138.817 Y83.928 E986.87092 ; fill
G1 X138.817 Y82.995 E986.97372 ; fill
G1 X128.255 Y72.433 E988.62121 ; fill
G1 X129.187 Y72.433 E988.72401 ; fill
G1 X138.817 Y82.063 E990.22611 ; fill
G1 X138.817 Y81.131 E990.32891 ; fill
G1 X130.119 Y72.433 E991.68563 ; fill
G1 X131.051 Y72.433 E991.78843 ; fill
G1 X138.817 Y80.199 E992.99976 ; fill
G1 X138.817 Y79.267 E993.10256 ; fill
G1 X131.983 Y72.433 E994.16851 ; fill
G1 X132.915 Y72.433 E994.27131 ; fill
G1 X138.817 Y78.335 E995.19187 ; fill
G1 X138.817 Y77.403 E995.29467 ; fill
G1 X133.847 Y72.433 E996.06984 ; fill
G1 X134.779 Y72.433 E996.17264 ; fill
G1 X138.817 Y76.471 E996.80243 ; fill
G1 X138.817 Y75.539 E996.90523 ; fill
G1 X135.711 Y72.433 E997.38963 ; fill
