; generated by Slic3r 0.9.10b on 2014-03-12 at 01:14:38

; layer_height = 0.4
; perimeters = 2
; top_solid_layers = 3
; bottom_solid_layers = 3
; fill_density = 0.3
; perimeter_speed = 30
; infill_speed = 60
; travel_speed = 130
; nozzle_diameter = 0.4
; filament_diameter = 1.75
; extrusion_multiplier = 1.07
; perimeters extrusion width = 0.42mm
; infill extrusion width = 0.42mm
; solid infill extrusion width = 0.42mm
; top infill extrusion width = 0.42mm
; first layer extrusion width = 0.70mm

G21 ; set units to millimeters
M107 ; disable fan
M190 S60 ; wait for bed temperature to be reached
M104 S185 ; set temperature
G28 ; home all axes
G1 Z5 F5000 ; lift nozzle
M109 S185 ; wait for temperature to be reached
G90 ; use absolute coordinates
G92 E0 ; reset extrusion distance
M82 ; use absolute distances for extrusion
G1 F1800.000 E-1.00000 ; retract
G92 E0 ; reset extrusion distance
G1 Z-0.150 F7800.000 ; move to next layer (0)
G1 X71.466 Y73.672 ; move to first skirt point
G1 F1800.000 E1.00000 ; compensate retraction
G1 X72.826 Y72.452 F540.000 E1.18081 ; skirt
G1 X76.236 Y69.572 E1.62254 ; skirt
G1 X77.946 Y68.272 E1.83512 ; skirt
G1 X78.996 Y67.592 E1.95892 ; skirt
G1 X80.556 Y66.742 E2.13474 ; skirt
G1 X84.186 Y64.962 E2.53485 ; skirt
G1 X85.236 Y64.542 E2.64677 ; skirt
G1 X86.186 Y64.232 E2.74566 ; skirt
G1 X86.976 Y63.992 E2.82737 ; skirt
G1 X88.166 Y63.712 E2.94836 ; skirt
G1 X89.396 Y63.622 E3.07041 ; skirt
G1 X110.176 Y63.472 E5.12697 ; skirt
G1 X111.316 Y63.542 E5.24000 ; skirt
G1 X112.436 Y63.762 E5.35296 ; skirt
G1 X113.606 Y64.082 E5.47300 ; skirt
G1 X114.226 Y64.282 E5.53747 ; skirt
G1 X115.076 Y64.612 E5.62771 ; skirt
G1 X119.456 Y66.562 E6.10219 ; skirt
G1 X120.186 Y66.922 E6.18275 ; skirt
G1 X120.876 Y67.352 E6.26321 ; skirt
G1 X122.056 Y68.192 E6.40655 ; skirt
G1 X122.846 Y68.832 E6.50717 ; skirt
G1 X127.786 Y73.312 E7.16716 ; skirt
G1 X128.416 Y73.942 E7.25533 ; skirt
G1 X129.946 Y75.652 E7.48242 ; skirt
G1 X131.116 Y77.142 E7.66990 ; skirt
G1 X132.316 Y78.782 E7.87101 ; skirt
G1 X133.016 Y79.862 E7.99838 ; skirt
G1 X133.746 Y81.062 E8.13739 ; skirt
G1 X134.056 Y81.612 E8.19987 ; skirt
G1 X135.046 Y83.542 E8.41454 ; skirt
G1 X135.486 Y84.552 E8.52357 ; skirt
G1 X136.046 Y86.112 E8.68760 ; skirt
G1 X137.426 Y90.572 E9.14963 ; skirt
G1 X137.566 Y91.072 E9.20101 ; skirt
G1 X137.996 Y92.912 E9.38802 ; skirt
G1 X138.366 Y95.122 E9.60977 ; skirt
G1 X138.466 Y96.022 E9.69939 ; skirt
G1 X138.576 Y97.852 E9.88082 ; skirt
G1 X138.606 Y103.072 E10.39743 ; skirt
G1 X138.536 Y104.152 E10.50454 ; skirt
G1 X138.366 Y105.492 E10.63822 ; skirt
G1 X138.096 Y106.812 E10.77155 ; skirt
G1 X137.526 Y108.732 E10.96976 ; skirt
G1 X135.816 Y113.762 E11.49554 ; skirt
G1 X135.546 Y114.442 E11.56795 ; skirt
G1 X134.306 Y117.272 E11.87372 ; skirt
G1 X133.256 Y119.502 E12.11766 ; skirt
G1 X132.696 Y120.512 E12.23195 ; skirt
G1 X132.456 Y120.882 E12.27559 ; skirt
G1 X131.096 Y122.802 E12.50845 ; skirt
G1 X130.256 Y123.822 E12.63922 ; skirt
G1 X128.186 Y125.952 E12.93316 ; skirt
G1 X127.726 Y126.392 E12.99615 ; skirt
G1 X124.516 Y129.242 E13.42098 ; skirt
G1 X123.726 Y129.862 E13.52036 ; skirt
G1 X122.676 Y130.592 E13.64692 ; skirt
G1 X120.236 Y132.222 E13.93732 ; skirt
G1 X119.606 Y132.602 E14.01013 ; skirt
G1 X118.716 Y133.092 E14.11068 ; skirt
G1 X117.486 Y133.652 E14.24443 ; skirt
G1 X111.636 Y135.752 E14.85955 ; skirt
G1 X109.516 Y136.372 E15.07814 ; skirt
G1 X109.146 Y136.472 E15.11607 ; skirt
G1 X107.476 Y136.832 E15.28514 ; skirt
G1 X106.256 Y137.062 E15.40801 ; skirt
G1 X104.826 Y137.282 E15.55119 ; skirt
G1 X103.166 Y137.472 E15.71655 ; skirt
G1 X101.346 Y137.582 E15.89699 ; skirt
G1 X100.636 Y137.592 E15.96726 ; skirt
G1 X94.926 Y137.452 E16.53253 ; skirt
G1 X93.796 Y137.322 E16.64509 ; skirt
G1 X92.216 Y137.012 E16.80444 ; skirt
G1 X88.486 Y136.022 E17.18636 ; skirt
G1 X87.576 Y135.752 E17.28030 ; skirt
G1 X86.726 Y135.442 E17.36984 ; skirt
G1 X82.876 Y133.772 E17.78516 ; skirt
G1 X81.636 Y133.192 E17.92064 ; skirt
G1 X81.016 Y132.862 E17.99015 ; skirt
G1 X78.936 Y131.662 E18.22779 ; skirt
G1 X77.716 Y130.852 E18.37272 ; skirt
G1 X76.226 Y129.832 E18.55142 ; skirt
G1 X75.586 Y129.362 E18.63000 ; skirt
G1 X74.486 Y128.462 E18.77066 ; skirt
G1 X74.016 Y128.052 E18.83238 ; skirt
G1 X73.466 Y127.512 E18.90866 ; skirt
G1 X70.666 Y124.522 E19.31406 ; skirt
G1 X69.666 Y123.412 E19.46192 ; skirt
G1 X69.076 Y122.672 E19.55558 ; skirt
G1 X66.496 Y119.062 E19.99471 ; skirt
G1 X66.156 Y118.542 E20.05619 ; skirt
G1 X65.166 Y116.892 E20.24662 ; skirt
G1 X64.676 Y115.992 E20.34804 ; skirt
G1 X64.356 Y115.342 E20.41974 ; skirt
G1 X63.536 Y113.472 E20.62181 ; skirt
G1 X63.136 Y112.352 E20.73951 ; skirt
G1 X62.706 Y110.812 E20.89775 ; skirt
G1 X61.866 Y107.152 E21.26938 ; skirt
G1 X61.566 Y105.542 E21.43145 ; skirt
G1 X61.476 Y104.872 E21.49836 ; skirt
G1 X61.116 Y101.132 E21.87020 ; skirt
G1 X61.086 Y100.272 E21.95536 ; skirt
G1 X61.096 Y98.962 E22.08501 ; skirt
G1 X61.146 Y98.102 E22.17026 ; skirt
G1 X61.706 Y92.972 E22.68097 ; skirt
G1 X61.836 Y92.152 E22.76313 ; skirt
G1 X62.496 Y88.992 E23.08261 ; skirt
G1 X62.766 Y87.992 E23.18512 ; skirt
G1 X63.166 Y87.022 E23.28896 ; skirt
G1 X65.136 Y82.952 E23.73645 ; skirt
G1 X66.116 Y81.092 E23.94451 ; skirt
G1 X66.516 Y80.402 E24.02344 ; skirt
G1 X69.146 Y76.442 E24.49391 ; skirt
G1 X69.616 Y75.792 E24.57329 ; skirt
G1 X70.556 Y74.632 E24.72105 ; skirt
G1 X71.401 Y73.741 E24.84252 ; skirt
G1 X71.896 Y74.142 F7800.000 ; move to first skirt point
G1 X73.036 Y73.112 F540.000 E24.99457 ; skirt
G1 X76.646 Y70.062 E25.46227 ; skirt
G1 X78.326 Y68.782 E25.67129 ; skirt
G1 X79.306 Y68.152 E25.78659 ; skirt
G1 X81.136 Y67.152 E25.99298 ; skirt
G1 X84.466 Y65.532 E26.35946 ; skirt
G1 X85.436 Y65.142 E26.46292 ; skirt
G1 X86.366 Y64.832 E26.55994 ; skirt
G1 X87.156 Y64.592 E26.64165 ; skirt
G1 X88.266 Y64.342 E26.75425 ; skirt
G1 X89.396 Y64.252 E26.86644 ; skirt
G1 X110.176 Y64.102 E28.92299 ; skirt
G1 X111.236 Y64.172 E29.02812 ; skirt
G1 X112.276 Y64.372 E29.13293 ; skirt
G1 X113.416 Y64.682 E29.24985 ; skirt
G1 X114.036 Y64.882 E29.31432 ; skirt
G1 X114.826 Y65.192 E29.39831 ; skirt
G1 X119.206 Y67.142 E29.87279 ; skirt
G1 X119.876 Y67.472 E29.94671 ; skirt
G1 X120.506 Y67.882 E30.02110 ; skirt
G1 X121.926 Y68.892 E30.19355 ; skirt
G1 X122.416 Y69.302 E30.25678 ; skirt
G1 X127.356 Y73.782 E30.91677 ; skirt
G1 X127.936 Y74.372 E30.99865 ; skirt
G1 X129.466 Y76.082 E31.22573 ; skirt
G1 X130.696 Y77.642 E31.42233 ; skirt
G1 X131.786 Y79.132 E31.60503 ; skirt
G1 X132.486 Y80.212 E31.73240 ; skirt
G1 X133.206 Y81.392 E31.86920 ; skirt
G1 X133.496 Y81.902 E31.92727 ; skirt
G1 X134.486 Y83.832 E32.14193 ; skirt
G1 X134.886 Y84.772 E32.24303 ; skirt
G1 X135.566 Y86.672 E32.44274 ; skirt
G1 X136.826 Y90.762 E32.86628 ; skirt
G1 X136.946 Y91.222 E32.91333 ; skirt
G1 X137.366 Y93.012 E33.09529 ; skirt
G1 X137.736 Y95.222 E33.31705 ; skirt
G1 X137.826 Y96.062 E33.40066 ; skirt
G1 X137.956 Y98.312 E33.62370 ; skirt
G1 X137.976 Y103.072 E34.09478 ; skirt
G1 X137.906 Y104.072 E34.19399 ; skirt
G1 X137.736 Y105.412 E34.32766 ; skirt
G1 X137.486 Y106.632 E34.45091 ; skirt
G1 X136.926 Y108.522 E34.64599 ; skirt
G1 X135.216 Y113.562 E35.17270 ; skirt
G1 X134.966 Y114.192 E35.23978 ; skirt
G1 X133.816 Y116.812 E35.52295 ; skirt
G1 X132.676 Y119.232 E35.78769 ; skirt
G1 X132.156 Y120.162 E35.89313 ; skirt
G1 X131.746 Y120.802 E35.96835 ; skirt
G1 X130.586 Y122.442 E36.16715 ; skirt
G1 X129.796 Y123.382 E36.28867 ; skirt
G1 X127.726 Y125.512 E36.58261 ; skirt
G1 X127.306 Y125.912 E36.64001 ; skirt
G1 X124.096 Y128.762 E37.06484 ; skirt
G1 X123.366 Y129.342 E37.15711 ; skirt
G1 X122.446 Y129.982 E37.26802 ; skirt
G1 X119.876 Y131.692 E37.57352 ; skirt
G1 X119.296 Y132.052 E37.64107 ; skirt
G1 X118.406 Y132.542 E37.74162 ; skirt
G1 X117.266 Y133.052 E37.86521 ; skirt
G1 X111.416 Y135.152 E38.48033 ; skirt
G1 X110.886 Y135.322 E38.53542 ; skirt
G1 X108.976 Y135.852 E38.73158 ; skirt
G1 X107.126 Y136.262 E38.91911 ; skirt
G1 X106.146 Y136.442 E39.01772 ; skirt
G1 X104.746 Y136.652 E39.15782 ; skirt
G1 X103.626 Y136.792 E39.26953 ; skirt
G1 X101.306 Y136.942 E39.49960 ; skirt
G1 X100.646 Y136.952 E39.56493 ; skirt
G1 X94.956 Y136.822 E40.12819 ; skirt
G1 X93.916 Y136.702 E40.23180 ; skirt
G1 X92.986 Y136.532 E40.32536 ; skirt
G1 X92.376 Y136.392 E40.38730 ; skirt
G1 X88.646 Y135.402 E40.76922 ; skirt
G1 X87.766 Y135.142 E40.86003 ; skirt
G1 X86.976 Y134.862 E40.94298 ; skirt
G1 X83.316 Y133.272 E41.33789 ; skirt
G1 X81.906 Y132.612 E41.49197 ; skirt
G1 X81.326 Y132.312 E41.55659 ; skirt
G1 X79.296 Y131.132 E41.78896 ; skirt
G1 X77.496 Y129.932 E42.00306 ; skirt
G1 X76.576 Y129.312 E42.11285 ; skirt
G1 X75.986 Y128.872 E42.18569 ; skirt
G1 X74.886 Y127.972 E42.32635 ; skirt
G1 X74.456 Y127.592 E42.38314 ; skirt
G1 X73.936 Y127.072 E42.45592 ; skirt
G1 X71.136 Y124.082 E42.86131 ; skirt
G1 X70.146 Y122.982 E43.00777 ; skirt
G1 X69.596 Y122.302 E43.09433 ; skirt
G1 X67.016 Y118.692 E43.53345 ; skirt
G1 X66.696 Y118.202 E43.59137 ; skirt
G1 X65.726 Y116.592 E43.77739 ; skirt
G1 X65.236 Y115.692 E43.87880 ; skirt
G1 X64.936 Y115.092 E43.94519 ; skirt
G1 X64.116 Y113.222 E44.14727 ; skirt
G1 X63.746 Y112.182 E44.25651 ; skirt
G1 X63.326 Y110.672 E44.41162 ; skirt
G1 X62.486 Y107.012 E44.78325 ; skirt
G1 X62.196 Y105.422 E44.94320 ; skirt
G1 X62.106 Y104.812 E45.00422 ; skirt
G1 X61.756 Y101.072 E45.37597 ; skirt
G1 X61.716 Y100.282 E45.45425 ; skirt
G1 X61.726 Y98.972 E45.58390 ; skirt
G1 X61.776 Y98.172 E45.66323 ; skirt
G1 X62.336 Y93.042 E46.17394 ; skirt
G1 X62.456 Y92.282 E46.25008 ; skirt
G1 X63.116 Y89.122 E46.56956 ; skirt
G1 X63.376 Y88.192 E46.66513 ; skirt
G1 X63.736 Y87.302 E46.76014 ; skirt
G1 X65.706 Y83.232 E47.20763 ; skirt
G1 X66.676 Y81.392 E47.41348 ; skirt
G1 X67.046 Y80.752 E47.48664 ; skirt
G1 X69.676 Y76.792 E47.95710 ; skirt
G1 X70.116 Y76.192 E48.03074 ; skirt
G1 X71.056 Y75.032 E48.17850 ; skirt
G1 X71.831 Y74.211 E48.29018 ; skirt
G1 X72.326 Y74.612 F7800.000 ; move to first skirt point
G1 X73.646 Y73.422 F540.000 E48.46606 ; skirt
G1 X77.056 Y70.542 E48.90779 ; skirt
G1 X78.706 Y69.282 E49.11325 ; skirt
G1 X79.606 Y68.712 E49.21868 ; skirt
G1 X81.416 Y67.722 E49.42285 ; skirt
G1 X84.736 Y66.112 E49.78801 ; skirt
G1 X85.636 Y65.742 E49.88431 ; skirt
G1 X86.396 Y65.492 E49.96349 ; skirt
G1 X87.346 Y65.202 E50.06179 ; skirt
G1 X88.366 Y64.972 E50.16527 ; skirt
G1 X89.406 Y64.892 E50.26849 ; skirt
G1 X110.186 Y64.742 E52.32505 ; skirt
G1 X111.156 Y64.802 E52.42123 ; skirt
G1 X112.106 Y64.982 E52.51692 ; skirt
G1 X112.856 Y65.182 E52.59373 ; skirt
G1 X113.836 Y65.492 E52.69546 ; skirt
G1 X114.566 Y65.772 E52.77283 ; skirt
G1 X118.946 Y67.722 E53.24732 ; skirt
G1 X119.566 Y68.032 E53.31592 ; skirt
G1 X120.146 Y68.402 E53.38401 ; skirt
G1 X121.006 Y69.002 E53.48778 ; skirt
G1 X121.536 Y69.402 E53.55350 ; skirt
G1 X121.986 Y69.772 E53.61115 ; skirt
G1 X126.926 Y74.252 E54.27114 ; skirt
G1 X127.466 Y74.792 E54.34672 ; skirt
G1 X128.996 Y76.502 E54.57380 ; skirt
G1 X129.336 Y76.912 E54.62651 ; skirt
G1 X130.106 Y77.912 E54.75142 ; skirt
G1 X130.986 Y79.102 E54.89789 ; skirt
G1 X131.246 Y79.482 E54.94345 ; skirt
G1 X132.056 Y80.722 E55.09003 ; skirt
G1 X132.666 Y81.722 E55.20596 ; skirt
G1 X132.926 Y82.192 E55.25911 ; skirt
G1 X133.916 Y84.122 E55.47378 ; skirt
G1 X134.286 Y84.982 E55.56643 ; skirt
G1 X134.956 Y86.862 E55.76395 ; skirt
G1 X136.216 Y90.952 E56.18749 ; skirt
G1 X136.326 Y91.372 E56.23046 ; skirt
G1 X136.736 Y93.122 E56.40834 ; skirt
G1 X137.106 Y95.332 E56.63009 ; skirt
G1 X137.196 Y96.092 E56.70583 ; skirt
G1 X137.306 Y97.922 E56.88727 ; skirt
G1 X137.336 Y103.072 E57.39695 ; skirt
G1 X137.276 Y103.992 E57.48819 ; skirt
G1 X137.106 Y105.332 E57.62186 ; skirt
G1 X136.876 Y106.452 E57.73502 ; skirt
G1 X136.416 Y108.022 E57.89693 ; skirt
G1 X134.606 Y113.352 E58.45400 ; skirt
G1 X134.386 Y113.932 E58.51539 ; skirt
G1 X133.156 Y116.732 E58.81805 ; skirt
G1 X132.106 Y118.962 E59.06198 ; skirt
G1 X131.626 Y119.822 E59.15945 ; skirt
G1 X131.386 Y120.192 E59.20310 ; skirt
G1 X130.066 Y122.072 E59.43043 ; skirt
G1 X129.336 Y122.942 E59.54283 ; skirt
G1 X126.886 Y125.442 E59.88924 ; skirt
G1 X123.676 Y128.292 E60.31406 ; skirt
G1 X122.996 Y128.822 E60.39938 ; skirt
G1 X121.966 Y129.542 E60.52375 ; skirt
G1 X119.526 Y131.172 E60.81415 ; skirt
G1 X118.996 Y131.492 E60.87542 ; skirt
G1 X118.106 Y131.982 E60.97597 ; skirt
G1 X117.056 Y132.452 E61.08982 ; skirt
G1 X111.206 Y134.552 E61.70494 ; skirt
G1 X110.716 Y134.712 E61.75595 ; skirt
G1 X108.816 Y135.242 E61.95116 ; skirt
G1 X107.216 Y135.592 E62.11325 ; skirt
G1 X105.776 Y135.852 E62.25807 ; skirt
G1 X104.666 Y136.022 E62.36920 ; skirt
G1 X103.546 Y136.162 E62.48090 ; skirt
G1 X101.266 Y136.312 E62.70703 ; skirt
G1 X100.656 Y136.322 E62.76741 ; skirt
G1 X94.986 Y136.182 E63.32871 ; skirt
G1 X94.026 Y136.072 E63.42434 ; skirt
G1 X92.536 Y135.782 E63.57457 ; skirt
G1 X88.806 Y134.792 E63.95649 ; skirt
G1 X87.946 Y134.532 E64.04540 ; skirt
G1 X87.226 Y134.272 E64.12116 ; skirt
G1 X86.106 Y133.802 E64.24137 ; skirt
G1 X83.416 Y132.622 E64.53207 ; skirt
G1 X82.176 Y132.042 E64.66755 ; skirt
G1 X81.646 Y131.762 E64.72687 ; skirt
G1 X79.646 Y130.602 E64.95568 ; skirt
G1 X78.426 Y129.792 E65.10061 ; skirt
G1 X76.936 Y128.782 E65.27875 ; skirt
G1 X76.396 Y128.382 E65.34526 ; skirt
G1 X75.296 Y127.482 E65.48591 ; skirt
G1 X74.896 Y127.132 E65.53852 ; skirt
G1 X74.396 Y126.642 E65.60780 ; skirt
G1 X71.596 Y123.652 E66.01320 ; skirt
G1 X70.616 Y122.562 E66.15826 ; skirt
G1 X70.106 Y121.932 E66.23847 ; skirt
G1 X67.526 Y118.322 E66.67760 ; skirt
G1 X66.276 Y116.292 E66.91353 ; skirt
G1 X65.786 Y115.392 E67.01495 ; skirt
G1 X65.516 Y114.832 E67.07647 ; skirt
G1 X64.696 Y112.962 E67.27855 ; skirt
G1 X64.356 Y112.012 E67.37840 ; skirt
G1 X63.946 Y110.532 E67.53039 ; skirt
G1 X63.106 Y106.872 E67.90202 ; skirt
G1 X62.816 Y105.312 E68.05905 ; skirt
G1 X62.736 Y104.742 E68.11601 ; skirt
G1 X62.386 Y101.012 E68.48678 ; skirt
G1 X62.356 Y100.282 E68.55908 ; skirt
G1 X62.366 Y98.972 E68.68873 ; skirt
G1 X62.406 Y98.242 E68.76108 ; skirt
G1 X62.966 Y93.112 E69.27179 ; skirt
G1 X63.076 Y92.412 E69.34192 ; skirt
G1 X63.736 Y89.252 E69.66140 ; skirt
G1 X63.976 Y88.402 E69.74880 ; skirt
G1 X64.316 Y87.572 E69.83757 ; skirt
G1 X66.396 Y83.272 E70.31029 ; skirt
G1 X67.236 Y81.682 E70.48826 ; skirt
G1 X67.586 Y81.102 E70.55530 ; skirt
G1 X70.206 Y77.142 E71.02521 ; skirt
G1 X70.606 Y76.592 E71.09252 ; skirt
G1 X71.546 Y75.432 E71.24028 ; skirt
G1 X72.261 Y74.681 E71.34284 ; skirt
G1 X72.746 Y75.092 F7800.000 ; move to first skirt point
G1 X74.056 Y73.912 F540.000 E71.51733 ; skirt
G1 X77.466 Y71.032 E71.95906 ; skirt
G1 X79.096 Y69.792 E72.16174 ; skirt
G1 X79.916 Y69.262 E72.25837 ; skirt
G1 X81.696 Y68.292 E72.45898 ; skirt
G1 X85.016 Y66.682 E72.82415 ; skirt
G1 X85.836 Y66.352 E72.91162 ; skirt
G1 X86.736 Y66.052 E73.00551 ; skirt
G1 X87.526 Y65.812 E73.08722 ; skirt
G1 X88.456 Y65.602 E73.18157 ; skirt
G1 X89.406 Y65.522 E73.27592 ; skirt
G1 X110.186 Y65.372 E75.33248 ; skirt
G1 X111.076 Y65.432 E75.42076 ; skirt
G1 X111.946 Y65.602 E75.50848 ; skirt
G1 X113.026 Y65.892 E75.61915 ; skirt
G1 X113.646 Y66.092 E75.68362 ; skirt
G1 X114.306 Y66.352 E75.75383 ; skirt
G1 X118.686 Y68.302 E76.22831 ; skirt
G1 X119.246 Y68.582 E76.29028 ; skirt
G1 X119.786 Y68.922 E76.35343 ; skirt
G1 X121.156 Y69.902 E76.52013 ; skirt
G1 X121.566 Y70.242 E76.57284 ; skirt
G1 X126.506 Y74.722 E77.23283 ; skirt
G1 X126.996 Y75.222 E77.30211 ; skirt
G1 X128.526 Y76.932 E77.52919 ; skirt
G1 X128.836 Y77.302 E77.57696 ; skirt
G1 X129.606 Y78.302 E77.70187 ; skirt
G1 X130.716 Y79.822 E77.88814 ; skirt
G1 X131.416 Y80.902 E78.01550 ; skirt
G1 X132.116 Y82.052 E78.14874 ; skirt
G1 X132.356 Y82.482 E78.19748 ; skirt
G1 X133.346 Y84.412 E78.41214 ; skirt
G1 X133.696 Y85.202 E78.49765 ; skirt
G1 X134.256 Y86.762 E78.66169 ; skirt
G1 X135.716 Y91.522 E79.15442 ; skirt
G1 X136.016 Y92.752 E79.27972 ; skirt
G1 X136.476 Y95.432 E79.54882 ; skirt
G1 X136.556 Y96.132 E79.61855 ; skirt
