; generated by Slic3r 0.9.10b on 2014-02-26 at 23:52:20

; layer_height = 0.25
; perimeters = 2
; top_solid_layers = 3
; bottom_solid_layers = 3
; fill_density = 0.3
; perimeter_speed = 30
; infill_speed = 60
; travel_speed = 130
; nozzle_diameter = 0.35
; filament_diameter = 1.75
; extrusion_multiplier = 1.07
; perimeters extrusion width = 0.39mm
; infill extrusion width = 0.39mm
; solid infill extrusion width = 0.39mm
; top infill extrusion width = 0.39mm
; support material extrusion width = 0.39mm
; first layer extrusion width = 0.50mm

G21 ; set units to millimeters
M107 ; disable fan
M190 S60 ; wait for bed temperature to be reached
M104 S185 ; set temperature
G28 ; home all axes
G1 Z5 F5000 ; lift nozzle
M109 S185 ; wait for temperature to be reached
G90 ; use absolute coordinates
G92 E0 ; reset extrusion distance
M82 ; use absolute distances for extrusion
G1 F1800.000 E-1.00000 ; retract
G92 E0 ; reset extrusion distance
G1 Z0.350 F7800.000 ; move to next layer (0)
G1 X71.439 Y71.439 ; move to first skirt point
G1 F1800.000 E1.00000 ; compensate retraction
G1 X72.019 Y70.919 F540.000 E1.04053 ; skirt
G1 X76.949 Y66.879 E1.37214 ; skirt
G1 X77.569 Y66.419 E1.41231 ; skirt
G1 X78.229 Y66.029 E1.45219 ; skirt
G1 X83.849 Y63.029 E1.78363 ; skirt
G1 X84.549 Y62.699 E1.82389 ; skirt
G1 X85.269 Y62.439 E1.86372 ; skirt
G1 X91.359 Y60.589 E2.19486 ; skirt
G1 X92.109 Y60.399 E2.23511 ; skirt
G1 X92.869 Y60.289 E2.27507 ; skirt
G1 X99.029 Y59.679 E2.59712 ; skirt
G1 X99.589 Y59.639 E2.62633 ; skirt
G1 X100.769 Y59.669 E2.68774 ; skirt
G1 X107.109 Y60.289 E3.01916 ; skirt
G1 X107.869 Y60.399 E3.05912 ; skirt
G1 X108.629 Y60.589 E3.09987 ; skirt
G1 X114.719 Y62.439 E3.43101 ; skirt
G1 X115.439 Y62.699 E3.47084 ; skirt
G1 X116.139 Y63.029 E3.51110 ; skirt
G1 X121.759 Y66.029 E3.84254 ; skirt
G1 X122.419 Y66.419 E3.88243 ; skirt
G1 X123.039 Y66.879 E3.92259 ; skirt
G1 X127.969 Y70.919 E4.25421 ; skirt
G1 X128.549 Y71.439 E4.29473 ; skirt
G1 X129.069 Y72.019 E4.33526 ; skirt
G1 X133.109 Y76.949 E4.66687 ; skirt
G1 X133.569 Y77.569 E4.70704 ; skirt
G1 X133.959 Y78.229 E4.74692 ; skirt
G1 X136.959 Y83.849 E5.07837 ; skirt
G1 X137.289 Y84.549 E5.11863 ; skirt
G1 X137.549 Y85.269 E5.15846 ; skirt
G1 X139.399 Y91.359 E5.48960 ; skirt
G1 X139.589 Y92.109 E5.52985 ; skirt
G1 X139.699 Y92.869 E5.56980 ; skirt
G1 X140.329 Y99.219 E5.90179 ; skirt
G1 X140.369 Y99.999 E5.94243 ; skirt
G1 X140.329 Y100.779 E5.98306 ; skirt
G1 X139.699 Y107.119 E6.31454 ; skirt
G1 X139.589 Y107.879 E6.35449 ; skirt
G1 X139.399 Y108.629 E6.39474 ; skirt
G1 X137.549 Y114.719 E6.72588 ; skirt
G1 X137.289 Y115.439 E6.76571 ; skirt
G1 X136.959 Y116.139 E6.80597 ; skirt
G1 X133.959 Y121.759 E7.13741 ; skirt
G1 X133.569 Y122.419 E7.17730 ; skirt
G1 X133.109 Y123.039 E7.21746 ; skirt
G1 X129.069 Y127.969 E7.54907 ; skirt
G1 X128.549 Y128.549 E7.58960 ; skirt
G1 X127.969 Y129.069 E7.63013 ; skirt
G1 X123.039 Y133.109 E7.96174 ; skirt
G1 X122.419 Y133.569 E8.00191 ; skirt
G1 X121.759 Y133.959 E8.04179 ; skirt
G1 X116.139 Y136.959 E8.37323 ; skirt
G1 X115.439 Y137.289 E8.41350 ; skirt
G1 X114.719 Y137.549 E8.45332 ; skirt
G1 X108.629 Y139.399 E8.78446 ; skirt
G1 X107.879 Y139.589 E8.82472 ; skirt
G1 X107.119 Y139.699 E8.86467 ; skirt
G1 X100.779 Y140.329 E9.19614 ; skirt
G1 X99.999 Y140.369 E9.23678 ; skirt
G1 X99.219 Y140.329 E9.27741 ; skirt
G1 X92.869 Y139.699 E9.60940 ; skirt
G1 X92.109 Y139.589 E9.64936 ; skirt
G1 X91.359 Y139.399 E9.68961 ; skirt
G1 X85.269 Y137.549 E10.02075 ; skirt
G1 X84.549 Y137.289 E10.06057 ; skirt
G1 X83.849 Y136.959 E10.10084 ; skirt
G1 X78.229 Y133.959 E10.43228 ; skirt
G1 X77.569 Y133.569 E10.47216 ; skirt
G1 X76.949 Y133.109 E10.51233 ; skirt
G1 X72.019 Y129.069 E10.84394 ; skirt
G1 X71.439 Y128.549 E10.88447 ; skirt
G1 X70.919 Y127.969 E10.92500 ; skirt
G1 X66.879 Y123.039 E11.25661 ; skirt
G1 X66.419 Y122.419 E11.29678 ; skirt
G1 X66.029 Y121.759 E11.33666 ; skirt
G1 X63.029 Y116.139 E11.66810 ; skirt
G1 X62.699 Y115.439 E11.70836 ; skirt
G1 X62.439 Y114.719 E11.74819 ; skirt
G1 X60.589 Y108.629 E12.07933 ; skirt
G1 X60.399 Y107.869 E12.12009 ; skirt
G1 X60.289 Y107.109 E12.16004 ; skirt
G1 X59.669 Y100.769 E12.49146 ; skirt
G1 X59.629 Y99.999 E12.53158 ; skirt
G1 X59.669 Y99.239 E12.57117 ; skirt
G1 X60.289 Y92.889 E12.90311 ; skirt
G1 X60.399 Y92.119 E12.94358 ; skirt
G1 X60.589 Y91.359 E12.98434 ; skirt
G1 X62.439 Y85.269 E13.31548 ; skirt
G1 X62.699 Y84.549 E13.35531 ; skirt
G1 X63.029 Y83.849 E13.39557 ; skirt
G1 X66.029 Y78.229 E13.72701 ; skirt
G1 X66.419 Y77.569 E13.76689 ; skirt
G1 X66.879 Y76.949 E13.80706 ; skirt
G1 X70.919 Y72.019 E14.13867 ; skirt
G1 X71.392 Y71.491 E14.17555 ; skirt
G1 X71.769 Y71.769 F7800.000 ; move to first skirt point
G1 X72.319 Y71.279 F540.000 E14.21387 ; skirt
G1 X77.249 Y67.239 E14.54549 ; skirt
G1 X77.829 Y66.809 E14.58305 ; skirt
G1 X78.449 Y66.439 E14.62061 ; skirt
G1 X84.069 Y63.439 E14.95206 ; skirt
G1 X84.729 Y63.129 E14.98999 ; skirt
G1 X85.409 Y62.889 E15.02751 ; skirt
G1 X91.499 Y61.039 E15.35865 ; skirt
G1 X92.199 Y60.859 E15.39625 ; skirt
G1 X92.919 Y60.749 E15.43415 ; skirt
G1 X99.079 Y60.139 E15.75620 ; skirt
G1 X99.609 Y60.109 E15.78382 ; skirt
G1 X100.719 Y60.129 E15.84158 ; skirt
G1 X107.059 Y60.749 E16.17300 ; skirt
G1 X107.779 Y60.859 E16.21089 ; skirt
G1 X108.489 Y61.039 E16.24900 ; skirt
G1 X114.579 Y62.889 E16.58014 ; skirt
G1 X115.259 Y63.129 E16.61766 ; skirt
G1 X115.919 Y63.439 E16.65560 ; skirt
G1 X121.539 Y66.439 E16.98704 ; skirt
G1 X122.159 Y66.809 E17.02460 ; skirt
G1 X122.739 Y67.239 E17.06216 ; skirt
G1 X127.669 Y71.279 E17.39378 ; skirt
G1 X128.219 Y71.769 E17.43210 ; skirt
G1 X128.709 Y72.319 E17.47042 ; skirt
G1 X132.749 Y77.249 E17.80204 ; skirt
G1 X133.179 Y77.829 E17.83960 ; skirt
G1 X133.549 Y78.449 E17.87717 ; skirt
G1 X136.549 Y84.069 E18.20861 ; skirt
G1 X136.859 Y84.729 E18.24654 ; skirt
G1 X137.099 Y85.409 E18.28406 ; skirt
G1 X138.949 Y91.499 E18.61520 ; skirt
G1 X139.129 Y92.199 E18.65280 ; skirt
G1 X139.239 Y92.919 E18.69070 ; skirt
G1 X139.869 Y99.269 E19.02269 ; skirt
G1 X139.899 Y99.999 E19.06070 ; skirt
G1 X139.869 Y100.729 E19.09871 ; skirt
G1 X139.239 Y107.069 E19.43019 ; skirt
G1 X139.129 Y107.789 E19.46808 ; skirt
G1 X138.949 Y108.489 E19.50569 ; skirt
G1 X137.099 Y114.579 E19.83683 ; skirt
G1 X136.859 Y115.259 E19.87434 ; skirt
G1 X136.549 Y115.919 E19.91228 ; skirt
G1 X133.549 Y121.539 E20.24372 ; skirt
G1 X133.179 Y122.159 E20.28128 ; skirt
G1 X132.749 Y122.739 E20.31885 ; skirt
G1 X128.709 Y127.669 E20.65046 ; skirt
G1 X128.219 Y128.219 E20.68878 ; skirt
G1 X127.669 Y128.709 E20.72711 ; skirt
G1 X122.739 Y132.749 E21.05872 ; skirt
G1 X122.159 Y133.179 E21.09629 ; skirt
G1 X121.539 Y133.549 E21.13385 ; skirt
G1 X115.919 Y136.549 E21.46529 ; skirt
G1 X115.259 Y136.859 E21.50323 ; skirt
G1 X114.579 Y137.099 E21.54074 ; skirt
G1 X108.489 Y138.949 E21.87188 ; skirt
G1 X107.789 Y139.129 E21.90949 ; skirt
G1 X107.069 Y139.239 E21.94738 ; skirt
G1 X100.729 Y139.869 E22.27886 ; skirt
G1 X99.999 Y139.899 E22.31687 ; skirt
G1 X99.269 Y139.869 E22.35488 ; skirt
G1 X92.919 Y139.239 E22.68687 ; skirt
G1 X92.199 Y139.129 E22.72477 ; skirt
G1 X91.499 Y138.949 E22.76237 ; skirt
G1 X85.409 Y137.099 E23.09351 ; skirt
G1 X84.729 Y136.859 E23.13103 ; skirt
G1 X84.069 Y136.549 E23.16896 ; skirt
G1 X78.449 Y133.549 E23.50040 ; skirt
G1 X77.829 Y133.179 E23.53797 ; skirt
G1 X77.249 Y132.749 E23.57553 ; skirt
G1 X72.319 Y128.709 E23.90715 ; skirt
G1 X71.769 Y128.219 E23.94547 ; skirt
G1 X71.279 Y127.669 E23.98379 ; skirt
G1 X67.239 Y122.739 E24.31541 ; skirt
G1 X66.809 Y122.159 E24.35297 ; skirt
G1 X66.439 Y121.539 E24.39053 ; skirt
G1 X63.439 Y115.919 E24.72197 ; skirt
G1 X63.129 Y115.259 E24.75991 ; skirt
G1 X62.889 Y114.579 E24.79743 ; skirt
G1 X61.039 Y108.489 E25.12857 ; skirt
G1 X60.859 Y107.779 E25.16668 ; skirt
G1 X60.749 Y107.059 E25.20457 ; skirt
G1 X60.129 Y100.719 E25.53599 ; skirt
G1 X60.099 Y99.999 E25.57349 ; skirt
G1 X60.129 Y99.279 E25.61098 ; skirt
G1 X60.749 Y92.929 E25.94292 ; skirt
G1 X60.859 Y92.209 E25.98081 ; skirt
G1 X61.039 Y91.499 E26.01892 ; skirt
G1 X62.889 Y85.409 E26.35006 ; skirt
G1 X63.129 Y84.729 E26.38758 ; skirt
G1 X63.439 Y84.069 E26.42551 ; skirt
G1 X66.439 Y78.449 E26.75695 ; skirt
G1 X66.809 Y77.829 E26.79452 ; skirt
G1 X67.239 Y77.249 E26.83208 ; skirt
G1 X71.279 Y72.319 E27.16370 ; skirt
G1 X71.722 Y71.821 E27.19837 ; skirt
G1 X72.109 Y72.109 F7800.000 ; move to first skirt point
G1 X72.609 Y71.649 F540.000 E27.23372 ; skirt
G1 X77.539 Y67.609 E27.56533 ; skirt
G1 X78.089 Y67.199 E27.60102 ; skirt
G1 X78.669 Y66.849 E27.63626 ; skirt
G1 X84.289 Y63.849 E27.96771 ; skirt
G1 X84.909 Y63.559 E28.00332 ; skirt
G1 X85.539 Y63.329 E28.03821 ; skirt
G1 X91.629 Y61.479 E28.36935 ; skirt
G1 X92.289 Y61.319 E28.40468 ; skirt
G1 X92.969 Y61.219 E28.44044 ; skirt
G1 X99.639 Y60.569 E28.78910 ; skirt
G1 X100.679 Y60.599 E28.84323 ; skirt
G1 X107.019 Y61.219 E29.17466 ; skirt
G1 X107.689 Y61.319 E29.20990 ; skirt
G1 X108.359 Y61.479 E29.24574 ; skirt
G1 X114.449 Y63.329 E29.57688 ; skirt
G1 X115.079 Y63.559 E29.61177 ; skirt
G1 X115.699 Y63.849 E29.64738 ; skirt
G1 X121.319 Y66.849 E29.97882 ; skirt
G1 X121.899 Y67.199 E30.01407 ; skirt
G1 X122.449 Y67.609 E30.04976 ; skirt
G1 X127.379 Y71.649 E30.38137 ; skirt
G1 X127.879 Y72.109 E30.41672 ; skirt
G1 X128.339 Y72.609 E30.45207 ; skirt
G1 X132.379 Y77.539 E30.78368 ; skirt
G1 X132.789 Y78.089 E30.81937 ; skirt
G1 X133.139 Y78.669 E30.85461 ; skirt
G1 X136.139 Y84.289 E31.18606 ; skirt
G1 X136.429 Y84.909 E31.22167 ; skirt
G1 X136.659 Y85.539 E31.25656 ; skirt
G1 X138.509 Y91.629 E31.58770 ; skirt
G1 X138.669 Y92.289 E31.62303 ; skirt
G1 X138.769 Y92.969 E31.65879 ; skirt
G1 X139.399 Y99.319 E31.99078 ; skirt
G1 X139.439 Y99.999 E32.02622 ; skirt
G1 X139.399 Y100.689 E32.06218 ; skirt
G1 X138.769 Y107.029 E32.39365 ; skirt
G1 X138.669 Y107.699 E32.42890 ; skirt
G1 X138.509 Y108.359 E32.46423 ; skirt
G1 X136.659 Y114.449 E32.79537 ; skirt
G1 X136.429 Y115.079 E32.83026 ; skirt
G1 X136.139 Y115.699 E32.86587 ; skirt
G1 X133.139 Y121.319 E33.19732 ; skirt
G1 X132.789 Y121.899 E33.23256 ; skirt
G1 X132.379 Y122.449 E33.26825 ; skirt
G1 X128.339 Y127.379 E33.59986 ; skirt
G1 X127.879 Y127.879 E33.63521 ; skirt
G1 X127.379 Y128.339 E33.67056 ; skirt
G1 X122.449 Y132.379 E34.00217 ; skirt
G1 X121.899 Y132.789 E34.03786 ; skirt
G1 X121.319 Y133.139 E34.07311 ; skirt
G1 X115.699 Y136.139 E34.40455 ; skirt
G1 X115.079 Y136.429 E34.44016 ; skirt
G1 X114.449 Y136.659 E34.47505 ; skirt
G1 X108.359 Y138.509 E34.80619 ; skirt
G1 X107.699 Y138.669 E34.84152 ; skirt
G1 X107.029 Y138.769 E34.87677 ; skirt
G1 X100.689 Y139.399 E35.20824 ; skirt
G1 X99.999 Y139.439 E35.24420 ; skirt
G1 X99.319 Y139.399 E35.27964 ; skirt
G1 X92.969 Y138.769 E35.61163 ; skirt
G1 X92.289 Y138.669 E35.64739 ; skirt
G1 X91.629 Y138.509 E35.68272 ; skirt
G1 X85.539 Y136.659 E36.01386 ; skirt
G1 X84.909 Y136.429 E36.04876 ; skirt
G1 X84.289 Y136.139 E36.08437 ; skirt
G1 X78.669 Y133.139 E36.41581 ; skirt
G1 X78.089 Y132.789 E36.45105 ; skirt
G1 X77.539 Y132.379 E36.48674 ; skirt
G1 X72.609 Y128.339 E36.81836 ; skirt
G1 X72.109 Y127.879 E36.85370 ; skirt
G1 X71.649 Y127.379 E36.88905 ; skirt
G1 X67.609 Y122.449 E37.22066 ; skirt
G1 X67.199 Y121.899 E37.25635 ; skirt
G1 X66.849 Y121.319 E37.29160 ; skirt
G1 X63.849 Y115.699 E37.62304 ; skirt
G1 X63.559 Y115.079 E37.65865 ; skirt
G1 X63.329 Y114.449 E37.69354 ; skirt
G1 X61.479 Y108.359 E38.02468 ; skirt
G1 X61.319 Y107.689 E38.06052 ; skirt
G1 X61.219 Y107.019 E38.09577 ; skirt
G1 X60.599 Y100.679 E38.42719 ; skirt
G1 X60.559 Y99.999 E38.46263 ; skirt
G1 X60.599 Y99.329 E38.49755 ; skirt
G1 X61.219 Y92.979 E38.82949 ; skirt
G1 X61.319 Y92.299 E38.86525 ; skirt
G1 X61.479 Y91.629 E38.90109 ; skirt
G1 X63.329 Y85.539 E39.23223 ; skirt
G1 X63.559 Y84.909 E39.26712 ; skirt
G1 X63.849 Y84.289 E39.30273 ; skirt
G1 X66.849 Y78.669 E39.63417 ; skirt
G1 X67.199 Y78.089 E39.66941 ; skirt
G1 X67.609 Y77.539 E39.70511 ; skirt
G1 X71.649 Y72.609 E40.03672 ; skirt
G1 X72.061 Y72.161 E40.06842 ; skirt
G1 X72.439 Y72.439 F7800.000 ; move to first skirt point
G1 X72.909 Y72.009 F540.000 E40.10156 ; skirt
G1 X77.839 Y67.969 E40.43317 ; skirt
G1 X78.349 Y67.589 E40.46626 ; skirt
G1 X78.889 Y67.259 E40.49919 ; skirt
G1 X84.509 Y64.259 E40.83063 ; skirt
G1 X85.089 Y63.989 E40.86391 ; skirt
G1 X85.679 Y63.779 E40.89649 ; skirt
G1 X91.769 Y61.929 E41.22763 ; skirt
G1 X92.389 Y61.779 E41.26082 ; skirt
G1 X93.009 Y61.679 E41.29349 ; skirt
G1 X99.169 Y61.069 E41.61555 ; skirt
G1 X99.659 Y61.039 E41.64109 ; skirt
G1 X100.629 Y61.059 E41.69156 ; skirt
G1 X106.969 Y61.679 E42.02299 ; skirt
G1 X107.599 Y61.779 E42.05618 ; skirt
G1 X108.219 Y61.929 E42.08936 ; skirt
G1 X114.309 Y63.779 E42.42050 ; skirt
G1 X114.899 Y63.989 E42.45308 ; skirt
G1 X115.479 Y64.259 E42.48637 ; skirt
G1 X121.099 Y67.259 E42.81781 ; skirt
G1 X121.639 Y67.589 E42.85074 ; skirt
G1 X122.149 Y67.969 E42.88383 ; skirt
G1 X127.079 Y72.009 E43.21544 ; skirt
G1 X127.549 Y72.439 E43.24858 ; skirt
G1 X127.979 Y72.909 E43.28172 ; skirt
G1 X132.019 Y77.839 E43.61334 ; skirt
G1 X132.399 Y78.349 E43.64643 ; skirt
G1 X132.729 Y78.889 E43.67935 ; skirt
G1 X135.729 Y84.509 E44.01079 ; skirt
G1 X135.999 Y85.089 E44.04408 ; skirt
G1 X136.209 Y85.679 E44.07666 ; skirt
G1 X138.059 Y91.769 E44.40780 ; skirt
G1 X138.209 Y92.379 E44.44048 ; skirt
G1 X138.309 Y93.009 E44.47367 ; skirt
G1 X138.939 Y99.359 E44.80566 ; skirt
G1 X138.969 Y99.999 E44.83899 ; skirt
G1 X138.939 Y100.639 E44.87233 ; skirt
G1 X138.309 Y106.979 E45.20380 ; skirt
G1 X138.209 Y107.609 E45.23699 ; skirt
G1 X138.059 Y108.219 E45.26967 ; skirt
G1 X136.209 Y114.309 E45.60081 ; skirt
G1 X135.999 Y114.899 E45.63339 ; skirt
G1 X135.729 Y115.479 E45.66668 ; skirt
G1 X132.729 Y121.099 E45.99812 ; skirt
G1 X132.399 Y121.639 E46.03104 ; skirt
G1 X132.019 Y122.149 E46.06413 ; skirt
G1 X127.979 Y127.079 E46.39575 ; skirt
G1 X127.549 Y127.549 E46.42889 ; skirt
G1 X127.079 Y127.979 E46.46203 ; skirt
G1 X122.149 Y132.019 E46.79364 ; skirt
G1 X121.639 Y132.399 E46.82673 ; skirt
G1 X121.099 Y132.729 E46.85966 ; skirt
G1 X115.479 Y135.729 E47.19110 ; skirt
G1 X114.899 Y135.999 E47.22439 ; skirt
G1 X114.309 Y136.209 E47.25697 ; skirt
G1 X108.219 Y138.059 E47.58811 ; skirt
G1 X107.609 Y138.209 E47.62079 ; skirt
G1 X106.979 Y138.309 E47.65398 ; skirt
G1 X100.639 Y138.939 E47.98545 ; skirt
G1 X99.999 Y138.969 E48.01878 ; skirt
G1 X99.359 Y138.939 E48.05212 ; skirt
G1 X93.009 Y138.309 E48.38411 ; skirt
G1 X92.379 Y138.209 E48.41730 ; skirt
G1 X91.769 Y138.059 E48.44998 ; skirt
G1 X85.679 Y136.209 E48.78112 ; skirt
G1 X85.089 Y135.999 E48.81370 ; skirt
G1 X84.509 Y135.729 E48.84699 ; skirt
G1 X78.889 Y132.729 E49.17843 ; skirt
G1 X78.349 Y132.399 E49.21135 ; skirt
G1 X77.839 Y132.019 E49.24444 ; skirt
G1 X72.909 Y127.979 E49.57605 ; skirt
G1 X72.439 Y127.549 E49.60920 ; skirt
G1 X72.009 Y127.079 E49.64234 ; skirt
G1 X67.969 Y122.149 E49.97395 ; skirt
G1 X67.589 Y121.639 E50.00704 ; skirt
G1 X67.259 Y121.099 E50.03997 ; skirt
G1 X64.259 Y115.479 E50.37141 ; skirt
G1 X63.989 Y114.899 E50.40469 ; skirt
G1 X63.779 Y114.309 E50.43728 ; skirt
G1 X61.929 Y108.219 E50.76842 ; skirt
G1 X61.779 Y107.599 E50.80160 ; skirt
G1 X61.679 Y106.969 E50.83479 ; skirt
G1 X61.059 Y100.629 E51.16621 ; skirt
G1 X61.029 Y99.999 E51.19903 ; skirt
G1 X61.059 Y99.369 E51.23184 ; skirt
G1 X61.679 Y93.019 E51.56378 ; skirt
G1 X61.779 Y92.389 E51.59697 ; skirt
G1 X61.929 Y91.769 E51.63016 ; skirt
G1 X63.779 Y85.679 E51.96130 ; skirt
G1 X63.989 Y85.089 E51.99388 ; skirt
G1 X64.259 Y84.509 E52.02716 ; skirt
G1 X67.259 Y78.889 E52.35861 ; skirt
G1 X67.589 Y78.349 E52.39153 ; skirt
G1 X67.969 Y77.839 E52.42462 ; skirt
G1 X72.009 Y72.909 E52.75623 ; skirt
G1 X72.392 Y72.491 E52.78572 ; skirt
G1 F1800.000 E51.78572 ; retract
G92 E0 ; reset extrusion distance
G1 X92.340 Y73.349 F7800.000 ; move to first support material point
G1 F1800.000 E1.00000 ; compensate retraction
