; generated by Slic3r 0.9.10b on 2014-02-08 at 16:12:32

; layer_height = 0.25
; perimeters = 3
; top_solid_layers = 3
; bottom_solid_layers = 3
; fill_density = 0.2
; perimeter_speed = 30
; infill_speed = 60
; travel_speed = 130
; nozzle_diameter = 0.35
; filament_diameter = 1.75
; extrusion_multiplier = 1.1
; perimeters extrusion width = 0.39mm
; infill extrusion width = 0.39mm
; solid infill extrusion width = 0.39mm
; top infill extrusion width = 0.39mm
; first layer extrusion width = 0.50mm

G21 ; set units to millimeters
M107
M104 S185 ; set temperature
G28 ; home all axes
G1 Z5 F5000 ; lift nozzle
M109 S185 ; wait for temperature to be reached
G90 ; use absolute coordinates
G92 E0
M82 ; use absolute distances for extrusion
G1 F1800.000 E-1.00000
G92 E0
G1 Z0.250 F7800.000
G1 X81.251 Y72.502
G1 F1800.000 E1.00000
G1 X82.011 Y71.802 F540.000 E1.05526
G1 X82.881 Y71.232 E1.11089
G1 X83.771 Y70.802 E1.16376
G1 X84.471 Y70.562 E1.20334
G1 X98.141 Y66.772 E1.96207
G1 X99.001 Y66.592 E2.00906
G1 X99.871 Y66.532 E2.05570
G1 X100.941 Y66.582 E2.11300
G1 X101.741 Y66.742 E2.15663
G1 X114.591 Y70.062 E2.86649
G1 X115.351 Y70.302 E2.90912
G1 X116.291 Y70.762 E2.96509
G1 X117.061 Y71.262 E3.01419
G1 X117.761 Y71.872 E3.06386
G1 X127.431 Y81.542 E3.79529
G1 X127.931 Y82.092 E3.83505
G1 X128.361 Y82.712 E3.87541
G1 X128.491 Y82.922 E3.88862
G1 X128.921 Y83.732 E3.93766
G1 X129.221 Y84.592 E3.98638
G1 X132.971 Y98.142 E4.73835
G1 X133.151 Y99.002 E4.78535
G1 X133.211 Y99.872 E4.83199
G1 X133.161 Y100.942 E4.88928
G1 X133.001 Y101.742 E4.93292
G1 X129.711 Y114.472 E5.63616
G1 X129.471 Y115.232 E5.67879
G1 X129.011 Y116.172 E5.73476
G1 X128.581 Y116.852 E5.77779
G1 X128.061 Y117.482 E5.82148
G1 X118.741 Y127.482 E6.55262
G1 X118.061 Y128.112 E6.60220
G1 X117.301 Y128.642 E6.65175
G1 X117.081 Y128.772 E6.66542
G1 X116.321 Y129.152 E6.71087
G1 X115.521 Y129.432 E6.75620
G1 X101.851 Y133.222 E7.51493
G1 X100.991 Y133.402 E7.56192
G1 X100.121 Y133.462 E7.60857
G1 X99.061 Y133.412 E7.66532
G1 X98.251 Y133.252 E7.70948
G1 X85.391 Y129.932 E8.41986
G1 X84.581 Y129.662 E8.46553
G1 X83.801 Y129.292 E8.51170
G1 X83.591 Y129.172 E8.52464
G1 X82.871 Y128.692 E8.57092
G1 X82.231 Y128.122 E8.61676
G1 X72.561 Y118.452 E9.34820
G1 X72.021 Y117.842 E9.39177
G1 X71.561 Y117.172 E9.43524
G1 X71.431 Y116.952 E9.44890
G1 X71.051 Y116.192 E9.49435
G1 X70.771 Y115.392 E9.53969
G1 X67.021 Y101.852 E10.29114
G1 X66.841 Y100.992 E10.33813
G1 X66.781 Y100.122 E10.38478
G1 X66.831 Y99.052 E10.44207
G1 X66.991 Y98.252 E10.48571
G1 X70.281 Y85.512 E11.18946
G1 X70.551 Y84.702 E11.23513
G1 X70.921 Y83.922 E11.28131
G1 X71.041 Y83.712 E11.29424
G1 X71.051 Y83.722 E11.29500
G1 X71.931 Y82.502 E11.37545
G1 X81.203 Y72.554 E12.10284
G1 X82.011 Y71.802 F7800.000 E11.78460
G1 X82.881 Y71.232 E11.48457
G1 X83.771 Y70.802 E11.19944
G1 X84.088 Y70.694 E11.10284
G92 E0
G1 X93.790 Y90.705
G1 F1800.000 E1.00000
G1 X95.722 Y89.673 F540.000 E1.11718
G1 X97.820 Y89.037 E1.23441
G1 X100.000 Y88.822 E1.35157
G1 X102.180 Y89.037 E1.46874
G1 X104.278 Y89.673 E1.58597
G1 X106.210 Y90.705 E1.70315
G1 X107.904 Y92.096 E1.82036
G1 X109.294 Y93.790 E1.93757
G1 X110.328 Y95.723 E2.05481
G1 X110.964 Y97.819 E2.17200
G1 X111.178 Y100.000 E2.28922
G1 X110.964 Y102.181 E2.40639
G1 X110.328 Y104.277 E2.52357
G1 X109.294 Y106.210 E2.64082
G1 X107.904 Y107.904 E2.75803
G1 X106.210 Y109.295 E2.87524
G1 X104.278 Y110.327 E2.99242
G1 X102.180 Y110.963 E3.10963
G1 X100.000 Y111.179 E3.22682
G1 X97.820 Y110.963 E3.34401
G1 X95.722 Y110.327 E3.46122
G1 X93.790 Y109.295 E3.57840
G1 X92.096 Y107.904 E3.69561
G1 X90.706 Y106.210 E3.81282
G1 X89.672 Y104.277 E3.93007
G1 X89.036 Y102.181 E4.04725
G1 X88.822 Y100.001 E4.16442
G1 X89.036 Y97.819 E4.28164
G1 X89.672 Y95.723 E4.39883
G1 X90.706 Y93.790 E4.51608
G1 X92.096 Y92.096 E4.63329
G1 X93.736 Y90.750 E4.74675
G1 X94.051 Y91.096 F7800.000
G1 X95.902 Y90.107 F540.000 E4.85900
G1 X97.912 Y89.498 E4.97129
G1 X100.000 Y89.292 E5.08354
G1 X102.088 Y89.498 E5.19578
G1 X104.098 Y90.107 E5.30808
G1 X105.949 Y91.096 E5.42032
G1 X107.572 Y92.428 E5.53261
G1 X108.903 Y94.051 E5.64489
G1 X109.893 Y95.903 E5.75721
G1 X110.503 Y97.911 E5.86946
G1 X110.708 Y100.000 E5.98175
G1 X110.503 Y102.089 E6.09400
G1 X109.893 Y104.097 E6.20625
G1 X108.903 Y105.949 E6.31857
G1 X107.572 Y107.572 E6.43085
G1 X105.949 Y108.904 E6.54313
G1 X104.098 Y109.893 E6.65538
G1 X102.089 Y110.502 E6.76767
G1 X100.000 Y110.709 E6.87993
G1 X97.911 Y110.502 E6.99218
G1 X95.902 Y109.893 E7.10447
G1 X94.051 Y108.904 E7.21672
G1 X92.428 Y107.572 E7.32900
G1 X91.097 Y105.949 E7.44128
G1 X90.107 Y104.097 E7.55360
G1 X89.497 Y102.089 E7.66585
G1 X89.292 Y100.001 E7.77810
G1 X89.497 Y97.911 E7.89039
G1 X90.107 Y95.903 E8.00265
G1 X91.097 Y94.051 E8.11497
G1 X92.428 Y92.428 E8.22725
G1 X93.997 Y91.141 E8.33578
G1 X94.312 Y91.487 F7800.000
G1 X96.082 Y90.541 F378.000 E8.44310
G1 X98.003 Y89.959 E8.55046
G1 X100.000 Y89.762 E8.65778
G1 X101.997 Y89.959 E8.76510
G1 X103.918 Y90.541 E8.87247
G1 X105.688 Y91.487 E8.97979
G1 X107.239 Y92.760 E9.08714
G1 X108.512 Y94.312 E9.19449
G1 X109.459 Y96.083 E9.30188
G1 X110.042 Y98.003 E9.40920
G1 X110.238 Y100.000 E9.51657
G1 X110.042 Y101.997 E9.62389
G1 X109.459 Y103.917 E9.73121
G1 X108.512 Y105.688 E9.83860
G1 X107.239 Y107.240 E9.94595
G1 X105.688 Y108.513 E10.05330
G1 X103.918 Y109.459 E10.16062
G1 X101.997 Y110.041 E10.26799
G1 X100.000 Y110.239 E10.37531
G1 X98.003 Y110.041 E10.48264
G1 X96.082 Y109.459 E10.59000
G1 X94.312 Y108.513 E10.69732
G1 X92.761 Y107.240 E10.80468
G1 X91.488 Y105.688 E10.91203
G1 X90.541 Y103.917 E11.01942
G1 X89.958 Y101.997 E11.12674
G1 X89.762 Y100.001 E11.23405
G1 X89.958 Y98.003 E11.34142
G1 X90.541 Y96.083 E11.44874
G1 X91.488 Y94.312 E11.55613
G1 X92.761 Y92.760 E11.66349
G1 X94.258 Y91.532 E11.76709
G1 X94.725 Y91.708 F7800.000
G1 X96.082 Y90.541 E11.25092
G1 X97.687 Y90.055 E10.76709
G92 E0
G1 X92.925 Y89.310
G1 F1800.000 E1.00000
G1 X95.092 Y88.151 F540.000 E1.13143
G1 X97.498 Y87.421 E1.26594
G1 X100.000 Y87.175 E1.40039
G1 X102.502 Y87.421 E1.53484
G1 X104.908 Y88.151 E1.66935
G1 X107.125 Y89.337 E1.80381
G1 X109.069 Y90.932 E1.93830
G1 X110.664 Y92.874 E2.07274
G1 X111.849 Y95.092 E2.20723
G1 X112.578 Y97.498 E2.34169
G1 X112.826 Y100.000 E2.47619
G1 X112.578 Y102.502 E2.61065
G1 X111.849 Y104.908 E2.74510
G1 X110.664 Y107.126 E2.87960
G1 X109.069 Y109.069 E3.01404
G1 X107.125 Y110.664 E3.14856
G1 X104.908 Y111.849 E3.28299
G1 X102.502 Y112.579 E3.41750
G1 X100.000 Y112.825 E3.55195
G1 X97.498 Y112.579 E3.68641
G1 X95.092 Y111.849 E3.82092
G1 X92.875 Y110.664 E3.95535
G1 X90.931 Y109.069 E4.08986
G1 X89.336 Y107.126 E4.22431
G1 X88.151 Y104.908 E4.35881
G1 X87.422 Y102.502 E4.49325
G1 X87.175 Y100.000 E4.62771
G1 X87.422 Y97.498 E4.76222
G1 X88.151 Y95.092 E4.89666
G1 X89.336 Y92.874 E5.03116
G1 X90.931 Y90.932 E5.16560
G1 X92.864 Y89.345 E5.29936
G1 X95.092 Y88.151 F7800.000 E4.57034
G1 X95.991 Y87.878 E4.29936
G92 E0
G1 X88.945 Y107.387
G1 F1800.000 E1.00000
G1 X87.716 Y105.088 F540.000 E1.13943
G1 X86.961 Y102.594 E1.27880
G1 X86.705 Y100.000 E1.41818
G1 X86.961 Y97.406 E1.55762
G1 X87.716 Y94.912 E1.69699
G1 X88.945 Y92.613 E1.83642
G1 X90.599 Y90.599 E1.97579
G1 X92.614 Y88.946 E2.11521
G1 X94.912 Y87.717 E2.25459
G1 X97.407 Y86.960 E2.39403
G1 X100.000 Y86.705 E2.53341
G1 X102.593 Y86.960 E2.67279
G1 X105.088 Y87.717 E2.81223
G1 X107.386 Y88.946 E2.95161
G1 X109.401 Y90.599 E3.09103
G1 X111.055 Y92.613 E3.23040
G1 X112.284 Y94.912 E3.36983
G1 X113.039 Y97.406 E3.50921
G1 X113.296 Y100.000 E3.64864
G1 X113.039 Y102.594 E3.78803
G1 X112.284 Y105.088 E3.92741
G1 X111.055 Y107.387 E4.06683
G1 X109.401 Y109.401 E4.20621
G1 X107.386 Y111.055 E4.34566
G1 X105.088 Y112.283 E4.48501
G1 X102.593 Y113.040 E4.62445
G1 X100.000 Y113.295 E4.76383
G1 X97.407 Y113.040 E4.90322
G1 X94.912 Y112.283 E5.04266
G1 X92.614 Y111.055 E5.18201
G1 X90.599 Y109.401 E5.32146
G1 X88.990 Y107.441 E5.45708
G1 X88.554 Y107.648 F7800.000
G1 X87.282 Y105.268 F378.000 E5.60144
G1 X86.500 Y102.686 E5.74574
G1 X86.235 Y100.000 E5.89005
G1 X86.500 Y97.314 E6.03442
G1 X87.282 Y94.732 E6.17872
G1 X88.554 Y92.352 E6.32308
G1 X90.266 Y90.267 E6.46738
G1 X92.353 Y88.555 E6.61172
G1 X94.732 Y87.283 E6.75603
G1 X97.315 Y86.499 E6.90040
G1 X100.000 Y86.235 E7.04471
G1 X102.685 Y86.499 E7.18902
G1 X105.268 Y87.283 E7.33339
G1 X107.647 Y88.555 E7.47770
G1 X109.734 Y90.267 E7.62205
G1 X111.446 Y92.352 E7.76635
G1 X112.718 Y94.732 E7.91070
G1 X113.500 Y97.314 E8.05501
G1 X113.766 Y100.000 E8.19937
G1 X113.500 Y102.686 E8.34369
G1 X112.718 Y105.268 E8.48799
G1 X111.446 Y107.648 E8.63235
G1 X109.734 Y109.733 E8.77665
G1 X107.647 Y111.446 E8.92103
G1 X105.268 Y112.717 E9.06531
G1 X102.685 Y113.501 E9.20968
G1 X100.000 Y113.765 E9.35399
G1 X97.315 Y113.501 E9.49830
G1 X94.732 Y112.717 E9.64267
G1 X92.353 Y111.446 E9.78696
G1 X90.266 Y109.733 E9.93133
G1 X88.599 Y107.702 E10.07188
G1 X88.775 Y107.235 F7800.000
G1 X87.282 Y105.268 E9.35941
G1 X86.993 Y104.314 E9.07188
G92 E0
G1 X100.000 Y119.624
G1 F1800.000 E1.00000
G1 X100.000 Y115.407 F540.000 E1.22557
G1 X100.000 Y118.874 F7800.000 E0.22557
G92 E0
G1 X100.000 Y119.624
G1 F1800.000 E1.00000
G1 X100.000 Y126.841 F540.000 E1.38599
G1 X100.000 Y123.374 F7800.000 E0.38599
G92 E0
G1 X87.772 Y121.973
G1 F1800.000 E1.00000
G1 X87.151 Y123.228 F540.000 E1.07490
G1 X87.151 Y123.228 F7800.000
G1 X87.066 Y123.276 F540.000 E1.08011
G1 X87.066 Y123.276 F7800.000
G1 X87.047 Y123.421 F540.000 E1.08793
G1 X87.047 Y123.421 F7800.000
G1 X87.016 Y123.443 F540.000 E1.08997
G1 X87.047 Y123.421 F7800.000 E0.08997
G92 E0
G1 X87.772 Y121.973
G1 F1800.000 E1.00000
G1 X88.457 Y120.844 F540.000 E1.07063
G1 X88.470 Y120.665 E1.08022
G1 X88.576 Y120.626 E1.08630
G1 X88.586 Y120.447 E1.09588
G1 X88.696 Y120.408 E1.10214
G1 X88.702 Y120.229 E1.11171
G1 X88.815 Y120.189 E1.11814
G1 X88.817 Y120.010 E1.12772
G1 X88.935 Y119.971 E1.13433
G1 X88.933 Y119.792 E1.14392
G1 X89.054 Y119.753 E1.15072
G1 X89.049 Y119.574 E1.16033
G1 X89.174 Y119.536 E1.16733
G1 X89.165 Y119.356 E1.17697
G1 X89.294 Y119.318 E1.18419
G1 X89.280 Y119.137 E1.19387
G1 X89.414 Y119.100 E1.20130
G1 X89.396 Y118.919 E1.21104
G1 X89.534 Y118.882 E1.21871
G1 X89.511 Y118.700 E1.22852
G1 X89.654 Y118.664 E1.23644
G1 X89.626 Y118.482 E1.24633
G1 X89.775 Y118.447 E1.25452
G1 X89.741 Y118.263 E1.26452
G1 X89.775 Y118.447 F7800.000 E1.21056
G1 X89.626 Y118.482 E1.16642
G1 X89.654 Y118.664 E1.11305
G1 X89.511 Y118.700 E1.07034
G1 X89.534 Y118.882 E1.01745
G1 X89.396 Y118.919 E0.97607
G1 X89.414 Y119.100 E0.92356
G1 X89.280 Y119.137 E0.88345
G1 X89.294 Y119.318 E0.83125
G1 X89.165 Y119.356 E0.79233
G1 X89.174 Y119.536 E0.74035
G1 X89.049 Y119.574 E0.70257
G1 X89.054 Y119.753 E0.65076
G1 X88.933 Y119.792 E0.61405
G1 X88.935 Y119.971 E0.56235
G1 X88.817 Y120.010 E0.52668
G1 X88.815 Y120.189 E0.47503
G1 X88.702 Y120.229 E0.44035
G1 X88.696 Y120.408 E0.38872
G1 X88.586 Y120.447 E0.35499
G1 X88.576 Y120.626 E0.30332
G1 X88.470 Y120.665 E0.27052
G1 X88.468 Y120.686 E0.26452
G92 E0
G1 X83.641 Y109.832
G1 F1800.000 E1.00000
G1 X83.635 Y109.830 F540.000 E1.00035
G1 X83.635 Y109.830 F7800.000
G1 X77.550 Y113.489 F540.000 E1.38012
G1 X77.550 Y113.489 F7800.000
G1 X77.251 Y113.684 F540.000 E1.39919
G1 X77.251 Y113.684 F7800.000
G1 X77.246 Y113.685 F540.000 E1.39949
G1 X77.251 Y113.684 F7800.000 E0.39949
G92 E0
G1 X83.641 Y109.832
G1 F1800.000 E1.00000
G1 X87.072 Y107.698 F540.000 E1.21607
G1 X84.128 Y109.529 F7800.000 E0.21607
G92 E0
G1 X84.842 Y100.000
G1 F1800.000 E1.00000
G1 X78.125 Y100.000 F540.000 E1.35925
G1 X78.125 Y100.000 F7800.000
G1 X77.875 Y100.000 F540.000 E1.37262
G1 X77.875 Y100.000 F7800.000
G1 X74.876 Y100.000 F540.000 E1.53303
G1 X74.876 Y100.000 F7800.000
G1 X74.626 Y100.000 F540.000 E1.54640
G1 X74.626 Y100.000 F7800.000
G1 X73.626 Y100.000 F540.000 E1.59987
G1 X73.626 Y100.000 F7800.000
G1 X73.626 Y100.000 F1800.000
G1 X73.626 Y100.000 F7800.000
G1 X73.407 Y100.000 F540.000 E1.61156
G1 X73.626 Y100.000 F7800.000 E0.61156
G92 E0
G1 X79.886 Y88.858
G1 F1800.000 E1.00000
G1 X78.808 Y88.249 F540.000 E1.06624
G1 X78.808 Y88.249 F7800.000
G1 X77.307 Y87.421 F540.000 E1.15791
G1 X77.307 Y87.421 F7800.000
G1 X76.776 Y87.140 F540.000 E1.19008
G1 X76.776 Y87.140 F7800.000
G1 X76.773 Y87.136 F540.000 E1.19032
G1 X76.773 Y87.136 F7800.000
G1 X76.748 Y86.998 F540.000 E1.19787
G1 X76.773 Y87.136 F7800.000 E0.19787
G92 E0
G1 X79.886 Y88.858
G1 F1800.000 E1.00000
G1 X80.094 Y88.958 F540.000 E1.01236
G1 X80.094 Y88.958 F7800.000
G1 X86.730 Y92.625 F540.000 E1.41783
G1 X83.695 Y90.948 F7800.000 E0.41783
G92 E0
G1 X92.044 Y86.748
G1 F1800.000 E1.00000
G1 X91.800 Y86.411 F540.000 E1.02227
G1 X91.800 Y86.411 F7800.000
G1 X90.128 Y83.511 F540.000 E1.20129
G1 X90.128 Y83.511 F7800.000
G1 X88.856 Y81.511 F540.000 E1.32810
G1 X88.856 Y81.511 F7800.000
G1 X88.728 Y81.183 F540.000 E1.34692
G1 X88.728 Y81.183 F7800.000
G1 X88.600 Y81.084 F540.000 E1.35555
G1 X88.600 Y81.084 F7800.000
G1 X88.345 Y80.658 F540.000 E1.38214
G1 X88.345 Y80.658 F7800.000
G1 X88.217 Y80.445 F540.000 E1.39543
G1 X88.217 Y80.445 F7800.000
G1 X86.196 Y77.071 F540.000 E1.60578
G1 X86.250 Y76.909 E1.61492
G1 X86.196 Y77.071 F7800.000 E1.56562
G1 X87.889 Y79.898 E0.61492
G92 E0
G1 X100.000 Y77.377
G1 F1800.000 E1.00000
G1 X100.000 Y84.594 F540.000 E1.38602
G1 X100.000 Y81.127 F7800.000 E0.38602
G92 E0
G1 X100.000 Y77.377
G1 F1800.000 E1.00000
G1 X100.000 Y73.159 F540.000 E1.22559
G1 X100.000 Y76.626 F7800.000 E0.22559
G92 E0
G1 X111.044 Y80.018
G1 F1800.000 E1.00000
G1 X112.963 Y76.585 F540.000 E1.21034
G1 X111.271 Y79.611 F7800.000 E0.21034
G92 E0
G1 X111.044 Y80.018
G1 F1800.000 E1.00000
G1 X107.498 Y86.491 F540.000 E1.39475
G1 X109.164 Y83.450 F7800.000 E0.39475
G92 E0
G1 X113.023 Y92.196
G1 F1800.000 E1.00000
G1 X113.166 Y92.067 F540.000 E1.01027
G1 X113.166 Y92.067 F7800.000
G1 X113.226 Y92.075 F540.000 E1.01352
G1 X113.226 Y92.075 F7800.000
G1 X113.436 Y91.949 F540.000 E1.02662
G1 X113.436 Y91.949 F7800.000
G1 X119.284 Y88.404 F540.000 E1.39241
G1 X119.284 Y88.404 F7800.000
G1 X122.818 Y86.304 F540.000 E1.61224
G1 X119.838 Y88.075 F7800.000 E0.61224
G92 E0
G1 X123.625 Y100.000
G1 F1800.000 E1.00000
G1 X120.875 Y100.000 F540.000 E1.14705
G1 X120.875 Y100.000 F7800.000
G1 X117.126 Y100.000 F540.000 E1.34757
G1 X117.126 Y100.000 F7800.000
G1 X116.627 Y100.000 F540.000 E1.37430
G1 X116.627 Y100.000 F7800.000
G1 X115.627 Y100.000 F540.000 E1.42777
G1 X115.627 Y100.000 F7800.000
G1 X115.377 Y100.000 F540.000 E1.44114
G1 X115.377 Y100.000 F7800.000
G1 X115.377 Y100.000 F1800.000
G1 X115.377 Y100.000 F7800.000
G1 X115.158 Y100.000 F540.000 E1.45283
G1 X115.377 Y100.000 F7800.000 E0.45283
G92 E0
G1 X113.240 Y107.322
G1 F1800.000 E1.00000
G1 X113.261 Y107.372 F540.000 E1.00289
G1 X113.261 Y107.372 F7800.000
G1 X113.453 Y107.436 F540.000 E1.01369
G1 X113.453 Y107.436 F7800.000
G1 X113.904 Y107.727 F540.000 E1.04243
G1 X113.904 Y107.727 F7800.000
G1 X115.404 Y108.556 F540.000 E1.13410
G1 X115.404 Y108.556 F7800.000
G1 X116.676 Y109.228 F540.000 E1.21104
G1 X116.676 Y109.228 F7800.000
G1 X116.690 Y109.266 F540.000 E1.21321
G1 X116.690 Y109.266 F7800.000
G1 X123.229 Y112.864 F540.000 E1.61235
G1 X120.191 Y111.193 F7800.000 E0.61235
G92 E0
G1 X123.625 Y100.000
G1 F1800.000 E1.00000
G1 X123.625 Y100.000 F540.000 E1.00000
G1 X123.625 Y100.000 F7800.000
G1 X126.593 Y100.000 F540.000 E1.15873
G1 X123.625 Y100.000 F7800.000 E0.15873
G92 E0
G1 X107.944 Y113.163
G1 F1800.000 E1.00000
G1 X107.964 Y113.313 F540.000 E1.00810
G1 X107.964 Y113.313 F7800.000
G1 X108.072 Y113.376 F540.000 E1.01481
G1 X108.072 Y113.376 F7800.000
G1 X108.345 Y113.948 F540.000 E1.04872
G1 X108.345 Y113.948 F7800.000
G1 X109.236 Y115.430 F540.000 E1.14120
G1 X109.236 Y115.430 F7800.000
G1 X109.993 Y116.571 F540.000 E1.21446
G1 X109.993 Y116.571 F7800.000
G1 X109.999 Y116.700 F540.000 E1.22137
G1 X109.999 Y116.700 F7800.000
G1 X113.810 Y122.966 F540.000 E1.61359
G1 X112.009 Y120.004 F7800.000 E0.61359
G92 E0
G1 X100.000 Y87.515
G1 F1800.000 E1.00000
