; generated by Slic3r 0.9.10b on 2014-04-01 at 00:33:10

; layer_height = 0.2
; perimeters = 2
; top_solid_layers = 5
; bottom_solid_layers = 5
; fill_density = 0.24
; perimeter_speed = 30
; infill_speed = 60
; travel_speed = 130
; nozzle_diameter = 0.3
; filament_diameter = 1.75
; extrusion_multiplier = 1.1
; perimeters extrusion width = 0.37mm
; infill extrusion width = 0.37mm
; solid infill extrusion width = 0.37mm
; top infill extrusion width = 0.37mm
; first layer extrusion width = 0.50mm

G21 ; set units to millimeters
M107 ; disable fan
M190 S60 ; wait for bed temperature to be reached
M104 S185 ; set temperature
G28; home all axes
G1 Z5 F5000 ; lift nozzle
M109 S185 ; wait for temperature to be reached
G90 ; use absolute coordinates
G92 E0 ; reset extrusion distance
M82 ; use absolute distances for extrusion
G1 F1800.000 E-1.00000 ; retract
G92 E0 ; reset extrusion distance
G1 Z0.450 F7800.000 ; move to next layer (0)
G1 X38.560 Y35.901 ; move to first skirt point
G1 F1800.000 E1.00000 ; compensate retraction
G1 X39.150 Y35.381 F540.000 E1.04110 ; skirt
G1 X41.380 Y33.561 E1.19152 ; skirt
G1 X42.030 Y33.081 E1.23375 ; skirt
G1 X42.730 Y32.671 E1.27614 ; skirt
G1 X45.240 Y31.371 E1.42386 ; skirt
G1 X45.940 Y31.051 E1.46408 ; skirt
G1 X46.680 Y30.801 E1.50490 ; skirt
G1 X49.290 Y30.051 E1.64682 ; skirt
G1 X50.000 Y29.881 E1.68497 ; skirt
G1 X50.720 Y29.781 E1.72296 ; skirt
G1 X53.190 Y29.551 E1.85259 ; skirt
G1 X53.920 Y29.511 E1.89080 ; skirt
G1 X54.690 Y29.541 E1.93107 ; skirt
G1 X57.240 Y29.771 E2.06487 ; skirt
G1 X57.980 Y29.881 E2.10397 ; skirt
G1 X58.700 Y30.051 E2.14263 ; skirt
G1 X61.310 Y30.801 E2.28454 ; skirt
G1 X62.050 Y31.051 E2.32536 ; skirt
G1 X62.750 Y31.371 E2.36558 ; skirt
G1 X65.260 Y32.671 E2.51330 ; skirt
G1 X66.010 Y33.111 E2.55874 ; skirt
G1 X164.350 Y98.831 E8.73984 ; skirt
G1 X165.540 Y99.801 E8.82007 ; skirt
G1 X166.510 Y100.991 E8.90030 ; skirt
G1 X167.230 Y102.341 E8.98025 ; skirt
G1 X167.680 Y103.811 E9.06059 ; skirt
G1 X167.830 Y105.341 E9.14093 ; skirt
G1 X167.830 Y144.471 E11.18581 ; skirt
G1 X167.800 Y146.141 E11.27310 ; skirt
G1 X167.700 Y148.201 E11.38088 ; skirt
G1 X167.560 Y149.911 E11.47054 ; skirt
G1 X167.390 Y151.441 E11.55099 ; skirt
G1 X167.020 Y153.701 E11.67067 ; skirt
G1 X166.710 Y155.171 E11.74918 ; skirt
G1 X166.570 Y155.721 E11.77884 ; skirt
G1 X166.080 Y157.421 E11.87129 ; skirt
G1 X165.880 Y158.021 E11.90434 ; skirt
G1 X165.340 Y159.451 E11.98422 ; skirt
G1 X165.050 Y160.121 E12.02238 ; skirt
G1 X164.380 Y161.491 E12.10207 ; skirt
G1 X163.930 Y162.291 E12.15004 ; skirt
G1 X163.100 Y163.581 E12.23020 ; skirt
G1 X162.410 Y164.501 E12.29030 ; skirt
G1 X161.410 Y165.641 E12.36955 ; skirt
G1 X160.470 Y166.541 E12.43756 ; skirt
G1 X159.320 Y167.481 E12.51518 ; skirt
G1 X158.700 Y167.941 E12.55552 ; skirt
G1 X158.040 Y168.331 E12.59558 ; skirt
G1 X156.740 Y169.021 E12.67250 ; skirt
G1 X156.000 Y169.371 E12.71527 ; skirt
G1 X155.230 Y169.631 E12.75775 ; skirt
G1 X153.770 Y170.051 E12.83714 ; skirt
G1 X153.010 Y170.231 E12.87795 ; skirt
G1 X152.240 Y170.331 E12.91853 ; skirt
G1 X150.750 Y170.451 E12.99665 ; skirt
G1 X150.120 Y170.481 E13.02961 ; skirt
G1 X49.950 Y170.481 E18.26436 ; skirt
G1 X49.360 Y170.461 E18.29521 ; skirt
G1 X47.770 Y170.341 E18.37854 ; skirt
G1 X46.970 Y170.231 E18.42074 ; skirt
G1 X46.180 Y170.051 E18.46308 ; skirt
G1 X44.700 Y169.621 E18.54362 ; skirt
G1 X43.890 Y169.331 E18.58858 ; skirt
G1 X43.120 Y168.961 E18.63323 ; skirt
G1 X41.770 Y168.221 E18.71368 ; skirt
G1 X41.100 Y167.811 E18.75473 ; skirt
G1 X40.470 Y167.331 E18.79612 ; skirt
G1 X39.290 Y166.331 E18.87695 ; skirt
G1 X38.360 Y165.401 E18.94568 ; skirt
G1 X37.360 Y164.211 E19.02691 ; skirt
G1 X36.700 Y163.301 E19.08566 ; skirt
G1 X35.880 Y161.981 E19.16687 ; skirt
G1 X35.470 Y161.221 E19.21199 ; skirt
G1 X34.840 Y159.901 E19.28843 ; skirt
G1 X34.530 Y159.181 E19.32939 ; skirt
G1 X33.990 Y157.681 E19.41271 ; skirt
G1 X33.280 Y155.161 E19.54953 ; skirt
G1 X32.890 Y153.291 E19.64935 ; skirt
G1 X32.590 Y151.361 E19.75142 ; skirt
G1 X32.420 Y149.821 E19.83239 ; skirt
G1 X32.260 Y147.741 E19.94141 ; skirt
G1 X32.190 Y146.031 E20.03085 ; skirt
G1 X32.170 Y144.431 E20.11447 ; skirt
G1 X32.170 Y51.331 E24.97975 ; skirt
G1 X32.200 Y50.621 E25.01689 ; skirt
G1 X32.430 Y48.081 E25.15017 ; skirt
G1 X32.540 Y47.351 E25.18875 ; skirt
G1 X32.710 Y46.631 E25.22741 ; skirt
G1 X33.460 Y44.021 E25.36932 ; skirt
G1 X33.710 Y43.281 E25.41014 ; skirt
G1 X34.030 Y42.581 E25.45037 ; skirt
G1 X35.330 Y40.071 E25.59808 ; skirt
G1 X35.740 Y39.371 E25.64048 ; skirt
G1 X36.220 Y38.721 E25.68270 ; skirt
G1 X38.040 Y36.491 E25.83313 ; skirt
G1 X38.515 Y35.952 E25.87064 ; skirt
G1 X38.890 Y36.231 F7800.000 ; move to first skirt point
G1 X39.440 Y35.731 F540.000 E25.90949 ; skirt
G1 X41.670 Y33.911 E26.05991 ; skirt
G1 X42.280 Y33.461 E26.09952 ; skirt
G1 X42.940 Y33.071 E26.13958 ; skirt
G1 X45.450 Y31.771 E26.28730 ; skirt
G1 X46.110 Y31.471 E26.32519 ; skirt
G1 X46.800 Y31.241 E26.36320 ; skirt
G1 X49.410 Y30.491 E26.50511 ; skirt
G1 X50.080 Y30.331 E26.54111 ; skirt
G1 X50.770 Y30.231 E26.57755 ; skirt
G1 X53.240 Y30.001 E26.70718 ; skirt
G1 X53.920 Y29.971 E26.74275 ; skirt
G1 X54.650 Y30.001 E26.78094 ; skirt
G1 X57.200 Y30.231 E26.91474 ; skirt
G1 X57.900 Y30.321 E26.95162 ; skirt
G1 X58.580 Y30.491 E26.98825 ; skirt
G1 X61.190 Y31.241 E27.13016 ; skirt
G1 X61.880 Y31.471 E27.16817 ; skirt
G1 X62.540 Y31.771 E27.20606 ; skirt
G1 X65.050 Y33.071 E27.35378 ; skirt
G1 X65.760 Y33.491 E27.39689 ; skirt
G1 X164.100 Y99.211 E33.57798 ; skirt
G1 X165.210 Y100.131 E33.65332 ; skirt
G1 X166.130 Y101.251 E33.72907 ; skirt
G1 X166.810 Y102.521 E33.80435 ; skirt
G1 X167.230 Y103.901 E33.87973 ; skirt
G1 X167.370 Y105.341 E33.95534 ; skirt
G1 X167.370 Y144.461 E35.99970 ; skirt
G1 X167.340 Y146.131 E36.08699 ; skirt
G1 X167.250 Y148.171 E36.19370 ; skirt
G1 X167.110 Y149.861 E36.28232 ; skirt
G1 X166.940 Y151.391 E36.36277 ; skirt
G1 X166.570 Y153.601 E36.47987 ; skirt
G1 X166.260 Y155.071 E36.55838 ; skirt
G1 X166.130 Y155.591 E36.58639 ; skirt
G1 X165.640 Y157.291 E36.67884 ; skirt
G1 X165.460 Y157.851 E36.70958 ; skirt
G1 X164.920 Y159.281 E36.78946 ; skirt
G1 X164.640 Y159.921 E36.82597 ; skirt
G1 X163.970 Y161.291 E36.90567 ; skirt
G1 X163.550 Y162.041 E36.95059 ; skirt
G1 X162.720 Y163.331 E37.03075 ; skirt
G1 X162.060 Y164.201 E37.08782 ; skirt
G1 X161.060 Y165.341 E37.16707 ; skirt
G1 X160.190 Y166.191 E37.23063 ; skirt
G1 X159.040 Y167.131 E37.30825 ; skirt
G1 X158.450 Y167.561 E37.34640 ; skirt
G1 X157.830 Y167.931 E37.38413 ; skirt
G1 X156.530 Y168.621 E37.46104 ; skirt
G1 X155.830 Y168.941 E37.50127 ; skirt
G1 X155.110 Y169.191 E37.54110 ; skirt
G1 X153.650 Y169.611 E37.62049 ; skirt
G1 X152.930 Y169.781 E37.65915 ; skirt
G1 X152.200 Y169.881 E37.69765 ; skirt
G1 X150.710 Y170.001 E37.77577 ; skirt
G1 X150.120 Y170.021 E37.80662 ; skirt
G1 X49.950 Y170.021 E43.04138 ; skirt
G1 X49.400 Y170.001 E43.07014 ; skirt
G1 X47.810 Y169.881 E43.15346 ; skirt
G1 X47.050 Y169.781 E43.19352 ; skirt
G1 X46.300 Y169.611 E43.23371 ; skirt
G1 X44.820 Y169.181 E43.31425 ; skirt
G1 X44.060 Y168.911 E43.35640 ; skirt
G1 X43.340 Y168.561 E43.39824 ; skirt
G1 X41.990 Y167.821 E43.47869 ; skirt
G1 X41.350 Y167.431 E43.51786 ; skirt
G1 X40.760 Y166.981 E43.55663 ; skirt
G1 X39.580 Y165.981 E43.63746 ; skirt
G1 X38.710 Y165.101 E43.70213 ; skirt
G1 X37.710 Y163.911 E43.78336 ; skirt
G1 X37.090 Y163.061 E43.83834 ; skirt
G1 X36.270 Y161.741 E43.91955 ; skirt
G1 X35.880 Y161.031 E43.96188 ; skirt
G1 X35.250 Y159.711 E44.03832 ; skirt
G1 X34.960 Y159.031 E44.07695 ; skirt
G1 X34.420 Y157.531 E44.16026 ; skirt
G1 X33.730 Y155.071 E44.29378 ; skirt
G1 X33.350 Y153.221 E44.39248 ; skirt
G1 X33.040 Y151.311 E44.49360 ; skirt
G1 X32.870 Y149.771 E44.57457 ; skirt
G1 X32.710 Y147.721 E44.68202 ; skirt
G1 X32.650 Y146.221 E44.76047 ; skirt
G1 X32.630 Y144.421 E44.85455 ; skirt
G1 X32.630 Y51.331 E49.71931 ; skirt
G1 X32.660 Y50.671 E49.75383 ; skirt
G1 X32.890 Y48.131 E49.88711 ; skirt
G1 X32.980 Y47.431 E49.92400 ; skirt
G1 X33.150 Y46.751 E49.96063 ; skirt
G1 X33.900 Y44.141 E50.10254 ; skirt
G1 X34.130 Y43.451 E50.14055 ; skirt
G1 X34.430 Y42.791 E50.17844 ; skirt
G1 X35.730 Y40.281 E50.32615 ; skirt
G1 X36.120 Y39.621 E50.36622 ; skirt
G1 X36.570 Y39.011 E50.40583 ; skirt
G1 X38.390 Y36.781 E50.55625 ; skirt
G1 X38.844 Y36.282 E50.59151 ; skirt
G1 X39.210 Y36.551 F7800.000 ; move to first skirt point
G1 X39.730 Y36.081 F540.000 E50.62814 ; skirt
G1 X41.960 Y34.261 E50.77857 ; skirt
G1 X42.530 Y33.841 E50.81557 ; skirt
G1 X43.150 Y33.481 E50.85303 ; skirt
G1 X45.660 Y32.181 E51.00075 ; skirt
G1 X46.280 Y31.901 E51.03630 ; skirt
G1 X46.930 Y31.671 E51.07233 ; skirt
G1 X49.540 Y30.921 E51.21425 ; skirt
G1 X50.170 Y30.781 E51.24798 ; skirt
G1 X50.810 Y30.691 E51.28175 ; skirt
G1 X53.280 Y30.461 E51.41139 ; skirt
G1 X53.920 Y30.431 E51.44487 ; skirt
G1 X54.610 Y30.451 E51.48094 ; skirt
G1 X57.160 Y30.681 E51.61474 ; skirt
G1 X57.810 Y30.771 E51.64904 ; skirt
G1 X58.450 Y30.921 E51.68339 ; skirt
G1 X61.060 Y31.671 E51.82530 ; skirt
G1 X61.710 Y31.901 E51.86133 ; skirt
G1 X62.330 Y32.181 E51.89689 ; skirt
G1 X64.840 Y33.481 E52.04460 ; skirt
G1 X65.500 Y33.871 E52.08467 ; skirt
G1 X163.840 Y99.591 E58.26576 ; skirt
G1 X164.890 Y100.451 E58.33669 ; skirt
G1 X165.750 Y101.501 E58.40762 ; skirt
G1 X166.390 Y102.691 E58.47823 ; skirt
G1 X166.780 Y103.991 E58.54916 ; skirt
G1 X166.910 Y105.341 E58.62003 ; skirt
G1 X166.910 Y144.451 E60.66387 ; skirt
G1 X166.880 Y146.311 E60.76108 ; skirt
G1 X166.810 Y147.881 E60.84321 ; skirt
G1 X166.670 Y149.611 E60.93391 ; skirt
G1 X166.480 Y151.341 E61.02487 ; skirt
G1 X166.130 Y153.511 E61.13973 ; skirt
G1 X165.820 Y154.981 E61.21824 ; skirt
G1 X165.200 Y157.161 E61.33668 ; skirt
G1 X165.030 Y157.691 E61.36577 ; skirt
G1 X164.490 Y159.121 E61.44565 ; skirt
G1 X164.230 Y159.721 E61.47982 ; skirt
G1 X163.560 Y161.091 E61.55952 ; skirt
G1 X163.160 Y161.791 E61.60165 ; skirt
G1 X162.330 Y163.081 E61.68182 ; skirt
G1 X161.720 Y163.901 E61.73522 ; skirt
G1 X160.720 Y165.041 E61.81447 ; skirt
G1 X159.900 Y165.831 E61.87398 ; skirt
G1 X158.750 Y166.771 E61.95160 ; skirt
G1 X158.200 Y167.181 E61.98745 ; skirt
G1 X157.610 Y167.531 E62.02329 ; skirt
G1 X156.310 Y168.221 E62.10021 ; skirt
G1 X155.660 Y168.521 E62.13762 ; skirt
G1 X154.980 Y168.751 E62.17513 ; skirt
G1 X153.520 Y169.171 E62.25452 ; skirt
G1 X152.850 Y169.331 E62.29052 ; skirt
G1 X152.170 Y169.421 E62.32637 ; skirt
G1 X150.680 Y169.541 E62.40449 ; skirt
G1 X150.120 Y169.561 E62.43377 ; skirt
G1 X49.950 Y169.561 E67.66852 ; skirt
G1 X49.430 Y169.541 E67.69572 ; skirt
G1 X47.840 Y169.421 E67.77905 ; skirt
G1 X47.130 Y169.331 E67.81645 ; skirt
G1 X46.430 Y169.171 E67.85397 ; skirt
G1 X44.950 Y168.741 E67.93451 ; skirt
G1 X44.240 Y168.491 E67.97385 ; skirt
G1 X43.560 Y168.161 E68.01335 ; skirt
G1 X42.210 Y167.421 E68.09380 ; skirt
G1 X41.610 Y167.061 E68.13037 ; skirt
G1 X41.060 Y166.631 E68.16685 ; skirt
G1 X39.880 Y165.631 E68.24768 ; skirt
G1 X39.060 Y164.811 E68.30828 ; skirt
G1 X38.060 Y163.621 E68.38951 ; skirt
G1 X37.480 Y162.821 E68.44115 ; skirt
G1 X36.660 Y161.501 E68.52236 ; skirt
G1 X36.290 Y160.831 E68.56236 ; skirt
G1 X35.660 Y159.511 E68.63879 ; skirt
G1 X35.390 Y158.871 E68.67509 ; skirt
G1 X34.850 Y157.371 E68.75841 ; skirt
G1 X34.290 Y155.421 E68.86443 ; skirt
G1 X34.180 Y154.971 E68.88864 ; skirt
G1 X33.800 Y153.141 E68.98631 ; skirt
G1 X33.500 Y151.261 E69.08580 ; skirt
G1 X33.330 Y149.721 E69.16677 ; skirt
G1 X33.170 Y147.711 E69.27214 ; skirt
G1 X33.110 Y146.211 E69.35059 ; skirt
G1 X33.090 Y144.421 E69.44414 ; skirt
G1 X33.090 Y51.331 E74.30890 ; skirt
G1 X33.110 Y50.711 E74.34132 ; skirt
G1 X33.340 Y48.171 E74.47460 ; skirt
G1 X33.430 Y47.521 E74.50889 ; skirt
G1 X33.580 Y46.881 E74.54324 ; skirt
G1 X34.330 Y44.271 E74.68516 ; skirt
G1 X34.560 Y43.621 E74.72119 ; skirt
G1 X34.840 Y43.001 E74.75674 ; skirt
G1 X36.140 Y40.491 E74.90446 ; skirt
G1 X36.500 Y39.871 E74.94193 ; skirt
G1 X36.920 Y39.301 E74.97893 ; skirt
G1 X38.740 Y37.071 E75.12935 ; skirt
G1 X39.164 Y36.602 E75.16240 ; skirt
G1 X39.530 Y36.871 F7800.000 ; move to first skirt point
G1 X40.020 Y36.441 F540.000 E75.19646 ; skirt
G1 X42.250 Y34.621 E75.34689 ; skirt
G1 X42.780 Y34.221 E75.38159 ; skirt
G1 X43.360 Y33.891 E75.41646 ; skirt
G1 X45.870 Y32.591 E75.56418 ; skirt
G1 X46.450 Y32.321 E75.59761 ; skirt
G1 X47.060 Y32.111 E75.63132 ; skirt
G1 X49.670 Y31.361 E75.77324 ; skirt
G1 X50.250 Y31.221 E75.80442 ; skirt
G1 X50.850 Y31.141 E75.83605 ; skirt
G1 X53.320 Y30.911 E75.96569 ; skirt
G1 X53.920 Y30.881 E75.99708 ; skirt
G1 X54.570 Y30.911 E76.03109 ; skirt
G1 X57.120 Y31.141 E76.16489 ; skirt
G1 X57.730 Y31.221 E76.19704 ; skirt
G1 X58.320 Y31.361 E76.22873 ; skirt
G1 X60.930 Y32.111 E76.37064 ; skirt
G1 X61.540 Y32.321 E76.40436 ; skirt
G1 X62.120 Y32.591 E76.43779 ; skirt
G1 X64.630 Y33.891 E76.58551 ; skirt
G1 X65.250 Y34.251 E76.62298 ; skirt
G1 X163.590 Y99.971 E82.80407 ; skirt
G1 X164.570 Y100.771 E82.87018 ; skirt
G1 X165.370 Y101.751 E82.93629 ; skirt
G1 X165.970 Y102.871 E83.00269 ; skirt
G1 X166.330 Y104.081 E83.06867 ; skirt
G1 X166.460 Y105.341 E83.13486 ; skirt
G1 X166.460 Y144.451 E85.17870 ; skirt
G1 X166.430 Y146.121 E85.26598 ; skirt
G1 X166.340 Y148.091 E85.36904 ; skirt
G1 X166.220 Y149.571 E85.44664 ; skirt
G1 X166.030 Y151.291 E85.53707 ; skirt
G1 X165.680 Y153.411 E85.64936 ; skirt
G1 X165.370 Y154.881 E85.72787 ; skirt
G1 X164.760 Y157.041 E85.84516 ; skirt
G1 X164.600 Y157.531 E85.87210 ; skirt
G1 X164.060 Y158.961 E85.95198 ; skirt
G1 X163.820 Y159.521 E85.98382 ; skirt
G1 X163.150 Y160.891 E86.06352 ; skirt
G1 X162.780 Y161.541 E86.10260 ; skirt
G1 X161.950 Y162.831 E86.18276 ; skirt
G1 X161.370 Y163.601 E86.23314 ; skirt
G1 X160.370 Y164.741 E86.31239 ; skirt
G1 X159.610 Y165.481 E86.36782 ; skirt
G1 X158.460 Y166.421 E86.44544 ; skirt
G1 X157.940 Y166.801 E86.47910 ; skirt
G1 X157.400 Y167.121 E86.51190 ; skirt
G1 X156.100 Y167.811 E86.58881 ; skirt
G1 X155.490 Y168.101 E86.62411 ; skirt
G1 X154.860 Y168.321 E86.65898 ; skirt
G1 X153.400 Y168.741 E86.73838 ; skirt
G1 X152.770 Y168.881 E86.77210 ; skirt
G1 X152.130 Y168.971 E86.80588 ; skirt
G1 X150.640 Y169.091 E86.88399 ; skirt
G1 X150.120 Y169.111 E86.91119 ; skirt
G1 X49.950 Y169.111 E92.14594 ; skirt
G1 X49.460 Y169.091 E92.17157 ; skirt
G1 X47.870 Y168.971 E92.25490 ; skirt
G1 X47.210 Y168.881 E92.28971 ; skirt
G1 X46.560 Y168.731 E92.32457 ; skirt
G1 X45.080 Y168.301 E92.40511 ; skirt
G1 X44.410 Y168.071 E92.44213 ; skirt
G1 X43.780 Y167.761 E92.47882 ; skirt
G1 X42.430 Y167.021 E92.55927 ; skirt
G1 X41.870 Y166.681 E92.59351 ; skirt
G1 X41.360 Y166.291 E92.62706 ; skirt
G1 X40.180 Y165.291 E92.70789 ; skirt
G1 X39.410 Y164.511 E92.76517 ; skirt
G1 X38.410 Y163.321 E92.84640 ; skirt
G1 X37.870 Y162.581 E92.89427 ; skirt
G1 X37.050 Y161.261 E92.97548 ; skirt
G1 X36.700 Y160.631 E93.01314 ; skirt
G1 X36.070 Y159.311 E93.08958 ; skirt
G1 X35.820 Y158.721 E93.12307 ; skirt
G1 X35.280 Y157.221 E93.20638 ; skirt
G1 X34.620 Y154.881 E93.33344 ; skirt
G1 X34.300 Y153.371 E93.41410 ; skirt
G1 X33.950 Y151.211 E93.52845 ; skirt
G1 X33.760 Y149.461 E93.62044 ; skirt
G1 X33.640 Y147.931 E93.70064 ; skirt
G1 X33.560 Y146.011 E93.80107 ; skirt
G1 X33.540 Y144.411 E93.88469 ; skirt
G1 X33.540 Y51.331 E98.74892 ; skirt
G1 X33.570 Y50.751 E98.77928 ; skirt
G1 X33.800 Y48.211 E98.91256 ; skirt
G1 X33.880 Y47.601 E98.94471 ; skirt
G1 X34.020 Y47.011 E98.97640 ; skirt
G1 X34.770 Y44.401 E99.11831 ; skirt
G1 X34.980 Y43.791 E99.15202 ; skirt
G1 X35.250 Y43.211 E99.18546 ; skirt
G1 X36.550 Y40.701 E99.33318 ; skirt
G1 X36.880 Y40.121 E99.36805 ; skirt
G1 X37.280 Y39.591 E99.40275 ; skirt
G1 X39.100 Y37.361 E99.55317 ; skirt
G1 X39.485 Y36.922 E99.58366 ; skirt
G1 F1800.000 E98.58366 ; retract
G92 E0 ; reset extrusion distance
G1 X51.580 Y72.251 F7800.000 ; move to first perimeter point
G1 F1800.000 E1.00000 ; compensate retraction
G1 X53.980 Y72.028 F540.000 E1.12596 ; perimeter
