; generated by Slic3r 0.9.10b on 2014-04-05 at 21:40:24

; layer_height = 0.2
; perimeters = 3
; top_solid_layers = 3
; bottom_solid_layers = 3
; fill_density = 0.2
; perimeter_speed = 30
; infill_speed = 60
; travel_speed = 130
; nozzle_diameter = 0.35
; filament_diameter = 1.75
; extrusion_multiplier = 1.25
; perimeters extrusion width = 0.52mm
; infill extrusion width = 0.52mm
; solid infill extrusion width = 0.52mm
; top infill extrusion width = 0.52mm
; first layer extrusion width = 0.40mm

G21 ; set units to millimeters
M107
M190 S60 ; wait for bed temperature to be reached
M104 S190 ; set temperature
G28; home all axes
G1 Z5 F5000 ; lift nozzle
M109 S190 ; wait for temperature to be reached
G90 ; use absolute coordinates
G92 E0
M82 ; use absolute distances for extrusion
G1 F1800.000 E-1.00000
G92 E0
G1 Z-0.850 F7800.000
G1 X59.447 Y30.723
G1 F1800.000 E1.00000
G1 X59.777 Y30.153 F540.000 E1.02665
G1 X60.167 Y29.623 E1.05327
G1 X61.987 Y27.393 E1.16973
G1 X62.417 Y26.913 E1.19581
G1 X62.897 Y26.483 E1.22188
G1 X65.127 Y24.663 E1.33834
G1 X65.657 Y24.273 E1.36496
G1 X66.227 Y23.943 E1.39161
G1 X68.737 Y22.643 E1.50598
G1 X69.317 Y22.373 E1.53186
G1 X69.917 Y22.173 E1.55745
G1 X72.527 Y21.423 E1.66733
G1 X73.107 Y21.283 E1.69147
G1 X73.697 Y21.203 E1.71556
G1 X76.177 Y20.973 E1.81633
G1 X76.767 Y20.943 E1.84023
G1 X77.397 Y20.973 E1.86575
G1 X79.947 Y21.203 E1.96934
G1 X80.787 Y21.333 E2.00373
G1 X129.467 Y32.373 E4.02334
G1 X129.807 Y32.453 E4.03747
G1 X131.497 Y32.933 E4.10855
G1 X133.427 Y33.643 E4.19175
G1 X134.027 Y33.903 E4.21821
G1 X135.397 Y34.583 E4.28009
G1 X136.017 Y34.933 E4.30890
G1 X137.307 Y35.763 E4.37096
G1 X138.037 Y36.313 E4.40794
G1 X139.177 Y37.303 E4.46903
G1 X139.577 Y37.683 E4.49136
G1 X139.947 Y38.103 E4.51400
G1 X140.887 Y39.263 E4.57441
G1 X141.247 Y39.753 E4.59901
G1 X141.557 Y40.273 E4.62351
G1 X142.247 Y41.563 E4.68270
G1 X142.537 Y42.173 E4.71002
G1 X142.757 Y42.803 E4.73702
G1 X143.177 Y44.263 E4.79849
G1 X143.327 Y44.893 E4.82469
G1 X143.407 Y45.523 E4.85039
G1 X143.527 Y47.023 E4.91127
G1 X143.547 Y47.533 E4.93192
G1 X143.547 Y147.703 E8.98479
G1 X143.527 Y148.183 E9.00423
G1 X143.407 Y149.763 E9.06834
G1 X143.317 Y150.443 E9.09609
G1 X143.157 Y151.103 E9.12357
G1 X142.717 Y152.583 E9.18604
G1 X142.507 Y153.193 E9.21214
G1 X142.227 Y153.783 E9.23856
G1 X141.497 Y155.143 E9.30102
G1 X141.147 Y155.723 E9.32842
G1 X140.737 Y156.253 E9.35554
G1 X139.737 Y157.433 E9.41812
G1 X138.977 Y158.193 E9.46160
G1 X137.787 Y159.193 E9.52449
G1 X137.047 Y159.733 E9.56156
G1 X135.727 Y160.553 E9.62443
G1 X135.057 Y160.913 E9.65520
G1 X133.727 Y161.533 E9.71458
G1 X133.237 Y161.733 E9.73599
G1 X131.587 Y162.343 E9.80716
G1 X86.037 Y177.733 E11.75246
G1 X83.117 Y178.573 E11.87540
G1 X82.557 Y178.703 E11.89866
G1 X81.977 Y178.783 E11.92235
G1 X79.427 Y179.023 E12.02597
G1 X78.827 Y179.053 E12.05028
G1 X78.227 Y179.023 E12.07459
G1 X75.687 Y178.783 E12.17781
G1 X75.107 Y178.703 E12.20150
G1 X74.547 Y178.573 E12.22476
G1 X71.937 Y177.833 E12.33452
G1 X71.327 Y177.623 E12.36063
G1 X70.737 Y177.353 E12.38688
G1 X68.227 Y176.053 E12.50125
G1 X67.657 Y175.723 E12.52789
G1 X67.127 Y175.333 E12.55452
G1 X64.897 Y173.513 E12.67098
G1 X64.417 Y173.073 E12.69732
G1 X63.977 Y172.593 E12.72367
G1 X62.157 Y170.353 E12.84044
G1 X61.777 Y169.823 E12.86683
G1 X61.447 Y169.263 E12.89313
G1 X60.147 Y166.753 E13.00750
G1 X59.887 Y166.183 E13.03284
G1 X59.677 Y165.583 E13.05856
G1 X58.927 Y162.983 E13.16805
G1 X58.787 Y162.393 E13.19258
G1 X58.707 Y161.783 E13.21747
G1 X58.447 Y158.773 E13.33971
G1 X56.447 Y41.433 E18.08797
G1 X56.477 Y40.743 E18.11591
G1 X56.707 Y38.203 E18.21910
G1 X56.787 Y37.603 E18.24359
G1 X56.927 Y37.023 E18.26773
G1 X57.677 Y34.413 E18.37761
G1 X57.877 Y33.813 E18.40319
G1 X58.147 Y33.233 E18.42908
G1 X59.420 Y30.775 E18.54108
G1 F1800.000 E17.54108
G92 E0
G1 X114.818 Y38.632 F7800.000
G1 F1800.000 E1.00000
G1 X118.838 Y38.632 F540.000 E1.16264
G1 X120.483 Y38.656 E1.22923
G1 X122.024 Y38.726 E1.29163
G1 X123.468 Y38.839 E1.35024
G1 X124.952 Y39.012 E1.41070
G1 X126.410 Y39.247 E1.47044
G1 X127.827 Y39.552 E1.52908
G1 X129.449 Y40.015 E1.59735
G1 X130.807 Y40.527 E1.65605
G1 X132.083 Y41.152 E1.71353
G1 X133.264 Y41.914 E1.77041
G1 X134.288 Y42.808 E1.82539
G1 X135.114 Y43.826 E1.87843
G1 X135.712 Y44.950 E1.92996
G1 X136.081 Y46.220 E1.98344
G1 X136.186 Y47.524 E2.03639
G1 X136.037 Y48.903 E2.09252
G1 X135.660 Y50.232 E2.14839
G1 X135.091 Y51.473 E2.20364
G1 X134.328 Y52.634 E2.25983
G1 X133.417 Y53.658 E2.31530
G1 X132.374 Y54.599 E2.37214
G1 X129.952 Y56.496 E2.49661
G1 X128.726 Y57.503 E2.56080
G1 X127.543 Y58.596 E2.62597
G1 X126.437 Y59.786 E2.69168
G1 X125.430 Y61.067 E2.75760
G1 X124.538 Y62.414 E2.82298
G1 X123.736 Y63.848 E2.88944
G1 X123.049 Y65.300 E2.95444
G1 X122.451 Y66.784 E3.01919
G1 X121.931 Y68.291 E3.08370
G1 X121.483 Y69.806 E3.14760
G1 X121.116 Y71.237 E3.20739
G1 X120.779 Y72.753 E3.27023
G1 X120.481 Y74.278 E3.33309
G1 X120.208 Y75.875 E3.39865
G1 X119.974 Y77.419 E3.46182
G1 X119.767 Y78.964 E3.52491
G1 X119.584 Y80.511 E3.58793
G1 X119.279 Y83.608 E3.71382
G1 X119.154 Y85.157 E3.77671
G1 X118.954 Y88.257 E3.90239
G1 X118.878 Y89.808 E3.96520
G1 X118.767 Y92.909 E4.09077
G1 X118.733 Y94.460 E4.15353
G1 X118.705 Y97.562 E4.27903
G1 X118.730 Y100.663 E4.40451
G1 X118.762 Y102.213 E4.46726
G1 X118.869 Y105.313 E4.59276
G1 X118.944 Y106.863 E4.65553
G1 X119.150 Y110.101 E4.78682
G1 X119.277 Y111.694 E4.85147
G1 X119.581 Y114.786 E4.97718
G1 X119.963 Y117.820 E5.10087
G1 X120.193 Y119.355 E5.16369
G1 X120.453 Y120.883 E5.22641
G1 X120.749 Y122.424 E5.28989
G1 X121.089 Y123.964 E5.35370
G1 X121.492 Y125.545 E5.41971
G1 X121.953 Y127.096 E5.48517
G1 X122.448 Y128.526 E5.54640
G1 X123.039 Y129.994 E5.61044
G1 X123.722 Y131.442 E5.67519
G1 X124.562 Y132.944 E5.74485
G1 X125.456 Y134.287 E5.81009
G1 X126.458 Y135.556 E5.87551
G1 X127.551 Y136.729 E5.94040
G1 X128.711 Y137.802 E6.00436
G1 X129.907 Y138.786 E6.06699
G1 X132.302 Y140.660 E6.19004
G1 X133.378 Y141.622 E6.24846
G1 X134.315 Y142.667 E6.30521
G1 X135.063 Y143.795 E6.35997
G1 X135.635 Y145.020 E6.41470
G1 X136.024 Y146.348 E6.47069
G1 X136.184 Y147.727 E6.52685
G1 X136.077 Y149.115 E6.58318
G1 X135.700 Y150.395 E6.63716
G1 X135.059 Y151.573 E6.69142
G1 X134.182 Y152.617 E6.74660
G1 X133.112 Y153.515 E6.80312
G1 X131.895 Y154.269 E6.86103
G1 X130.659 Y154.853 E6.91633
G1 X129.242 Y155.370 E6.97737
G1 X127.819 Y155.769 E7.03716
G1 X126.360 Y156.080 E7.09751
G1 X124.878 Y156.316 E7.15826
G1 X123.378 Y156.487 E7.21931
G1 X121.887 Y156.601 E7.27984
G1 X120.411 Y156.664 E7.33962
G1 X118.838 Y156.686 E7.40326
G1 X114.818 Y156.686 E7.56591
G1 X114.818 Y38.691 E12.33999
G1 X114.429 Y38.243 F7800.000
G1 X118.840 Y38.243 F540.000 E12.51849
G1 X120.495 Y38.267 E12.58544
G1 X122.048 Y38.337 E12.64834
G1 X123.506 Y38.452 E12.70750
G1 X125.006 Y38.627 E12.76861
G1 X126.482 Y38.865 E12.82910
G1 X127.921 Y39.174 E12.88867
G1 X129.572 Y39.645 E12.95811
G1 X130.962 Y40.170 E13.01822
G1 X132.275 Y40.813 E13.07737
G1 X133.499 Y41.603 E13.13631
G1 X134.569 Y42.537 E13.19379
G1 X135.440 Y43.610 E13.24971
G1 X136.075 Y44.803 E13.30439
G1 X136.466 Y46.149 E13.36110
G1 X136.576 Y47.529 E13.41712
G1 X136.421 Y48.978 E13.47608
G1 X136.027 Y50.367 E13.53450
G1 X135.432 Y51.662 E13.59215
G1 X134.638 Y52.871 E13.65068
G1 X133.694 Y53.933 E13.70817
G1 X132.625 Y54.896 E13.76637
G1 X130.195 Y56.801 E13.89130
G1 X128.982 Y57.797 E13.95480
G1 X127.818 Y58.872 E14.01891
G1 X126.734 Y60.039 E14.08338
G1 X125.746 Y61.295 E14.14801
G1 X124.870 Y62.616 E14.21215
G1 X124.083 Y64.026 E14.27749
G1 X123.406 Y65.456 E14.34149
G1 X122.816 Y66.920 E14.40537
G1 X122.302 Y68.410 E14.46913
G1 X121.858 Y69.909 E14.53239
G1 X121.495 Y71.328 E14.59164
G1 X121.160 Y72.833 E14.65402
G1 X120.864 Y74.348 E14.71649
G1 X120.592 Y75.937 E14.78172
G1 X120.360 Y77.474 E14.84460
G1 X120.153 Y79.013 E14.90743
G1 X119.971 Y80.554 E14.97023
G1 X119.667 Y83.641 E15.09573
G1 X119.542 Y85.186 E15.15844
G1 X119.343 Y88.278 E15.28380
G1 X119.267 Y89.825 E15.34646
G1 X119.157 Y92.919 E15.47174
G1 X119.122 Y94.467 E15.53436
G1 X119.094 Y97.562 E15.65959
G1 X119.119 Y100.656 E15.78480
G1 X119.152 Y102.203 E15.84741
G1 X119.258 Y105.296 E15.97262
G1 X119.333 Y106.842 E16.03524
G1 X119.538 Y110.073 E16.16620
G1 X119.665 Y111.661 E16.23066
G1 X119.968 Y114.743 E16.35598
G1 X120.348 Y117.765 E16.47921
G1 X120.578 Y119.294 E16.54175
G1 X120.836 Y120.814 E16.60414
G1 X121.131 Y122.345 E16.66723
G1 X121.467 Y123.874 E16.73058
G1 X121.867 Y125.441 E16.79601
G1 X122.324 Y126.977 E16.86082
G1 X122.813 Y128.389 E16.92131
G1 X123.396 Y129.839 E16.98450
G1 X124.068 Y131.264 E17.04826
G1 X124.894 Y132.741 E17.11676
G1 X125.771 Y134.058 E17.18075
G1 X126.753 Y135.302 E17.24489
G1 X127.864 Y136.489 E17.31065
G1 X128.967 Y137.509 E17.37146
G1 X130.150 Y138.482 E17.43340
G1 X132.552 Y140.362 E17.55685
G1 X133.654 Y141.346 E17.61662
G1 X134.623 Y142.428 E17.67539
G1 X135.403 Y143.604 E17.73246
G1 X136.001 Y144.882 E17.78957
G1 X136.407 Y146.271 E17.84810
G1 X136.575 Y147.719 E17.90711
G1 X136.462 Y149.186 E17.96661
G1 X136.062 Y150.545 E18.02393
G1 X135.382 Y151.793 E18.08145
G1 X134.458 Y152.894 E18.13959
G1 X133.341 Y153.831 E18.19860
G1 X132.081 Y154.611 E18.25854
G1 X130.810 Y155.213 E18.31546
G1 X129.362 Y155.741 E18.37783
G1 X127.912 Y156.147 E18.43872
G1 X126.432 Y156.463 E18.49997
G1 X124.930 Y156.702 E18.56148
G1 X123.415 Y156.875 E18.62318
G1 X121.910 Y156.989 E18.68426
G1 X120.422 Y157.053 E18.74453
G1 X118.841 Y157.075 E18.80851
G1 X114.429 Y157.075 E18.98702
G1 X114.429 Y38.301 E23.79260
G1 X114.039 Y37.854 F7800.000
G1 X118.843 Y37.854 F378.000 E23.98696
G1 X120.506 Y37.878 E24.05427
G1 X122.072 Y37.949 E24.11767
G1 X123.543 Y38.064 E24.17739
G1 X125.059 Y38.241 E24.23914
G1 X126.554 Y38.482 E24.30038
G1 X128.016 Y38.796 E24.36089
G1 X129.694 Y39.275 E24.43151
G1 X131.116 Y39.812 E24.49301
G1 X132.467 Y40.473 E24.55384
G1 X133.734 Y41.291 E24.61484
G1 X134.850 Y42.265 E24.67481
G1 X135.766 Y43.394 E24.73361
G1 X136.437 Y44.656 E24.79145
G1 X136.850 Y46.078 E24.85139
G1 X136.967 Y47.534 E24.91049
G1 X136.804 Y49.052 E24.97226
G1 X136.393 Y50.502 E25.03323
G1 X135.774 Y51.851 E25.09328
G1 X134.948 Y53.109 E25.15416
G1 X133.970 Y54.208 E25.21366
G1 X132.877 Y55.193 E25.27322
G1 X130.438 Y57.105 E25.39862
G1 X129.238 Y58.090 E25.46143
G1 X128.093 Y59.148 E25.52448
G1 X127.030 Y60.293 E25.58770
G1 X126.062 Y61.523 E25.65104
G1 X125.203 Y62.819 E25.71395
G1 X124.429 Y64.204 E25.77815
G1 X123.763 Y65.612 E25.84116
G1 X123.181 Y67.057 E25.90418
G1 X122.673 Y68.529 E25.96719
G1 X122.233 Y70.013 E26.02980
G1 X121.873 Y71.419 E26.08852
G1 X121.541 Y72.912 E26.15044
G1 X121.247 Y74.418 E26.21252
G1 X120.976 Y75.999 E26.27741
G1 X120.745 Y77.529 E26.34001
G1 X120.540 Y79.062 E26.40259
G1 X120.357 Y80.598 E26.46516
G1 X120.055 Y83.675 E26.59026
G1 X119.931 Y85.215 E26.65279
G1 X119.732 Y88.299 E26.77783
G1 X119.655 Y89.842 E26.84034
G1 X119.546 Y92.930 E26.96533
G1 X119.512 Y94.474 E27.02782
G1 X119.483 Y97.562 E27.15277
G1 X119.508 Y100.650 E27.27771
G1 X119.541 Y102.194 E27.34018
G1 X119.647 Y105.280 E27.46511
G1 X119.721 Y106.822 E27.52758
G1 X119.926 Y110.044 E27.65820
G1 X120.053 Y111.627 E27.72248
G1 X120.355 Y114.700 E27.84741
G1 X120.734 Y117.710 E27.97016
G1 X120.962 Y119.232 E28.03242
G1 X121.219 Y120.745 E28.09449
G1 X121.512 Y122.267 E28.15720
G1 X121.846 Y123.784 E28.22008
G1 X122.242 Y125.338 E28.28494
G1 X122.695 Y126.857 E28.34909
G1 X123.177 Y128.253 E28.40885
G1 X123.753 Y129.683 E28.47119
G1 X124.414 Y131.085 E28.53394
G1 X125.227 Y132.538 E28.60129
G1 X126.086 Y133.829 E28.66403
G1 X127.049 Y135.048 E28.72689
G1 X128.101 Y136.177 E28.78932
G1 X129.223 Y137.215 E28.85119
G1 X130.393 Y138.178 E28.91245
G1 X132.803 Y140.064 E29.03629
G1 X133.929 Y141.070 E29.09741
G1 X134.932 Y142.189 E29.15820
G1 X135.744 Y143.412 E29.21759
G1 X136.366 Y144.745 E29.27708
G1 X136.790 Y146.193 E29.33814
G1 X136.966 Y147.712 E29.40000
G1 X136.847 Y149.257 E29.46269
G1 X136.424 Y150.695 E29.52334
G1 X135.706 Y152.014 E29.58411
G1 X134.734 Y153.170 E29.64520
G1 X133.569 Y154.147 E29.70673
G1 X132.268 Y154.954 E29.76869
G1 X130.960 Y155.573 E29.82722
G1 X129.481 Y156.112 E29.89092
G1 X128.005 Y156.525 E29.95291
G1 X126.503 Y156.846 E30.01507
G1 X124.983 Y157.088 E30.07733
G1 X123.452 Y157.263 E30.13969
G1 X121.933 Y157.378 E30.20132
G1 X120.433 Y157.443 E30.26208
G1 X118.843 Y157.465 E30.32640
G1 X114.039 Y157.465 E30.52077
G1 X114.039 Y37.912 E35.35784
G1 X114.376 Y38.048 F7800.000
G1 X133.361 Y42.373
G1 X134.481 Y43.493 F1080.000 E35.42194
G1 X135.399 Y44.962 E35.49206
G1 X131.731 Y41.294 E35.70203
G1 X130.659 Y40.773 E35.75027
G1 X135.656 Y45.770 E36.03636
G1 X135.819 Y46.484 E36.06597
G1 X129.775 Y40.439 E36.41197
G1 X128.951 Y40.166 E36.44712
G1 X135.867 Y47.083 E36.84305
G1 X135.888 Y47.654 E36.86620
G1 X128.180 Y39.946 E37.30746
G1 X127.440 Y39.757 E37.33835
G1 X135.834 Y48.151 E37.81889
G1 X135.781 Y48.649 E37.83914
G1 X126.739 Y39.607 E38.35676
G1 X126.058 Y39.476 E38.38483
G1 X135.687 Y49.105 E38.93604
G1 X135.565 Y49.534 E38.95410
G1 X125.401 Y39.370 E39.53594
G1 X124.753 Y39.273 E39.56247
G1 X135.443 Y49.963 E40.17445
G1 X135.290 Y50.361 E40.19171
G1 X124.130 Y39.200 E40.83063
G1 X123.506 Y39.128 E40.85603
G1 X135.117 Y50.739 E41.52072
G1 X134.944 Y51.116 E41.53753
G1 X122.906 Y39.078 E42.22668
G1 X122.308 Y39.031 E42.25094
G1 X134.752 Y51.475 E42.96330
G1 X134.534 Y51.808 E42.97940
G1 X121.721 Y38.995 E43.71289
G1 X121.144 Y38.968 E43.73626
G1 X134.315 Y52.140 E44.49027
G1 X134.095 Y52.471 E44.50635
G1 X120.567 Y38.942 E45.28081
G1 X120.005 Y38.931 E45.30355
G1 X133.836 Y52.762 E46.09532
G1 X133.577 Y53.054 E46.11111
G1 X119.446 Y38.923 E46.92003
G1 X118.887 Y38.915 E46.94266
G1 X133.318 Y53.345 E47.76873
G1 X133.040 Y53.618 E47.78450
G1 X118.336 Y38.914 E48.62624
G1 X117.785 Y38.914 E48.64853
G1 X132.750 Y53.879 E49.50522
G1 X132.461 Y54.141 E49.52101
G1 X117.234 Y38.914 E50.39265
G1 X116.684 Y38.914 E50.41494
G1 X132.169 Y54.400 E51.30145
G1 X131.861 Y54.642 E51.31733
G1 X116.133 Y38.914 E52.21769
G1 X115.582 Y38.914 E52.23998
G1 X131.552 Y54.884 E53.15419
G1 X131.243 Y55.126 E53.17007
G1 X115.100 Y38.983 E54.09421
G1 X115.100 Y39.534 E54.11650
G1 X130.934 Y55.368 E55.02296
G1 X130.626 Y55.610 E55.03884
G1 X115.100 Y40.085 E55.92762
G1 X115.100 Y40.635 E55.94991
G1 X130.317 Y55.852 E56.82101
G1 X130.008 Y56.094 E56.83689
G1 X115.100 Y41.186 E57.69032
G1 X115.100 Y41.737 E57.71261
G1 X129.701 Y56.338 E58.54845
G1 X129.398 Y56.586 E58.56429
G1 X115.100 Y42.288 E59.38282
G1 X115.100 Y42.838 E59.40512
G1 X129.096 Y56.834 E60.20633
G1 X128.793 Y57.083 E60.22217
G1 X115.100 Y43.389 E61.00607
G1 X115.100 Y43.940 E61.02837
G1 X128.494 Y57.334 E61.79511
G1 X128.207 Y57.598 E61.81088
G1 X115.100 Y44.491 E62.56124
G1 X115.100 Y45.042 E62.58353
G1 X127.921 Y57.863 E63.31750
G1 X127.635 Y58.127 E63.33328
G1 X115.100 Y45.592 E64.05087
G1 X115.100 Y46.143 E64.07316
G1 X127.349 Y58.392 E64.77436
G1 X127.083 Y58.677 E64.79013
G1 X115.100 Y46.694 E65.47612
G1 X115.100 Y47.245 E65.49842
G1 X126.818 Y58.963 E66.16922
G1 X126.552 Y59.248 E66.18499
G1 X115.100 Y47.795 E66.84060
G1 X115.100 Y48.346 E66.86290
G1 X126.287 Y59.533 E67.50332
G1 X126.039 Y59.836 E67.51916
G1 X115.100 Y48.897 E68.14539
G1 X115.100 Y49.448 E68.16768
G1 X125.797 Y60.144 E68.78003
G1 X125.554 Y60.453 E68.79591
G1 X115.100 Y49.998 E69.39437
G1 X115.100 Y50.549 E69.41667
G1 X125.312 Y60.761 E70.00126
G1 X125.082 Y61.082 E70.01724
G1 X115.100 Y51.100 E70.58866
G1 X115.100 Y51.651 E70.61096
G1 X124.862 Y61.413 E71.16982
G1 X124.643 Y61.744 E71.18590
G1 X115.100 Y52.202 E71.73220
G1 X115.100 Y52.752 E71.75449
G1 X124.423 Y62.076 E72.28822
G1 X124.213 Y62.416 E72.30442
G1 X115.100 Y53.303 E72.82611
G1 X115.100 Y53.854 E72.84841
G1 X124.016 Y62.770 E73.35880
G1 X123.818 Y63.123 E73.37518
G1 X115.100 Y54.405 E73.87427
G1 X115.100 Y54.955 E73.89656
G1 X123.621 Y63.476 E74.38435
G1 X123.430 Y63.836 E74.40084
