; generated by Slic3r 0.9.10b on 2014-04-06 at 00:19:52

; layer_height = 0.15
; perimeters = 3
; top_solid_layers = 5
; bottom_solid_layers = 5
; fill_density = 0.3
; perimeter_speed = 30
; infill_speed = 60
; travel_speed = 130
; nozzle_diameter = 0.35
; filament_diameter = 1.75
; extrusion_multiplier = 1.25
; perimeters extrusion width = 0.59mm
; infill extrusion width = 0.67mm
; solid infill extrusion width = 0.59mm
; top infill extrusion width = 0.59mm
; first layer extrusion width = 0.36mm

G21 ; set units to millimeters
M107
M190 S60 ; wait for bed temperature to be reached
M104 S190 ; set temperature
G28; home all axes
G1 Z5 F5000 ; lift nozzle
M109 S190 ; wait for temperature to be reached
G90 ; use absolute coordinates
G92 E0
M82 ; use absolute distances for extrusion
G1 F1800.000 E-1.00000
G92 E0
G1 Z-0.770 F7800.000
G1 X33.820 Y19.537
G1 F1800.000 E1.00000
G1 X34.750 Y18.417 F540.000 E1.04873
G1 X35.870 Y17.487 E1.09746
G1 X37.160 Y16.797 E1.14644
G1 X38.550 Y16.377 E1.19505
G1 X40.000 Y16.237 E1.24381
G1 X160.000 Y16.237 E5.26083
G1 X161.450 Y16.377 E5.30959
G1 X162.840 Y16.797 E5.35820
G1 X164.130 Y17.487 E5.40717
G1 X165.250 Y18.417 E5.45590
G1 X166.180 Y19.537 E5.50464
G1 X166.870 Y20.827 E5.55361
G1 X167.290 Y22.217 E5.60222
G1 X167.430 Y23.667 E5.65098
G1 X167.430 Y62.787 E6.96053
G1 X167.400 Y64.457 E7.01644
G1 X167.310 Y66.497 E7.08480
G1 X167.170 Y68.197 E7.14190
G1 X167.000 Y69.727 E7.19343
G1 X166.690 Y71.637 E7.25820
G1 X157.760 Y124.777 E9.06202
G1 X157.570 Y125.607 E9.09052
G1 X156.820 Y128.207 E9.18110
G1 X156.580 Y128.897 E9.20556
G1 X156.280 Y129.567 E9.23013
G1 X154.980 Y132.077 E9.32476
G1 X154.600 Y132.727 E9.34996
G1 X154.150 Y133.347 E9.37560
G1 X152.330 Y135.587 E9.47222
G1 X118.300 Y176.947 E11.26515
G1 X117.800 Y177.497 E11.29004
G1 X117.250 Y177.997 E11.31492
G1 X115.010 Y179.817 E11.41153
G1 X114.390 Y180.267 E11.43718
G1 X113.740 Y180.647 E11.46238
G1 X111.230 Y181.947 E11.55701
G1 X110.560 Y182.247 E11.58158
G1 X109.870 Y182.487 E11.60604
G1 X107.270 Y183.237 E11.69662
G1 X106.580 Y183.397 E11.72033
G1 X105.880 Y183.497 E11.74400
G1 X103.330 Y183.727 E11.82971
G1 X102.660 Y183.757 E11.85216
G1 X101.990 Y183.727 E11.87461
G1 X99.440 Y183.497 E11.96032
G1 X98.740 Y183.397 E11.98399
G1 X98.050 Y183.237 E12.00770
G1 X95.450 Y182.487 E12.09828
G1 X94.760 Y182.247 E12.12274
G1 X94.090 Y181.947 E12.14731
G1 X91.580 Y180.647 E12.24194
G1 X90.930 Y180.267 E12.26714
G1 X90.310 Y179.817 E12.29279
G1 X88.070 Y177.997 E12.38940
G1 X87.580 Y177.557 E12.41145
G1 X41.580 Y132.887 E14.55788
G1 X41.000 Y132.257 E14.58655
G1 X39.180 Y130.027 E14.68290
G1 X38.730 Y129.407 E14.70855
G1 X38.340 Y128.747 E14.73421
G1 X37.040 Y126.237 E14.82883
G1 X36.730 Y125.557 E14.85385
G1 X36.490 Y124.847 E14.87894
G1 X35.750 Y122.237 E14.96975
G1 X35.600 Y121.577 E14.99241
G1 X35.500 Y120.907 E15.01509
G1 X35.260 Y118.357 E15.10083
G1 X32.650 Y66.057 E16.85375
G1 X32.590 Y64.557 E16.90401
G1 X32.570 Y62.747 E16.96460
G1 X32.570 Y23.667 E18.27281
G1 X32.710 Y22.217 E18.32157
G1 X33.130 Y20.827 E18.37018
G1 X33.795 Y19.584 E18.41736
G1 X34.120 Y19.737 F7800.000
G1 X35.000 Y18.667 F540.000 E18.46373
G1 X36.070 Y17.787 E18.51011
G1 X37.290 Y17.127 E18.55654
G1 X38.620 Y16.727 E18.60303
G1 X40.000 Y16.597 E18.64943
G1 X160.000 Y16.597 E22.66645
G1 X161.380 Y16.727 E22.71285
G1 X162.710 Y17.127 E22.75934
G1 X163.930 Y17.787 E22.80578
G1 X165.000 Y18.667 E22.85215
G1 X165.880 Y19.737 E22.89853
G1 X166.540 Y20.957 E22.94496
G1 X166.940 Y22.287 E22.99145
G1 X167.070 Y23.667 E23.03785
G1 X167.070 Y62.787 E24.34740
G1 X167.040 Y64.647 E24.40967
G1 X166.970 Y66.217 E24.46228
G1 X166.830 Y67.947 E24.52038
G1 X166.590 Y70.067 E24.59180
G1 X166.340 Y71.577 E24.64304
G1 X157.410 Y124.717 E26.44685
G1 X157.230 Y125.507 E26.47397
G1 X156.480 Y128.107 E26.56456
G1 X156.250 Y128.767 E26.58795
G1 X155.960 Y129.397 E26.61117
G1 X154.660 Y131.907 E26.70579
G1 X154.300 Y132.537 E26.73008
G1 X153.870 Y133.117 E26.75425
G1 X152.050 Y135.357 E26.85087
G1 X118.020 Y176.717 E28.64380
G1 X117.550 Y177.247 E28.66751
G1 X117.020 Y177.717 E28.69123
G1 X114.780 Y179.537 E28.78784
G1 X114.200 Y179.967 E28.81201
G1 X113.570 Y180.327 E28.83630
G1 X111.060 Y181.627 E28.93092
G1 X110.430 Y181.917 E28.95414
G1 X109.770 Y182.147 E28.97754
G1 X107.170 Y182.897 E29.06812
G1 X106.510 Y183.047 E29.09078
G1 X105.850 Y183.137 E29.11308
G1 X103.300 Y183.367 E29.19878
G1 X102.660 Y183.397 E29.22023
G1 X102.020 Y183.367 E29.24168
G1 X99.470 Y183.137 E29.32739
G1 X98.810 Y183.047 E29.34969
G1 X98.150 Y182.897 E29.37234
G1 X95.550 Y182.147 E29.46293
G1 X94.890 Y181.917 E29.48632
G1 X94.260 Y181.627 E29.50954
G1 X91.750 Y180.327 E29.60416
G1 X91.120 Y179.967 E29.62845
G1 X90.540 Y179.537 E29.65262
G1 X88.300 Y177.717 E29.74924
G1 X87.830 Y177.297 E29.77034
G1 X41.830 Y132.627 E31.91677
G1 X41.280 Y132.027 E31.94402
G1 X39.460 Y129.797 E32.04037
G1 X39.030 Y129.207 E32.06481
G1 X38.660 Y128.577 E32.08927
G1 X37.360 Y126.067 E32.18390
G1 X37.060 Y125.417 E32.20786
G1 X36.830 Y124.747 E32.23157
G1 X36.090 Y122.137 E32.32239
G1 X35.950 Y121.507 E32.34399
G1 X35.860 Y120.867 E32.36563
G1 X35.620 Y118.317 E32.45136
G1 X33.010 Y66.037 E34.20362
G1 X32.950 Y64.537 E34.25388
G1 X32.930 Y62.747 E34.31380
G1 X32.930 Y23.667 E35.62201
G1 X33.060 Y22.287 E35.66841
G1 X33.460 Y20.957 E35.71490
G1 X34.094 Y19.784 E35.75954
G1 X34.420 Y19.937 F7800.000
G1 X35.250 Y18.917 F540.000 E35.80356
G1 X36.270 Y18.087 E35.84758
G1 X37.430 Y17.467 E35.89161
G1 X38.690 Y17.077 E35.93576
G1 X40.000 Y16.947 E35.97983
G1 X160.000 Y16.947 E39.99685
G1 X161.310 Y17.077 E40.04091
G1 X162.570 Y17.467 E40.08507
G1 X163.730 Y18.087 E40.12910
G1 X164.750 Y18.917 E40.17312
G1 X165.580 Y19.937 E40.21714
G1 X166.200 Y21.097 E40.26117
G1 X166.590 Y22.357 E40.30532
G1 X166.720 Y23.667 E40.34939
G1 X166.720 Y62.657 E41.65458
G1 X166.680 Y64.627 E41.72054
G1 X166.610 Y66.197 E41.77315
G1 X166.470 Y67.917 E41.83092
G1 X166.280 Y69.647 E41.88918
G1 X165.980 Y71.517 E41.95258
G1 X157.050 Y124.657 E43.75639
G1 X156.880 Y125.407 E43.78213
G1 X156.130 Y128.007 E43.87272
G1 X155.920 Y128.637 E43.89495
G1 X155.640 Y129.237 E43.91711
G1 X154.340 Y131.747 E44.01174
G1 X154.000 Y132.337 E44.03453
G1 X153.590 Y132.887 E44.05749
G1 X151.750 Y135.167 E44.15557
G1 X117.750 Y176.497 E45.94709
G1 X117.290 Y176.987 E45.96959
G1 X116.790 Y177.437 E45.99211
G1 X114.550 Y179.257 E46.08872
G1 X114.000 Y179.667 E46.11169
G1 X113.410 Y180.007 E46.13448
G1 X110.900 Y181.307 E46.22911
G1 X110.300 Y181.587 E46.25127
G1 X109.670 Y181.797 E46.27350
G1 X107.070 Y182.547 E46.36408
G1 X106.450 Y182.697 E46.38544
G1 X105.810 Y182.787 E46.40707
G1 X103.260 Y183.017 E46.49278
G1 X102.660 Y183.047 E46.51289
G1 X102.060 Y183.017 E46.53300
G1 X99.510 Y182.787 E46.61871
G1 X98.870 Y182.697 E46.64034
G1 X98.250 Y182.547 E46.66170
G1 X95.650 Y181.797 E46.75228
G1 X95.020 Y181.587 E46.77451
G1 X94.420 Y181.307 E46.79668
G1 X91.910 Y180.007 E46.89130
G1 X91.320 Y179.667 E46.91409
G1 X90.770 Y179.257 E46.93706
G1 X88.530 Y177.437 E47.03367
G1 X88.080 Y177.047 E47.05361
G1 X42.080 Y132.377 E49.20004
G1 X41.560 Y131.807 E49.22587
G1 X39.740 Y129.577 E49.32223
G1 X39.330 Y129.017 E49.34546
G1 X38.980 Y128.417 E49.36871
G1 X37.680 Y125.907 E49.46334
G1 X37.400 Y125.287 E49.48611
G1 X37.180 Y124.647 E49.50876
G1 X36.440 Y122.037 E49.59958
G1 X36.300 Y121.447 E49.61988
G1 X36.210 Y120.837 E49.64052
G1 X35.970 Y118.287 E49.72626
G1 X33.370 Y66.087 E51.47582
G1 X33.300 Y64.337 E51.53445
G1 X33.280 Y62.737 E51.58802
G1 X33.280 Y23.667 E52.89589
G1 X33.410 Y22.357 E52.93996
G1 X33.800 Y21.097 E52.98411
G1 X34.395 Y19.984 E53.02634
G1 X34.710 Y20.137 F7800.000
G1 X35.500 Y19.167 F540.000 E53.06822
G1 X36.470 Y18.377 E53.11010
G1 X37.570 Y17.797 E53.15173
G1 X38.760 Y17.427 E53.19344
G1 X40.000 Y17.307 E53.23515
G1 X160.000 Y17.307 E57.25216
G1 X161.240 Y17.427 E57.29387
G1 X162.430 Y17.797 E57.33558
G1 X163.530 Y18.377 E57.37721
G1 X164.500 Y19.167 E57.41909
G1 X165.290 Y20.137 E57.46096
G1 X165.870 Y21.237 E57.50259
G1 X166.240 Y22.427 E57.54431
G1 X166.360 Y23.667 E57.58601
G1 X166.360 Y62.767 E58.89489
G1 X166.330 Y64.437 E58.95080
G1 X166.240 Y66.407 E59.01682
G1 X166.120 Y67.887 E59.06652
G1 X165.880 Y69.957 E59.13628
G1 X156.700 Y124.597 E60.99100
G1 X156.540 Y125.307 E61.01536
G1 X155.790 Y127.907 E61.10594
G1 X155.590 Y128.497 E61.12680
G1 X155.330 Y129.067 E61.14777
G1 X154.030 Y131.577 E61.24239
G1 X153.700 Y132.137 E61.26415
G1 X153.310 Y132.667 E61.28618
G1 X151.470 Y134.937 E61.38400
G1 X117.470 Y176.267 E63.17552
G1 X117.040 Y176.737 E63.19684
G1 X116.570 Y177.157 E63.21794
G1 X114.330 Y178.977 E63.31456
G1 X113.800 Y179.367 E63.33659
G1 X113.240 Y179.697 E63.35834
G1 X110.730 Y180.997 E63.45297
G1 X110.160 Y181.257 E63.47394
G1 X109.570 Y181.457 E63.49479
G1 X106.970 Y182.207 E63.58538
G1 X106.380 Y182.347 E63.60568
G1 X105.780 Y182.427 E63.62594
G1 X103.230 Y182.657 E63.71165
G1 X102.660 Y182.687 E63.73075
G1 X102.090 Y182.657 E63.74986
G1 X99.540 Y182.427 E63.83557
G1 X98.940 Y182.347 E63.85583
G1 X98.350 Y182.207 E63.87613
G1 X95.750 Y181.457 E63.96672
G1 X95.160 Y181.257 E63.98757
G1 X94.590 Y180.997 E64.00854
G1 X92.080 Y179.697 E64.10317
G1 X91.520 Y179.367 E64.12492
G1 X90.990 Y178.977 E64.14695
G1 X88.750 Y177.157 E64.24357
G1 X88.330 Y176.787 E64.26230
G1 X42.330 Y132.117 E66.40874
G1 X41.830 Y131.577 E66.43337
G1 X40.010 Y129.347 E66.52973
G1 X39.630 Y128.817 E66.55156
G1 X39.290 Y128.247 E66.57378
G1 X37.990 Y125.737 E66.66840
G1 X37.730 Y125.157 E66.68968
G1 X37.520 Y124.547 E66.71127
G1 X36.780 Y121.937 E66.80209
G1 X36.650 Y121.377 E66.82133
G1 X36.570 Y120.807 E66.84060
G1 X36.310 Y117.977 E66.93573
G1 X33.730 Y66.077 E68.67524
G1 X33.660 Y64.337 E68.73353
G1 X33.640 Y62.737 E68.78710
G1 X33.640 Y23.667 E70.09497
G1 X33.760 Y22.427 E70.13667
G1 X34.130 Y21.237 E70.17839
G1 X34.685 Y20.184 E70.21822
G1 F1800.000 E69.21822
G92 E0
G1 X40.895 Y58.561 F7800.000
G1 F1800.000 E1.00000
G1 X159.105 Y58.561 F540.000 E4.95712
G1 X159.105 Y62.660 E5.09433
G1 X159.081 Y64.308 E5.14948
G1 X159.012 Y65.851 E5.20120
G1 X158.898 Y67.298 E5.24978
G1 X158.725 Y68.785 E5.29991
G1 X158.489 Y70.246 E5.34946
G1 X158.184 Y71.668 E5.39813
G1 X157.719 Y73.296 E5.45482
G1 X157.204 Y74.660 E5.50362
G1 X156.575 Y75.944 E5.55146
G1 X155.808 Y77.133 E5.59886
G1 X154.906 Y78.167 E5.64476
G1 X153.877 Y79.002 E5.68913
G1 X152.739 Y79.607 E5.73229
G1 X151.454 Y79.980 E5.77708
G1 X150.134 Y80.086 E5.82139
G1 X148.741 Y79.937 E5.86831
G1 X147.400 Y79.556 E5.91496
G1 X146.148 Y78.982 E5.96107
G1 X144.978 Y78.213 E6.00795
G1 X143.946 Y77.295 E6.05418
G1 X143.000 Y76.246 E6.10144
G1 X141.101 Y73.823 E6.20450
G1 X140.097 Y72.600 E6.25749
G1 X139.007 Y71.421 E6.31123
G1 X137.822 Y70.319 E6.36539
G1 X136.546 Y69.316 E6.41972
G1 X135.205 Y68.427 E6.47360
G1 X133.776 Y67.628 E6.52840
G1 X132.328 Y66.943 E6.58201
G1 X130.848 Y66.347 E6.63544
G1 X129.344 Y65.828 E6.68869
G1 X127.833 Y65.381 E6.74145
G1 X126.403 Y65.015 E6.79083
G1 X124.890 Y64.677 E6.84275
G1 X123.367 Y64.381 E6.89469
G1 X121.771 Y64.107 E6.94888
G1 X120.229 Y63.874 E7.00109
G1 X117.139 Y63.484 E7.10534
G1 X114.045 Y63.179 E7.20944
G1 X112.496 Y63.055 E7.26144
G1 X109.398 Y62.855 E7.36537
G1 X107.848 Y62.778 E7.41731
G1 X104.748 Y62.668 E7.52115
G1 X103.198 Y62.634 E7.57306
G1 X100.097 Y62.605 E7.67685
G1 X96.997 Y62.630 E7.78062
G1 X95.448 Y62.663 E7.83251
G1 X92.349 Y62.770 E7.93630
G1 X90.800 Y62.844 E7.98821
G1 X87.564 Y63.050 E8.09678
G1 X85.972 Y63.178 E8.15023
G1 X82.881 Y63.482 E8.25418
G1 X81.390 Y63.658 E8.30446
G1 X79.851 Y63.863 E8.35644
G1 X78.316 Y64.093 E8.40837
G1 X76.790 Y64.352 E8.46021
G1 X75.251 Y64.648 E8.51266
G1 X73.713 Y64.987 E8.56538
G1 X72.135 Y65.389 E8.61990
G1 X70.587 Y65.850 E8.67395
G1 X69.161 Y66.344 E8.72448
G1 X67.696 Y66.933 E8.77733
G1 X66.253 Y67.614 E8.83074
G1 X64.756 Y68.451 E8.88817
G1 X63.419 Y69.341 E8.94194
G1 X62.155 Y70.339 E8.99586
G1 X60.985 Y71.428 E9.04934
G1 X59.916 Y72.585 E9.10208
G1 X58.934 Y73.778 E9.15379
G1 X57.059 Y76.175 E9.25566
G1 X56.093 Y77.256 E9.30422
G1 X55.040 Y78.199 E9.35151
G1 X53.903 Y78.954 E9.39720
G1 X52.667 Y79.531 E9.44288
G1 X51.326 Y79.923 E9.48963
G1 X49.934 Y80.085 E9.53657
G1 X48.530 Y79.977 E9.58370
G1 X47.234 Y79.596 E9.62893
G1 X46.042 Y78.946 E9.67436
G1 X44.986 Y78.060 E9.72051
G1 X44.080 Y76.980 E9.76769
G1 X43.321 Y75.755 E9.81594
G1 X42.733 Y74.512 E9.86197
G1 X42.214 Y73.088 E9.91269
G1 X41.814 Y71.660 E9.96234
G1 X41.502 Y70.197 E10.01242
G1 X41.265 Y68.710 E10.06281
G1 X41.094 Y67.208 E10.11343
G1 X40.980 Y65.713 E10.16360
G1 X40.916 Y64.235 E10.21314
G1 X40.895 Y62.660 E10.26585
G1 X40.895 Y58.615 E10.40127
G1 X40.537 Y58.203 F7800.000
G1 X159.463 Y58.203 F540.000 E14.38235
G1 X159.463 Y62.663 E14.53163
G1 X159.439 Y64.318 E14.58705
G1 X159.369 Y65.873 E14.63915
G1 X159.254 Y67.332 E14.68815
G1 X159.079 Y68.834 E14.73877
G1 X158.841 Y70.313 E14.78890
G1 X158.531 Y71.755 E14.83828
G1 X158.059 Y73.409 E14.89585
G1 X157.533 Y74.802 E14.94572
G1 X156.887 Y76.120 E14.99483
G1 X156.094 Y77.349 E15.04380
G1 X155.155 Y78.425 E15.09161
G1 X154.076 Y79.301 E15.13816
G1 X152.874 Y79.941 E15.18372
G1 X151.519 Y80.334 E15.23096
G1 X150.129 Y80.446 E15.27762
G1 X148.672 Y80.289 E15.32668
G1 X147.276 Y79.893 E15.37527
G1 X145.974 Y79.296 E15.42321
G1 X144.759 Y78.498 E15.47187
G1 X143.693 Y77.549 E15.51964
G1 X142.727 Y76.478 E15.56793
G1 X140.822 Y74.046 E15.67134
G1 X139.827 Y72.835 E15.72381
G1 X138.754 Y71.674 E15.77674
G1 X137.589 Y70.591 E15.82996
G1 X136.337 Y69.606 E15.88330
G1 X135.018 Y68.733 E15.93625
G1 X133.612 Y67.947 E15.99019
G1 X132.184 Y67.271 E16.04304
G1 X130.722 Y66.682 E16.09581
G1 X129.235 Y66.169 E16.14849
G1 X127.737 Y65.726 E16.20076
G1 X126.320 Y65.363 E16.24973
G1 X124.817 Y65.028 E16.30130
G1 X123.302 Y64.733 E16.35294
G1 X121.714 Y64.460 E16.40688
G1 X120.178 Y64.228 E16.45887
G1 X117.099 Y63.839 E16.56276
G1 X114.014 Y63.536 E16.66655
G1 X112.469 Y63.411 E16.71842
G1 X109.378 Y63.212 E16.82211
G1 X107.832 Y63.136 E16.87394
G1 X104.738 Y63.026 E16.97756
G1 X103.191 Y62.991 E17.02936
G1 X100.097 Y62.963 E17.13294
G1 X97.003 Y62.988 E17.23651
G1 X95.457 Y63.021 E17.28829
G1 X92.365 Y63.127 E17.39186
G1 X90.819 Y63.202 E17.44366
G1 X87.590 Y63.407 E17.55197
G1 X86.002 Y63.534 E17.60529
G1 X82.921 Y63.837 E17.70894
G1 X81.434 Y64.013 E17.75905
G1 X79.901 Y64.217 E17.81084
G1 X78.373 Y64.446 E17.86256
G1 X76.854 Y64.704 E17.91415
G1 X75.323 Y64.999 E17.96631
G1 X73.796 Y65.335 E18.01867
G1 X72.230 Y65.734 E18.07275
G1 X70.697 Y66.191 E18.12631
G1 X69.286 Y66.679 E18.17628
G1 X67.839 Y67.261 E18.22848
G1 X66.417 Y67.932 E18.28113
G1 X64.943 Y68.757 E18.33768
G1 X63.629 Y69.631 E18.39051
G1 X62.388 Y70.611 E18.44345
G1 X61.239 Y71.681 E18.49599
G1 X60.186 Y72.820 E18.54794
G1 X59.214 Y74.001 E18.59912
G1 X57.333 Y76.405 E18.70130
G1 X56.346 Y77.509 E18.75088
G1 X55.260 Y78.483 E18.79971
G1 X54.079 Y79.266 E18.84716
G1 X52.793 Y79.867 E18.89465
G1 X51.398 Y80.275 E18.94333
G1 X49.941 Y80.444 E18.99244
G1 X48.465 Y80.331 E19.04199
G1 X47.096 Y79.928 E19.08975
G1 X45.839 Y79.243 E19.13766
G1 X44.732 Y78.314 E19.18606
G1 X43.790 Y77.190 E19.23514
G1 X43.006 Y75.926 E19.28493
G1 X42.403 Y74.650 E19.33218
G1 X41.873 Y73.198 E19.38392
G1 X41.467 Y71.745 E19.43441
G1 X41.150 Y70.262 E19.48517
G1 X40.910 Y68.759 E19.53614
G1 X40.737 Y67.242 E19.58726
G1 X40.623 Y65.735 E19.63785
G1 X40.559 Y64.245 E19.68776
G1 X40.537 Y62.663 E19.74073
G1 X40.537 Y58.257 E19.88821
G1 X40.179 Y57.846 F7800.000
G1 X159.821 Y57.846 F378.000 E23.89325
G1 X159.821 Y62.665 E24.05459
G1 X159.797 Y64.329 E24.11029
G1 X159.726 Y65.895 E24.16277
G1 X159.610 Y67.367 E24.21219
G1 X159.434 Y68.884 E24.26330
G1 X159.192 Y70.379 E24.31400
G1 X158.878 Y71.842 E24.36409
G1 X158.399 Y73.521 E24.42256
G1 X157.862 Y74.945 E24.47349
G1 X157.200 Y76.296 E24.52387
G1 X156.381 Y77.565 E24.57442
G1 X155.405 Y78.684 E24.62412
G1 X154.274 Y79.601 E24.67286
G1 X153.009 Y80.274 E24.72082
G1 X151.584 Y80.688 E24.77052
