; generated by Slic3r 0.9.10b on 2014-04-03 at 01:43:21

; layer_height = 0.2
; perimeters = 2
; top_solid_layers = 5
; bottom_solid_layers = 5
; fill_density = 0.24
; perimeter_speed = 30
; infill_speed = 60
; travel_speed = 130
; nozzle_diameter = 0.35
; filament_diameter = 1.75
; extrusion_multiplier = 1.1
; perimeters extrusion width = 0.52mm
; infill extrusion width = 0.52mm
; solid infill extrusion width = 0.52mm
; top infill extrusion width = 0.52mm
; first layer extrusion width = 0.50mm

G21 ; set units to millimeters
M107 ; disable fan
M190 S60 ; wait for bed temperature to be reached
M104 S196 ; set temperature
G28; home all axes
G1 Z5 F5000 ; lift nozzle
M109 S196 ; wait for temperature to be reached
G90 ; use absolute coordinates
G92 E0 ; reset extrusion distance
M82 ; use absolute distances for extrusion
G1 F1800.000 E-1.00000 ; retract
G92 E0 ; reset extrusion distance
G1 Z0.550 F7800.000 ; move to next layer (0)
G1 X42.010 Y67.041 ; move to first skirt point
G1 F1800.000 E1.00000 ; compensate retraction
G1 X42.710 Y66.631 F540.000 E1.04339 ; skirt
G1 X45.220 Y65.331 E1.19458 ; skirt
G1 X45.930 Y65.011 E1.23623 ; skirt
G1 X46.670 Y64.751 E1.27818 ; skirt
G1 X49.280 Y64.001 E1.42343 ; skirt
G1 X49.990 Y63.841 E1.46235 ; skirt
G1 X50.720 Y63.731 E1.50184 ; skirt
G1 X53.190 Y63.501 E1.63452 ; skirt
G1 X53.990 Y63.471 E1.67734 ; skirt
G1 X54.700 Y63.501 E1.71535 ; skirt
G1 X57.250 Y63.731 E1.85229 ; skirt
G1 X57.990 Y63.831 E1.89223 ; skirt
G1 X58.710 Y64.001 E1.93180 ; skirt
G1 X61.600 Y64.841 E2.09277 ; skirt
G1 X162.450 Y97.861 E7.76854 ; skirt
G1 X163.740 Y98.421 E7.84376 ; skirt
G1 X164.920 Y99.191 E7.91912 ; skirt
G1 X165.930 Y100.171 E7.99439 ; skirt
G1 X166.760 Y101.311 E8.06981 ; skirt
G1 X167.370 Y102.581 E8.14517 ; skirt
G1 X167.750 Y103.941 E8.22069 ; skirt
G1 X167.870 Y105.341 E8.29585 ; skirt
G1 X167.870 Y110.471 E8.57023 ; skirt
G1 X167.840 Y112.141 E8.65956 ; skirt
G1 X167.750 Y114.211 E8.77038 ; skirt
G1 X167.630 Y115.691 E8.84980 ; skirt
G1 X167.430 Y117.451 E8.94454 ; skirt
G1 X167.060 Y119.701 E9.06650 ; skirt
G1 X166.750 Y121.171 E9.14685 ; skirt
G1 X166.610 Y121.731 E9.17773 ; skirt
G1 X166.120 Y123.431 E9.27236 ; skirt
G1 X165.920 Y124.031 E9.30618 ; skirt
G1 X165.380 Y125.461 E9.38794 ; skirt
G1 X165.090 Y126.141 E9.42748 ; skirt
G1 X164.420 Y127.511 E9.50905 ; skirt
G1 X163.970 Y128.311 E9.55814 ; skirt
G1 X163.140 Y129.601 E9.64018 ; skirt
G1 X162.440 Y130.531 E9.70244 ; skirt
G1 X161.440 Y131.671 E9.78355 ; skirt
G1 X160.500 Y132.571 E9.85315 ; skirt
G1 X159.350 Y133.511 E9.93260 ; skirt
G1 X158.730 Y133.981 E9.97421 ; skirt
G1 X158.060 Y134.371 E10.01567 ; skirt
G1 X156.760 Y135.061 E10.09439 ; skirt
G1 X156.020 Y135.411 E10.13817 ; skirt
G1 X155.250 Y135.671 E10.18164 ; skirt
G1 X153.790 Y136.091 E10.26290 ; skirt
G1 X153.020 Y136.271 E10.30519 ; skirt
G1 X152.240 Y136.381 E10.34732 ; skirt
G1 X150.750 Y136.501 E10.42727 ; skirt
G1 X150.120 Y136.521 E10.46099 ; skirt
G1 X49.950 Y136.521 E15.81863 ; skirt
G1 X49.360 Y136.501 E15.85020 ; skirt
G1 X47.770 Y136.381 E15.93549 ; skirt
G1 X46.960 Y136.281 E15.97914 ; skirt
G1 X46.160 Y136.091 E16.02312 ; skirt
G1 X44.680 Y135.661 E16.10555 ; skirt
G1 X43.870 Y135.371 E16.15157 ; skirt
G1 X43.100 Y135.001 E16.19726 ; skirt
G1 X41.750 Y134.261 E16.27960 ; skirt
G1 X41.070 Y133.851 E16.32207 ; skirt
G1 X40.440 Y133.361 E16.36476 ; skirt
G1 X39.260 Y132.361 E16.44748 ; skirt
G1 X38.320 Y131.421 E16.51859 ; skirt
G1 X37.320 Y130.231 E16.60172 ; skirt
G1 X36.660 Y129.321 E16.66185 ; skirt
G1 X35.840 Y128.001 E16.74496 ; skirt
G1 X35.430 Y127.241 E16.79115 ; skirt
G1 X34.800 Y125.921 E16.86938 ; skirt
G1 X34.490 Y125.201 E16.91131 ; skirt
G1 X33.950 Y123.701 E16.99657 ; skirt
G1 X33.780 Y123.171 E17.02634 ; skirt
G1 X33.360 Y121.681 E17.10914 ; skirt
G1 X33.240 Y121.171 E17.13717 ; skirt
G1 X32.850 Y119.301 E17.23934 ; skirt
G1 X32.600 Y117.771 E17.32225 ; skirt
G1 X32.550 Y117.361 E17.34435 ; skirt
G1 X32.350 Y115.581 E17.44015 ; skirt
G1 X32.230 Y114.051 E17.52223 ; skirt
G1 X32.150 Y112.031 E17.63036 ; skirt
G1 X32.130 Y110.431 E17.71594 ; skirt
G1 X32.130 Y85.331 E19.05843 ; skirt
G1 X32.160 Y84.621 E19.09644 ; skirt
G1 X32.390 Y82.081 E19.23285 ; skirt
G1 X32.490 Y81.341 E19.27278 ; skirt
G1 X32.660 Y80.621 E19.31235 ; skirt
G1 X33.410 Y78.011 E19.45760 ; skirt
G1 X33.670 Y77.271 E19.49955 ; skirt
G1 X33.990 Y76.561 E19.54120 ; skirt
G1 X35.290 Y74.051 E19.69239 ; skirt
G1 X35.700 Y73.351 E19.73578 ; skirt
G1 X36.180 Y72.691 E19.77943 ; skirt
G1 X38.000 Y70.461 E19.93338 ; skirt
G1 X38.530 Y69.871 E19.97580 ; skirt
G1 X39.120 Y69.341 E20.01822 ; skirt
G1 X41.350 Y67.521 E20.17217 ; skirt
G1 X41.953 Y67.082 E20.21207 ; skirt
G1 X42.270 Y67.431 F7800.000 ; move to first skirt point
G1 X42.930 Y67.051 F540.000 E20.25280 ; skirt
G1 X45.440 Y65.751 E20.40399 ; skirt
G1 X46.100 Y65.441 E20.44299 ; skirt
G1 X46.800 Y65.201 E20.48257 ; skirt
G1 X49.410 Y64.451 E20.62781 ; skirt
G1 X50.080 Y64.291 E20.66466 ; skirt
G1 X50.760 Y64.201 E20.70134 ; skirt
G1 X53.230 Y63.971 E20.83403 ; skirt
G1 X53.990 Y63.941 E20.87471 ; skirt
G1 X54.660 Y63.971 E20.91058 ; skirt
G1 X57.210 Y64.201 E21.04752 ; skirt
G1 X57.900 Y64.291 E21.08474 ; skirt
G1 X58.580 Y64.451 E21.12210 ; skirt
G1 X61.450 Y65.281 E21.28189 ; skirt
G1 X162.300 Y98.301 E26.95767 ; skirt
G1 X163.710 Y98.941 E27.04049 ; skirt
G1 X164.960 Y99.851 E27.12319 ; skirt
G1 X165.990 Y101.001 E27.20576 ; skirt
G1 X166.770 Y102.331 E27.28823 ; skirt
G1 X167.240 Y103.801 E27.37077 ; skirt
G1 X167.400 Y105.341 E27.45358 ; skirt
G1 X167.400 Y110.461 E27.72743 ; skirt
G1 X167.370 Y112.331 E27.82746 ; skirt
G1 X167.280 Y114.171 E27.92599 ; skirt
G1 X167.140 Y115.871 E28.01722 ; skirt
G1 X166.970 Y117.401 E28.09956 ; skirt
G1 X166.660 Y119.301 E28.20252 ; skirt
G1 X166.290 Y121.081 E28.29976 ; skirt
G1 X166.160 Y121.601 E28.32843 ; skirt
G1 X165.490 Y123.871 E28.45502 ; skirt
G1 X164.950 Y125.301 E28.53678 ; skirt
G1 X164.670 Y125.931 E28.57365 ; skirt
G1 X164.000 Y127.301 E28.65522 ; skirt
G1 X163.580 Y128.061 E28.70166 ; skirt
G1 X162.750 Y129.351 E28.78371 ; skirt
G1 X162.090 Y130.221 E28.84211 ; skirt
G1 X161.090 Y131.361 E28.92322 ; skirt
G1 X160.210 Y132.211 E28.98866 ; skirt
G1 X159.060 Y133.151 E29.06810 ; skirt
G1 X158.470 Y133.591 E29.10747 ; skirt
G1 X157.840 Y133.961 E29.14655 ; skirt
G1 X156.540 Y134.651 E29.22526 ; skirt
G1 X155.840 Y134.971 E29.26643 ; skirt
G1 X155.120 Y135.221 E29.30719 ; skirt
G1 X153.660 Y135.641 E29.38845 ; skirt
G1 X152.940 Y135.811 E29.42802 ; skirt
G1 X152.200 Y135.911 E29.46796 ; skirt
G1 X150.710 Y136.031 E29.54791 ; skirt
G1 X150.120 Y136.051 E29.57948 ; skirt
G1 X49.950 Y136.051 E34.93713 ; skirt
G1 X49.390 Y136.031 E34.96710 ; skirt
G1 X47.800 Y135.911 E35.05238 ; skirt
G1 X47.040 Y135.821 E35.09331 ; skirt
G1 X46.290 Y135.641 E35.13457 ; skirt
G1 X44.810 Y135.211 E35.21700 ; skirt
G1 X44.050 Y134.941 E35.26014 ; skirt
G1 X43.320 Y134.591 E35.30344 ; skirt
G1 X41.970 Y133.851 E35.38578 ; skirt
G1 X41.340 Y133.461 E35.42541 ; skirt
G1 X40.740 Y133.011 E35.46552 ; skirt
G1 X39.560 Y132.011 E35.54825 ; skirt
G1 X38.680 Y131.121 E35.61519 ; skirt
G1 X37.680 Y129.931 E35.69833 ; skirt
G1 X37.060 Y129.081 E35.75460 ; skirt
G1 X36.240 Y127.761 E35.83772 ; skirt
G1 X35.850 Y127.041 E35.88151 ; skirt
G1 X35.220 Y125.721 E35.95974 ; skirt
G1 X34.930 Y125.041 E35.99928 ; skirt
G1 X34.390 Y123.541 E36.08455 ; skirt
G1 X34.230 Y123.041 E36.11263 ; skirt
G1 X33.810 Y121.551 E36.19543 ; skirt
G1 X33.700 Y121.071 E36.22177 ; skirt
G1 X33.310 Y119.221 E36.32289 ; skirt
G1 X33.010 Y117.311 E36.42630 ; skirt
G1 X32.840 Y115.771 E36.50917 ; skirt
G1 X32.700 Y114.011 E36.60360 ; skirt
G1 X32.620 Y112.231 E36.69890 ; skirt
G1 X32.600 Y110.421 E36.79571 ; skirt
G1 X32.600 Y85.331 E38.13766 ; skirt
G1 X32.630 Y84.661 E38.17353 ; skirt
G1 X32.860 Y82.121 E38.30994 ; skirt
G1 X32.950 Y81.431 E38.34716 ; skirt
G1 X33.110 Y80.751 E38.38452 ; skirt
G1 X33.860 Y78.141 E38.52977 ; skirt
G1 X34.100 Y77.441 E38.56935 ; skirt
G1 X34.410 Y76.781 E38.60835 ; skirt
G1 X35.710 Y74.271 E38.75954 ; skirt
G1 X36.090 Y73.611 E38.80027 ; skirt
G1 X36.540 Y72.991 E38.84125 ; skirt
G1 X38.360 Y70.761 E38.99520 ; skirt
G1 X38.860 Y70.201 E39.03535 ; skirt
G1 X39.420 Y69.701 E39.07551 ; skirt
G1 X41.650 Y67.881 E39.22946 ; skirt
G1 X42.213 Y67.472 E39.26668 ; skirt
G1 X42.520 Y67.821 F7800.000 ; move to first skirt point
G1 X43.140 Y67.461 F540.000 E39.30503 ; skirt
G1 X45.650 Y66.161 E39.45621 ; skirt
G1 X46.270 Y65.881 E39.49260 ; skirt
G1 X46.920 Y65.651 E39.52948 ; skirt
G1 X49.530 Y64.901 E39.67472 ; skirt
G1 X50.170 Y64.751 E39.70988 ; skirt
G1 X50.810 Y64.661 E39.74445 ; skirt
G1 X53.280 Y64.431 E39.87713 ; skirt
G1 X53.990 Y64.401 E39.91514 ; skirt
G1 X54.610 Y64.431 E39.94834 ; skirt
G1 X57.160 Y64.661 E40.08528 ; skirt
G1 X57.810 Y64.751 E40.12038 ; skirt
G1 X58.460 Y64.901 E40.15606 ; skirt
G1 X61.070 Y65.651 E40.30130 ; skirt
G1 X162.160 Y98.751 E45.99061 ; skirt
G1 X163.480 Y99.341 E46.06794 ; skirt
G1 X164.650 Y100.191 E46.14529 ; skirt
G1 X165.620 Y101.271 E46.22293 ; skirt
G1 X166.340 Y102.521 E46.30009 ; skirt
G1 X166.780 Y103.901 E46.37756 ; skirt
G1 X166.940 Y105.341 E46.45505 ; skirt
G1 X166.940 Y110.331 E46.72194 ; skirt
G1 X166.900 Y112.311 E46.82787 ; skirt
G1 X166.830 Y113.881 E46.91192 ; skirt
G1 X166.690 Y115.611 E47.00476 ; skirt
G1 X166.500 Y117.351 E47.09837 ; skirt
G1 X166.150 Y119.511 E47.21541 ; skirt
G1 X165.840 Y120.981 E47.29576 ; skirt
G1 X165.710 Y121.471 E47.32288 ; skirt
G1 X165.220 Y123.171 E47.41750 ; skirt
G1 X165.050 Y123.701 E47.44727 ; skirt
G1 X164.510 Y125.131 E47.52903 ; skirt
G1 X164.250 Y125.731 E47.56400 ; skirt
G1 X163.580 Y127.101 E47.64557 ; skirt
G1 X163.180 Y127.801 E47.68869 ; skirt
G1 X162.350 Y129.091 E47.77074 ; skirt
G1 X161.730 Y129.911 E47.82572 ; skirt
G1 X160.730 Y131.051 E47.90683 ; skirt
G1 X159.910 Y131.851 E47.96810 ; skirt
G1 X158.760 Y132.791 E48.04754 ; skirt
G1 X158.210 Y133.201 E48.08423 ; skirt
G1 X157.620 Y133.551 E48.12093 ; skirt
G1 X156.320 Y134.241 E48.19964 ; skirt
G1 X155.670 Y134.541 E48.23793 ; skirt
G1 X154.990 Y134.781 E48.27650 ; skirt
G1 X153.530 Y135.201 E48.35776 ; skirt
G1 X152.850 Y135.351 E48.39500 ; skirt
G1 X152.170 Y135.441 E48.43169 ; skirt
G1 X150.680 Y135.561 E48.51164 ; skirt
G1 X150.120 Y135.591 E48.54164 ; skirt
G1 X49.950 Y135.591 E53.89928 ; skirt
G1 X49.430 Y135.571 E53.92711 ; skirt
G1 X47.840 Y135.451 E54.01239 ; skirt
G1 X47.120 Y135.351 E54.05127 ; skirt
G1 X46.420 Y135.191 E54.08968 ; skirt
G1 X44.940 Y134.761 E54.17211 ; skirt
G1 X44.230 Y134.511 E54.21237 ; skirt
G1 X43.550 Y134.181 E54.25280 ; skirt
G1 X42.200 Y133.441 E54.33514 ; skirt
G1 X41.600 Y133.081 E54.37256 ; skirt
G1 X41.050 Y132.651 E54.40990 ; skirt
G1 X39.870 Y131.651 E54.49263 ; skirt
G1 X39.040 Y130.821 E54.55541 ; skirt
G1 X38.040 Y129.631 E54.63855 ; skirt
G1 X37.460 Y128.831 E54.69140 ; skirt
G1 X36.640 Y127.511 E54.77452 ; skirt
G1 X36.270 Y126.841 E54.81545 ; skirt
G1 X35.640 Y125.521 E54.89368 ; skirt
G1 X35.370 Y124.881 E54.93083 ; skirt
G1 X34.830 Y123.381 E55.01610 ; skirt
G1 X34.680 Y122.911 E55.04249 ; skirt
G1 X34.260 Y121.421 E55.12529 ; skirt
G1 X34.160 Y120.981 E55.14942 ; skirt
G1 X33.780 Y119.151 E55.24939 ; skirt
G1 X33.480 Y117.261 E55.35174 ; skirt
G1 X33.310 Y115.721 E55.43461 ; skirt
G1 X33.150 Y113.711 E55.54246 ; skirt
G1 X33.080 Y112.021 E55.63292 ; skirt
G1 X33.060 Y110.421 E55.71851 ; skirt
G1 X33.060 Y85.331 E57.06046 ; skirt
G1 X33.090 Y84.701 E57.09419 ; skirt
G1 X33.320 Y82.161 E57.23060 ; skirt
G1 X33.410 Y81.511 E57.26570 ; skirt
G1 X33.560 Y80.871 E57.30086 ; skirt
G1 X34.310 Y78.261 E57.44610 ; skirt
G1 X34.540 Y77.611 E57.48298 ; skirt
G1 X34.820 Y76.991 E57.51937 ; skirt
G1 X36.120 Y74.481 E57.67055 ; skirt
G1 X36.480 Y73.861 E57.70890 ; skirt
G1 X36.910 Y73.281 E57.74752 ; skirt
G1 X38.730 Y71.051 E57.90147 ; skirt
G1 X39.200 Y70.541 E57.93856 ; skirt
G1 X39.710 Y70.071 E57.97566 ; skirt
G1 X41.940 Y68.251 E58.12961 ; skirt
G1 X42.464 Y67.863 E58.16448 ; skirt
G1 X42.780 Y68.211 F7800.000 ; move to first skirt point
G1 X43.360 Y67.881 F540.000 E58.20017 ; skirt
G1 X45.870 Y66.581 E58.35135 ; skirt
G1 X46.450 Y66.311 E58.38557 ; skirt
G1 X47.050 Y66.101 E58.41957 ; skirt
G1 X49.660 Y65.351 E58.56482 ; skirt
G1 X50.250 Y65.211 E58.59725 ; skirt
G1 X50.850 Y65.131 E58.62963 ; skirt
G1 X53.320 Y64.901 E58.76231 ; skirt
G1 X53.990 Y64.871 E58.79818 ; skirt
G1 X54.570 Y64.901 E58.82924 ; skirt
G1 X57.120 Y65.131 E58.96618 ; skirt
G1 X57.730 Y65.211 E58.99909 ; skirt
G1 X58.330 Y65.351 E59.03204 ; skirt
G1 X61.160 Y66.171 E59.18963 ; skirt
G1 X162.010 Y99.191 E64.86541 ; skirt
G1 X163.240 Y99.741 E64.93747 ; skirt
G1 X164.340 Y100.541 E65.01022 ; skirt
G1 X165.240 Y101.541 E65.08218 ; skirt
G1 X165.910 Y102.711 E65.15429 ; skirt
G1 X166.330 Y104.001 E65.22685 ; skirt
G1 X166.470 Y105.341 E65.29891 ; skirt
G1 X166.470 Y110.451 E65.57222 ; skirt
G1 X166.440 Y112.121 E65.66156 ; skirt
G1 X166.350 Y114.091 E65.76703 ; skirt
G1 X166.230 Y115.571 E65.84645 ; skirt
G1 X166.040 Y117.291 E65.93901 ; skirt
G1 X165.690 Y119.411 E66.05393 ; skirt
G1 X165.380 Y120.881 E66.13428 ; skirt
G1 X165.260 Y121.341 E66.15971 ; skirt
G1 X164.770 Y123.041 E66.25434 ; skirt
G1 X164.610 Y123.531 E66.28191 ; skirt
G1 X164.070 Y124.961 E66.36366 ; skirt
G1 X163.830 Y125.521 E66.39625 ; skirt
G1 X163.160 Y126.891 E66.47782 ; skirt
G1 X162.790 Y127.551 E66.51829 ; skirt
G1 X161.960 Y128.841 E66.60033 ; skirt
G1 X161.380 Y129.611 E66.65189 ; skirt
G1 X160.380 Y130.751 E66.73300 ; skirt
G1 X159.610 Y131.491 E66.79012 ; skirt
G1 X158.460 Y132.431 E66.86956 ; skirt
G1 X157.950 Y132.811 E66.90358 ; skirt
G1 X157.400 Y133.131 E66.93761 ; skirt
G1 X156.100 Y133.821 E67.01633 ; skirt
G1 X155.490 Y134.111 E67.05246 ; skirt
G1 X154.860 Y134.331 E67.08815 ; skirt
G1 X153.400 Y134.751 E67.16940 ; skirt
G1 X152.770 Y134.891 E67.20392 ; skirt
G1 X152.130 Y134.981 E67.23849 ; skirt
G1 X150.640 Y135.101 E67.31844 ; skirt
G1 X150.120 Y135.121 E67.34627 ; skirt
G1 X49.950 Y135.121 E72.70391 ; skirt
G1 X49.460 Y135.101 E72.73014 ; skirt
G1 X47.870 Y134.981 E72.81543 ; skirt
G1 X47.210 Y134.891 E72.85105 ; skirt
G1 X46.560 Y134.741 E72.88673 ; skirt
G1 X45.080 Y134.311 E72.96917 ; skirt
G1 X44.410 Y134.081 E73.00705 ; skirt
G1 X43.770 Y133.771 E73.04509 ; skirt
G1 X42.420 Y133.031 E73.12743 ; skirt
G1 X41.870 Y132.691 E73.16201 ; skirt
G1 X41.350 Y132.291 E73.19710 ; skirt
G1 X40.170 Y131.291 E73.27983 ; skirt
G1 X39.400 Y130.521 E73.33807 ; skirt
G1 X38.400 Y129.331 E73.42121 ; skirt
G1 X37.860 Y128.581 E73.47064 ; skirt
G1 X37.040 Y127.261 E73.55375 ; skirt
G1 X36.690 Y126.641 E73.59183 ; skirt
G1 X36.060 Y125.321 E73.67006 ; skirt
G1 X35.810 Y124.721 E73.70483 ; skirt
G1 X35.270 Y123.221 E73.79010 ; skirt
G1 X35.130 Y122.781 E73.81480 ; skirt
G1 X34.610 Y120.881 E73.92015 ; skirt
G1 X34.290 Y119.371 E74.00271 ; skirt
G1 X33.940 Y117.211 E74.11975 ; skirt
G1 X33.750 Y115.471 E74.21336 ; skirt
G1 X33.630 Y113.941 E74.29545 ; skirt
G1 X33.550 Y112.011 E74.39876 ; skirt
G1 X33.530 Y110.411 E74.48435 ; skirt
G1 X33.530 Y85.331 E75.82576 ; skirt
G1 X33.560 Y84.751 E75.85683 ; skirt
G1 X33.790 Y82.211 E75.99324 ; skirt
G1 X33.870 Y81.601 E76.02614 ; skirt
G1 X34.010 Y81.001 E76.05910 ; skirt
G1 X34.760 Y78.391 E76.20434 ; skirt
G1 X34.970 Y77.791 E76.23834 ; skirt
G1 X35.240 Y77.211 E76.27256 ; skirt
G1 X36.540 Y74.701 E76.42375 ; skirt
G1 X36.870 Y74.121 E76.45944 ; skirt
G1 X37.270 Y73.581 E76.49538 ; skirt
G1 X39.090 Y71.351 E76.64933 ; skirt
G1 X39.530 Y70.871 E76.68416 ; skirt
G1 X40.010 Y70.431 E76.71899 ; skirt
G1 X42.240 Y68.611 E76.87294 ; skirt
G1 X42.724 Y68.253 E76.90513 ; skirt
G1 F1800.000 E75.90513 ; retract
G92 E0 ; reset extrusion distance
G1 X63.401 Y94.742 F7800.000 ; move to first perimeter point
G1 F1800.000 E1.00000 ; compensate retraction
G1 X61.274 Y96.469 F540.000 E1.14652 ; perimeter
G1 X58.892 Y97.703 E1.29000 ; perimeter
G1 X56.417 Y98.414 E1.42775 ; perimeter
G1 X54.000 Y98.636 E1.55758 ; perimeter
