; generated by Slic3r 0.9.10b on 2014-04-02 at 03:57:35

; layer_height = 0.2
; perimeters = 2
; top_solid_layers = 5
; bottom_solid_layers = 5
; fill_density = 0.24
; perimeter_speed = 30
; infill_speed = 60
; travel_speed = 130
; nozzle_diameter = 0.3
; filament_diameter = 1.75
; extrusion_multiplier = 1.1
; perimeters extrusion width = 0.37mm
; infill extrusion width = 0.37mm
; solid infill extrusion width = 0.37mm
; top infill extrusion width = 0.37mm
; first layer extrusion width = 0.50mm

G21 ; set units to millimeters
M107 ; disable fan
M190 S60 ; wait for bed temperature to be reached
M104 S180 ; set temperature
G28; home all axes
G1 Z5 F5000 ; lift nozzle
M109 S180 ; wait for temperature to be reached
G90 ; use absolute coordinates
G92 E0 ; reset extrusion distance
M82 ; use absolute distances for extrusion
G1 F1800.000 E-1.00000 ; retract
G92 E0 ; reset extrusion distance
G1 Z1.650 F7800.000 ; move to next layer (0)
G1 X37.000 Y81.111 ; move to first skirt point
G1 F1800.000 E1.00000 ; compensate retraction
G1 X38.470 Y80.661 F540.000 E1.08034 ; skirt
G1 X40.000 Y80.511 E1.16068 ; skirt
G1 X160.000 Y80.511 E7.43172 ; skirt
G1 X161.530 Y80.661 E7.51206 ; skirt
G1 X163.000 Y81.111 E7.59240 ; skirt
G1 X164.350 Y81.831 E7.67236 ; skirt
G1 X165.540 Y82.801 E7.75259 ; skirt
G1 X166.510 Y83.991 E7.83282 ; skirt
G1 X167.230 Y85.341 E7.91277 ; skirt
G1 X167.680 Y86.811 E7.99311 ; skirt
G1 X167.830 Y88.341 E8.07345 ; skirt
G1 X167.830 Y93.471 E8.34154 ; skirt
G1 X167.800 Y95.141 E8.42882 ; skirt
G1 X167.720 Y96.921 E8.52194 ; skirt
G1 X167.580 Y98.681 E8.61420 ; skirt
G1 X167.330 Y100.871 E8.72939 ; skirt
G1 X167.020 Y102.701 E8.82639 ; skirt
G1 X166.710 Y104.171 E8.90490 ; skirt
G1 X166.570 Y104.721 E8.93456 ; skirt
G1 X166.080 Y106.421 E9.02701 ; skirt
G1 X165.880 Y107.021 E9.06007 ; skirt
G1 X165.340 Y108.451 E9.13995 ; skirt
G1 X165.050 Y109.121 E9.17810 ; skirt
G1 X164.380 Y110.491 E9.25780 ; skirt
G1 X163.930 Y111.291 E9.30576 ; skirt
G1 X163.100 Y112.581 E9.38593 ; skirt
G1 X162.410 Y113.501 E9.44602 ; skirt
G1 X161.410 Y114.641 E9.52527 ; skirt
G1 X160.470 Y115.541 E9.59328 ; skirt
G1 X159.320 Y116.481 E9.67090 ; skirt
G1 X158.700 Y116.941 E9.71124 ; skirt
G1 X158.040 Y117.331 E9.75131 ; skirt
G1 X156.740 Y118.021 E9.82822 ; skirt
G1 X156.000 Y118.371 E9.87100 ; skirt
G1 X155.230 Y118.631 E9.91347 ; skirt
G1 X153.770 Y119.051 E9.99286 ; skirt
G1 X153.010 Y119.231 E10.03368 ; skirt
G1 X152.240 Y119.331 E10.07425 ; skirt
G1 X150.750 Y119.451 E10.15237 ; skirt
G1 X150.120 Y119.481 E10.18533 ; skirt
G1 X49.950 Y119.481 E15.42008 ; skirt
G1 X49.360 Y119.461 E15.45093 ; skirt
G1 X47.770 Y119.341 E15.53426 ; skirt
G1 X46.970 Y119.231 E15.57646 ; skirt
G1 X46.180 Y119.051 E15.61881 ; skirt
G1 X44.700 Y118.621 E15.69935 ; skirt
G1 X43.890 Y118.331 E15.74431 ; skirt
G1 X43.120 Y117.961 E15.78895 ; skirt
G1 X41.770 Y117.221 E15.86940 ; skirt
G1 X41.100 Y116.811 E15.91045 ; skirt
G1 X40.470 Y116.331 E15.95184 ; skirt
G1 X39.290 Y115.331 E16.03267 ; skirt
G1 X38.360 Y114.401 E16.10140 ; skirt
G1 X37.360 Y113.211 E16.18263 ; skirt
G1 X36.700 Y112.301 E16.24138 ; skirt
G1 X35.880 Y110.981 E16.32259 ; skirt
G1 X35.470 Y110.221 E16.36772 ; skirt
G1 X34.840 Y108.901 E16.44415 ; skirt
G1 X34.530 Y108.181 E16.48512 ; skirt
G1 X33.990 Y106.681 E16.56843 ; skirt
G1 X33.410 Y104.661 E16.67826 ; skirt
G1 X33.280 Y104.161 E16.70526 ; skirt
G1 X32.960 Y102.651 E16.78592 ; skirt
G1 X32.640 Y100.761 E16.88609 ; skirt
G1 X32.420 Y98.821 E16.98813 ; skirt
G1 X32.260 Y96.741 E17.09714 ; skirt
G1 X32.190 Y95.031 E17.18658 ; skirt
G1 X32.170 Y93.431 E17.27020 ; skirt
G1 X32.170 Y88.341 E17.53620 ; skirt
G1 X32.320 Y86.811 E17.61654 ; skirt
G1 X32.770 Y85.341 E17.69688 ; skirt
G1 X33.490 Y83.991 E17.77683 ; skirt
G1 X34.460 Y82.801 E17.85706 ; skirt
G1 X35.650 Y81.831 E17.93729 ; skirt
G1 X36.940 Y81.143 E18.01367 ; skirt
G1 X37.180 Y81.531 F7800.000 ; move to first skirt point
G1 X38.560 Y81.111 F540.000 E18.08905 ; skirt
G1 X40.000 Y80.971 E18.16466 ; skirt
G1 X160.000 Y80.971 E24.43570 ; skirt
G1 X161.440 Y81.111 E24.51131 ; skirt
G1 X162.820 Y81.531 E24.58669 ; skirt
G1 X164.100 Y82.211 E24.66244 ; skirt
G1 X165.210 Y83.131 E24.73778 ; skirt
G1 X166.130 Y84.241 E24.81312 ; skirt
G1 X166.810 Y85.521 E24.88886 ; skirt
G1 X167.230 Y86.901 E24.96425 ; skirt
G1 X167.370 Y88.341 E25.03985 ; skirt
G1 X167.370 Y93.461 E25.30742 ; skirt
G1 X167.340 Y95.131 E25.39470 ; skirt
G1 X167.250 Y97.171 E25.50142 ; skirt
G1 X167.110 Y98.861 E25.59004 ; skirt
G1 X166.940 Y100.391 E25.67048 ; skirt
G1 X166.630 Y102.291 E25.77109 ; skirt
G1 X166.260 Y104.071 E25.86610 ; skirt
G1 X166.130 Y104.591 E25.89411 ; skirt
G1 X165.640 Y106.291 E25.98656 ; skirt
G1 X165.460 Y106.851 E26.01730 ; skirt
G1 X164.920 Y108.281 E26.09718 ; skirt
G1 X164.640 Y108.921 E26.13369 ; skirt
G1 X163.970 Y110.291 E26.21339 ; skirt
G1 X163.550 Y111.041 E26.25831 ; skirt
G1 X162.720 Y112.331 E26.33847 ; skirt
G1 X162.060 Y113.201 E26.39554 ; skirt
G1 X161.060 Y114.341 E26.47479 ; skirt
G1 X160.190 Y115.191 E26.53835 ; skirt
G1 X159.040 Y116.131 E26.61597 ; skirt
G1 X158.450 Y116.561 E26.65412 ; skirt
G1 X157.830 Y116.931 E26.69185 ; skirt
G1 X156.530 Y117.621 E26.76876 ; skirt
G1 X155.830 Y117.941 E26.80899 ; skirt
G1 X155.110 Y118.191 E26.84882 ; skirt
G1 X153.650 Y118.611 E26.92821 ; skirt
G1 X152.930 Y118.781 E26.96687 ; skirt
G1 X152.200 Y118.881 E27.00537 ; skirt
G1 X150.710 Y119.001 E27.08349 ; skirt
G1 X150.120 Y119.021 E27.11434 ; skirt
G1 X49.950 Y119.021 E32.34910 ; skirt
G1 X49.400 Y119.001 E32.37786 ; skirt
G1 X47.810 Y118.881 E32.46118 ; skirt
G1 X47.050 Y118.781 E32.50124 ; skirt
G1 X46.300 Y118.611 E32.54143 ; skirt
G1 X44.820 Y118.181 E32.62197 ; skirt
G1 X44.060 Y117.911 E32.66412 ; skirt
G1 X43.340 Y117.561 E32.70596 ; skirt
G1 X41.990 Y116.821 E32.78641 ; skirt
G1 X41.350 Y116.431 E32.82558 ; skirt
G1 X40.760 Y115.981 E32.86435 ; skirt
G1 X39.580 Y114.981 E32.94518 ; skirt
G1 X38.710 Y114.101 E33.00985 ; skirt
G1 X37.710 Y112.911 E33.09108 ; skirt
G1 X37.090 Y112.061 E33.14606 ; skirt
G1 X36.270 Y110.741 E33.22727 ; skirt
G1 X35.880 Y110.031 E33.26960 ; skirt
G1 X35.250 Y108.711 E33.34604 ; skirt
G1 X34.960 Y108.031 E33.38467 ; skirt
G1 X34.420 Y106.531 E33.46799 ; skirt
G1 X33.850 Y104.541 E33.57616 ; skirt
G1 X33.730 Y104.071 E33.60151 ; skirt
G1 X33.410 Y102.561 E33.68217 ; skirt
G1 X33.040 Y100.311 E33.80134 ; skirt
G1 X32.870 Y98.771 E33.88230 ; skirt
G1 X32.710 Y96.721 E33.98976 ; skirt
G1 X32.650 Y95.221 E34.06821 ; skirt
G1 X32.630 Y93.421 E34.16228 ; skirt
G1 X32.630 Y88.341 E34.42776 ; skirt
G1 X32.770 Y86.901 E34.50336 ; skirt
G1 X33.190 Y85.521 E34.57875 ; skirt
G1 X33.870 Y84.241 E34.65449 ; skirt
G1 X34.790 Y83.131 E34.72983 ; skirt
G1 X35.900 Y82.211 E34.80517 ; skirt
G1 X37.119 Y81.563 E34.87733 ; skirt
G1 X37.350 Y81.951 F7800.000 ; move to first skirt point
G1 X38.650 Y81.561 F540.000 E34.94826 ; skirt
G1 X40.000 Y81.431 E35.01914 ; skirt
G1 X160.000 Y81.431 E41.29018 ; skirt
G1 X161.350 Y81.561 E41.36106 ; skirt
G1 X162.650 Y81.951 E41.43198 ; skirt
G1 X163.840 Y82.591 E41.50260 ; skirt
G1 X164.890 Y83.451 E41.57352 ; skirt
G1 X165.750 Y84.501 E41.64445 ; skirt
G1 X166.390 Y85.691 E41.71506 ; skirt
G1 X166.780 Y86.991 E41.78599 ; skirt
G1 X166.910 Y88.341 E41.85687 ; skirt
G1 X166.910 Y93.451 E42.12391 ; skirt
G1 X166.880 Y95.311 E42.22112 ; skirt
G1 X166.810 Y96.881 E42.30325 ; skirt
G1 X166.670 Y98.611 E42.39395 ; skirt
G1 X166.430 Y100.721 E42.50493 ; skirt
G1 X166.130 Y102.511 E42.59978 ; skirt
G1 X165.820 Y103.981 E42.67829 ; skirt
G1 X165.200 Y106.161 E42.79673 ; skirt
G1 X165.030 Y106.691 E42.82582 ; skirt
G1 X164.490 Y108.121 E42.90570 ; skirt
G1 X164.230 Y108.721 E42.93987 ; skirt
G1 X163.560 Y110.091 E43.01957 ; skirt
G1 X163.160 Y110.791 E43.06170 ; skirt
G1 X162.330 Y112.081 E43.14186 ; skirt
G1 X161.720 Y112.901 E43.19527 ; skirt
G1 X160.720 Y114.041 E43.27452 ; skirt
G1 X159.900 Y114.831 E43.33402 ; skirt
G1 X158.750 Y115.771 E43.41164 ; skirt
G1 X158.200 Y116.181 E43.44749 ; skirt
G1 X157.610 Y116.531 E43.48334 ; skirt
G1 X156.310 Y117.221 E43.56025 ; skirt
G1 X155.660 Y117.521 E43.59766 ; skirt
G1 X154.980 Y117.751 E43.63518 ; skirt
G1 X153.520 Y118.171 E43.71457 ; skirt
G1 X152.850 Y118.331 E43.75057 ; skirt
G1 X152.170 Y118.421 E43.78641 ; skirt
G1 X150.680 Y118.541 E43.86453 ; skirt
G1 X150.120 Y118.561 E43.89381 ; skirt
G1 X49.950 Y118.561 E49.12857 ; skirt
G1 X49.430 Y118.541 E49.15576 ; skirt
G1 X47.840 Y118.421 E49.23909 ; skirt
G1 X47.130 Y118.331 E49.27649 ; skirt
G1 X46.430 Y118.171 E49.31401 ; skirt
G1 X44.950 Y117.741 E49.39456 ; skirt
G1 X44.240 Y117.491 E49.43389 ; skirt
G1 X43.560 Y117.161 E49.47339 ; skirt
G1 X42.210 Y116.421 E49.55384 ; skirt
G1 X41.610 Y116.061 E49.59041 ; skirt
G1 X41.060 Y115.631 E49.62689 ; skirt
G1 X39.880 Y114.631 E49.70773 ; skirt
G1 X39.060 Y113.811 E49.76833 ; skirt
G1 X38.060 Y112.621 E49.84956 ; skirt
G1 X37.480 Y111.821 E49.90120 ; skirt
G1 X36.660 Y110.501 E49.98240 ; skirt
G1 X36.290 Y109.831 E50.02240 ; skirt
G1 X35.660 Y108.511 E50.09884 ; skirt
G1 X35.390 Y107.871 E50.13514 ; skirt
G1 X34.850 Y106.371 E50.21845 ; skirt
G1 X34.290 Y104.421 E50.32447 ; skirt
G1 X33.860 Y102.461 E50.42934 ; skirt
G1 X33.550 Y100.611 E50.52736 ; skirt
G1 X33.330 Y98.721 E50.62680 ; skirt
G1 X33.170 Y96.711 E50.73217 ; skirt
G1 X33.110 Y95.211 E50.81062 ; skirt
G1 X33.090 Y93.421 E50.90417 ; skirt
G1 X33.090 Y88.341 E51.16964 ; skirt
G1 X33.220 Y86.991 E51.24052 ; skirt
G1 X33.610 Y85.691 E51.31145 ; skirt
G1 X34.250 Y84.501 E51.38206 ; skirt
G1 X35.110 Y83.451 E51.45299 ; skirt
G1 X36.160 Y82.591 E51.52391 ; skirt
G1 X37.290 Y81.983 E51.59094 ; skirt
G1 X37.530 Y82.371 F7800.000 ; move to first skirt point
G1 X38.740 Y82.011 F540.000 E51.65691 ; skirt
G1 X40.000 Y81.881 E51.72311 ; skirt
G1 X160.000 Y81.881 E57.99415 ; skirt
G1 X161.260 Y82.011 E58.06035 ; skirt
G1 X162.470 Y82.371 E58.12632 ; skirt
G1 X163.590 Y82.971 E58.19272 ; skirt
G1 X164.570 Y83.771 E58.25883 ; skirt
G1 X165.370 Y84.751 E58.32494 ; skirt
G1 X165.970 Y85.871 E58.39134 ; skirt
G1 X166.330 Y87.081 E58.45731 ; skirt
G1 X166.460 Y88.341 E58.52351 ; skirt
G1 X166.460 Y93.451 E58.79055 ; skirt
G1 X166.430 Y95.121 E58.87784 ; skirt
G1 X166.340 Y97.091 E58.98089 ; skirt
G1 X166.220 Y98.571 E59.05849 ; skirt
G1 X166.030 Y100.291 E59.14892 ; skirt
G1 X165.730 Y102.141 E59.24686 ; skirt
G1 X165.370 Y103.881 E59.33972 ; skirt
G1 X164.760 Y106.041 E59.45701 ; skirt
G1 X164.600 Y106.531 E59.48395 ; skirt
G1 X164.060 Y107.961 E59.56383 ; skirt
G1 X163.820 Y108.521 E59.59567 ; skirt
G1 X163.150 Y109.891 E59.67537 ; skirt
G1 X162.780 Y110.541 E59.71445 ; skirt
G1 X161.950 Y111.831 E59.79462 ; skirt
G1 X161.370 Y112.601 E59.84499 ; skirt
G1 X160.370 Y113.741 E59.92424 ; skirt
G1 X159.610 Y114.481 E59.97968 ; skirt
G1 X158.460 Y115.421 E60.05729 ; skirt
G1 X157.940 Y115.801 E60.09095 ; skirt
G1 X157.400 Y116.121 E60.12375 ; skirt
G1 X156.100 Y116.811 E60.20067 ; skirt
G1 X155.490 Y117.101 E60.23596 ; skirt
G1 X154.860 Y117.321 E60.27084 ; skirt
G1 X153.400 Y117.741 E60.35023 ; skirt
G1 X152.770 Y117.881 E60.38395 ; skirt
G1 X152.130 Y117.971 E60.41773 ; skirt
G1 X150.640 Y118.091 E60.49585 ; skirt
G1 X150.120 Y118.111 E60.52304 ; skirt
G1 X49.950 Y118.111 E65.75780 ; skirt
G1 X49.460 Y118.091 E65.78342 ; skirt
G1 X47.870 Y117.971 E65.86675 ; skirt
G1 X47.210 Y117.881 E65.90156 ; skirt
G1 X46.560 Y117.731 E65.93642 ; skirt
G1 X45.080 Y117.301 E66.01696 ; skirt
G1 X44.410 Y117.071 E66.05398 ; skirt
G1 X43.780 Y116.761 E66.09067 ; skirt
G1 X42.430 Y116.021 E66.17113 ; skirt
G1 X41.870 Y115.681 E66.20536 ; skirt
G1 X41.360 Y115.291 E66.23892 ; skirt
G1 X40.180 Y114.291 E66.31975 ; skirt
G1 X39.410 Y113.511 E66.37702 ; skirt
G1 X38.410 Y112.321 E66.45825 ; skirt
G1 X37.870 Y111.581 E66.50613 ; skirt
G1 X37.050 Y110.261 E66.58733 ; skirt
G1 X36.700 Y109.631 E66.62500 ; skirt
G1 X36.070 Y108.311 E66.70143 ; skirt
G1 X35.820 Y107.721 E66.73492 ; skirt
G1 X35.280 Y106.221 E66.81823 ; skirt
G1 X34.730 Y104.291 E66.92311 ; skirt
G1 X34.620 Y103.881 E66.94529 ; skirt
G1 X34.300 Y102.371 E67.02595 ; skirt
G1 X33.950 Y100.211 E67.14030 ; skirt
G1 X33.760 Y98.461 E67.23229 ; skirt
G1 X33.640 Y96.931 E67.31250 ; skirt
G1 X33.560 Y95.011 E67.41292 ; skirt
G1 X33.540 Y93.411 E67.49654 ; skirt
G1 X33.540 Y88.341 E67.76149 ; skirt
G1 X33.670 Y87.081 E67.82769 ; skirt
G1 X34.030 Y85.871 E67.89366 ; skirt
G1 X34.630 Y84.751 E67.96006 ; skirt
G1 X35.430 Y83.771 E68.02617 ; skirt
G1 X36.410 Y82.971 E68.09228 ; skirt
G1 X37.470 Y82.403 E68.15510 ; skirt
G1 F1800.000 E67.15510 ; retract
G92 E0 ; reset extrusion distance
G1 X159.314 Y89.026 F7800.000 ; move to first perimeter point
G1 F1800.000 E1.00000 ; compensate retraction
G1 X159.314 Y93.336 F540.000 E1.22520 ; perimeter
G1 X159.290 Y94.988 E1.31155 ; perimeter
G1 X159.220 Y96.538 E1.39263 ; perimeter
G1 X159.106 Y97.992 E1.46886 ; perimeter
G1 X158.932 Y99.488 E1.54756 ; perimeter
G1 X158.694 Y100.959 E1.62544 ; perimeter
G1 X158.387 Y102.393 E1.70207 ; perimeter
G1 X157.917 Y104.036 E1.79137 ; perimeter
G1 X157.396 Y105.418 E1.86853 ; perimeter
G1 X156.758 Y106.721 E1.94437 ; perimeter
G1 X155.975 Y107.934 E2.01980 ; perimeter
G1 X155.052 Y108.992 E2.09320 ; perimeter
G1 X153.993 Y109.851 E2.16445 ; perimeter
G1 X152.818 Y110.476 E2.23402 ; perimeter
G1 X151.492 Y110.861 E2.30618 ; perimeter
G1 X150.131 Y110.971 E2.37750 ; perimeter
G1 X148.701 Y110.817 E2.45269 ; perimeter
G1 X147.327 Y110.427 E2.52729 ; perimeter
G1 X146.046 Y109.839 E2.60093 ; perimeter
G1 X144.850 Y109.053 E2.67575 ; perimeter
G1 X143.798 Y108.118 E2.74932 ; perimeter
G1 X142.841 Y107.056 E2.82404 ; perimeter
G1 X140.938 Y104.628 E2.98524 ; perimeter
G1 X139.939 Y103.411 E3.06749 ; perimeter
G1 X138.859 Y102.243 E3.15065 ; perimeter
G1 X137.686 Y101.152 E3.23435 ; perimeter
G1 X136.424 Y100.160 E3.31826 ; perimeter
G1 X135.096 Y99.280 E3.40152 ; perimeter
G1 X133.680 Y98.488 E3.48629 ; perimeter
G1 X132.244 Y97.809 E3.56929 ; perimeter
G1 X130.774 Y97.217 E3.65209 ; perimeter
G1 X129.280 Y96.701 E3.73471 ; perimeter
G1 X127.777 Y96.256 E3.81662 ; perimeter
G1 X126.355 Y95.892 E3.89334 ; perimeter
G1 X124.847 Y95.556 E3.97407 ; perimeter
G1 X123.329 Y95.260 E4.05488 ; perimeter
G1 X121.738 Y94.988 E4.13925 ; perimeter
G1 X120.199 Y94.755 E4.22056 ; perimeter
G1 X118.659 Y94.549 E4.30180 ; perimeter
G1 X117.114 Y94.366 E4.38310 ; perimeter
G1 X114.029 Y94.062 E4.54510 ; perimeter
G1 X112.479 Y93.937 E4.62636 ; perimeter
G1 X109.388 Y93.738 E4.78821 ; perimeter
G1 X107.837 Y93.661 E4.86936 ; perimeter
G1 X104.744 Y93.551 E5.03111 ; perimeter
G1 X103.193 Y93.517 E5.11220 ; perimeter
G1 X100.097 Y93.489 E5.27396 ; perimeter
G1 X97.002 Y93.513 E5.43570 ; perimeter
G1 X95.452 Y93.546 E5.51677 ; perimeter
G1 X92.360 Y93.652 E5.67844 ; perimeter
G1 X90.809 Y93.727 E5.75955 ; perimeter
G1 X87.581 Y93.933 E5.92861 ; perimeter
G1 X85.988 Y94.060 E6.01214 ; perimeter
G1 X82.907 Y94.363 E6.17392 ; perimeter
G1 X79.880 Y94.744 E6.33335 ; perimeter
G1 X78.349 Y94.974 E6.41422 ; perimeter
G1 X76.827 Y95.232 E6.49491 ; perimeter
G1 X75.293 Y95.527 E6.57654 ; perimeter
G1 X73.761 Y95.865 E6.65851 ; perimeter
G1 X72.191 Y96.265 E6.74322 ; perimeter
G1 X70.651 Y96.723 E6.82715 ; perimeter
G1 X69.234 Y97.214 E6.90552 ; perimeter
G1 X67.780 Y97.799 E6.98744 ; perimeter
G1 X66.349 Y98.474 E7.07012 ; perimeter
G1 X64.865 Y99.304 E7.15898 ; perimeter
G1 X63.542 Y100.185 E7.24206 ; perimeter
G1 X62.291 Y101.172 E7.32534 ; perimeter
G1 X61.134 Y102.250 E7.40798 ; perimeter
G1 X60.074 Y103.397 E7.48959 ; perimeter
G1 X59.099 Y104.581 E7.56974 ; perimeter
G1 X57.218 Y106.984 E7.72922 ; perimeter
G1 X56.241 Y108.078 E7.80588 ; perimeter
G1 X55.169 Y109.039 E7.88111 ; perimeter
G1 X54.006 Y109.810 E7.95405 ; perimeter
G1 X52.741 Y110.401 E8.02701 ; perimeter
G1 X51.368 Y110.803 E8.10175 ; perimeter
G1 X49.938 Y110.969 E8.17700 ; perimeter
G1 X48.492 Y110.858 E8.25279 ; perimeter
G1 X47.153 Y110.464 E8.32570 ; perimeter
