; generated by Slic3r 0.9.10b on 2014-02-02 at 16:03:53

; layer_height = 0.4
; perimeters = 3
; top_solid_layers = 3
; bottom_solid_layers = 3
; fill_density = 0.8
; perimeter_speed = 30
; infill_speed = 60
; travel_speed = 130
; nozzle_diameter = 0.5
; filament_diameter = 1.75
; extrusion_multiplier = 1.1
; perimeters extrusion width = 0.53mm
; infill extrusion width = 0.53mm
; solid infill extrusion width = 0.53mm
; top infill extrusion width = 0.53mm
; first layer extrusion width = 0.70mm

G21 ; set units to millimeters
M107
M104 S190 ; set temperature
G28 ; home all axes
G1 Z5 F5000 ; lift nozzle
M109 S190 ; wait for temperature to be reached
G90 ; use absolute coordinates
G92 E0
M82 ; use absolute distances for extrusion
G1 F1800.000 E-1.00000
G92 E0
G1 Z0.550 F7800.000
G1 X95.175 Y85.409
G1 F1800.000 E1.00000
G1 X96.195 Y84.529 F540.000 E1.14169
G1 X97.375 Y83.879 E1.28338
G1 X98.655 Y83.479 E1.42442
G1 X99.995 Y83.339 E1.56612
G1 X101.335 Y83.479 E1.70782
G1 X102.615 Y83.879 E1.84887
G1 X103.795 Y84.529 E1.99056
G1 X104.815 Y85.409 E2.13224
G1 X113.455 Y94.469 E3.44896
G1 X113.865 Y94.939 E3.51456
G1 X114.225 Y95.449 E3.58022
G1 X115.505 Y97.429 E3.82819
G1 X116.085 Y98.549 E3.96084
G1 X116.445 Y99.759 E4.09362
G1 X116.945 Y102.309 E4.36692
G1 X117.075 Y103.589 E4.50224
G1 X116.945 Y104.879 E4.63860
G1 X116.445 Y107.419 E4.91087
G1 X116.085 Y108.619 E5.04264
G1 X115.515 Y109.729 E5.17388
G1 X114.235 Y111.719 E5.42273
G1 X113.445 Y112.719 E5.55677
G1 X112.495 Y113.549 E5.68945
G1 X110.595 Y114.899 E5.93459
G1 X109.425 Y115.559 E6.07587
G1 X108.155 Y115.969 E6.21623
G1 X105.735 Y116.499 E6.47679
G1 X105.035 Y116.619 E6.55148
G1 X104.315 Y116.659 E6.62733
G1 X95.675 Y116.659 E7.53604
G1 X94.955 Y116.619 E7.61188
G1 X94.255 Y116.499 E7.68658
G1 X91.835 Y115.969 E7.94714
G1 X90.565 Y115.559 E8.08750
G1 X89.395 Y114.899 E8.22878
G1 X87.495 Y113.549 E8.47392
G1 X86.545 Y112.719 E8.60660
G1 X85.755 Y111.719 E8.74063
G1 X84.475 Y109.729 E8.98949
G1 X83.905 Y108.619 E9.12073
G1 X83.545 Y107.419 E9.25249
G1 X83.045 Y104.879 E9.52476
G1 X82.915 Y103.589 E9.66113
G1 X83.045 Y102.309 E9.79644
G1 X83.545 Y99.759 E10.06975
G1 X83.905 Y98.549 E10.20252
G1 X84.485 Y97.429 E10.33518
G1 X85.765 Y95.449 E10.58315
G1 X86.125 Y94.939 E10.64881
G1 X86.525 Y94.469 E10.71372
G1 X95.107 Y85.480 E12.02080
G1 F1800.000 E11.02080
G92 E0
G1 X98.506 Y94.811 F7800.000
G1 F1800.000 E1.00000
G1 X98.590 Y94.785 F378.000 E1.00918
G1 X100.146 Y94.667 E1.17335
G1 X101.669 Y94.849 E1.33466
G1 X102.920 Y95.404 E1.47862
G1 X103.846 Y96.238 E1.60964
G1 X104.403 Y97.242 E1.73046
G1 X104.670 Y98.531 E1.86889
G1 X104.756 Y100.232 E2.04797
G1 X104.756 Y106.581 E2.71571
G1 X100.670 Y106.581 E3.14536
G1 X100.670 Y99.464 E3.89380
G1 X100.428 Y98.164 E4.03292
G1 X100.230 Y97.980 E4.06136
G1 X99.896 Y97.908 E4.09721
G1 X99.529 Y98.002 E4.13710
G1 X99.239 Y98.410 E4.18967
G1 X99.082 Y99.746 E4.33113
G1 X95.147 Y99.210 E4.74880
G1 X95.401 Y97.659 E4.91408
G1 X95.832 Y96.608 E5.03359
G1 X96.498 Y95.764 E5.14671
G1 X97.398 Y95.150 E5.26123
G1 X98.412 Y94.840 E5.37276
G1 X98.570 Y94.870 F7800.000
G1 F1800.000 E4.37276
G92 E0
G1 X105.993 Y98.669 F7800.000
G1 F1800.000 E1.00000
G1 X107.341 Y100.084 F540.000 E1.20553
G1 X108.372 Y101.676 E1.40502
G1 X108.751 Y103.593 E1.61054
G1 X108.372 Y105.510 E1.81606
G1 X107.427 Y106.968 E1.99876
G1 X106.070 Y107.936 E2.17411
G1 X106.070 Y100.199 E2.98786
G1 X105.998 Y98.768 E3.13855
G1 F1800.000 E2.13855
G92 E0
G1 X106.336 Y108.553 F7800.000
G1 F1800.000 E1.00000
G1 X104.318 Y108.992 F540.000 E1.21719
G1 X102.299 Y108.553 E1.43446
G1 X100.705 Y107.416 E1.64044
G1 X100.762 Y107.238 E1.66014
G1 X105.413 Y107.238 E2.14929
G1 X105.413 Y100.215 E2.88788
G1 X105.324 Y98.447 E3.07404
G1 X105.026 Y97.014 E3.22805
G1 X105.224 Y96.910 E3.25153
G1 X107.859 Y99.675 E3.65326
G1 X108.992 Y101.425 E3.87250
G1 X109.420 Y103.593 E4.10495
G1 X108.992 Y105.761 E4.33740
G1 X107.911 Y107.430 E4.54656
G1 X106.416 Y108.496 E4.73962
G1 F1800.000 E3.73962
G92 E0
G1 X100.871 Y93.294 F7800.000
G1 F1800.000 E1.00000
G1 X98.993 Y93.437 F540.000 E1.19801
G1 X100.000 Y92.380 E1.35147
G1 X100.803 Y93.223 E1.47385
G1 F1800.000 E0.47385
G92 E0
G1 X97.329 Y94.231 F7800.000
G1 F1800.000 E1.00000
G1 X100.000 Y91.428 F540.000 E1.40728
G1 X102.752 Y94.316 E1.82690
G1 X100.160 Y94.007 E2.10145
G1 X98.467 Y94.136 E2.28005
G1 X97.460 Y94.444 E2.39080
G1 X97.380 Y94.315 E2.40676
G1 F1800.000 E1.40676
G92 E0
G1 X93.828 Y99.132 F7800.000
G1 F1800.000 E1.00000
G1 X93.632 Y100.330 F540.000 E1.12767
G1 X99.356 Y101.109 E1.73523
G1 X99.356 Y106.566 E2.30910
G1 X97.428 Y107.940 E2.55811
G1 X95.682 Y108.320 E2.74608
G1 X93.935 Y107.940 E2.93411
G1 X92.572 Y106.968 E3.11012
G1 X91.627 Y105.510 E3.29287
G1 X91.249 Y103.593 E3.49837
G1 X91.627 Y101.676 E3.70387
G1 X92.659 Y100.084 E3.90338
G1 X93.651 Y99.044 E4.05454
G1 X93.740 Y99.088 E4.06507
G1 F1800.000 E3.06507
G92 E0
G1 X93.663 Y108.553 F7800.000
G1 F1800.000 E1.00000
G1 X92.089 Y107.430 F540.000 E1.20336
G1 X91.007 Y105.761 E1.41257
G1 X90.580 Y103.593 E1.64500
G1 X91.007 Y101.425 E1.87743
G1 X92.141 Y99.675 E2.09670
G1 X94.642 Y97.050 E2.47804
G1 X94.820 Y97.139 E2.49892
G1 X94.390 Y99.770 E2.77933
G1 X100.013 Y100.536 E3.37623
G1 X100.013 Y106.904 E4.04605
G1 X97.700 Y108.553 E4.34486
G1 X95.682 Y108.992 E4.56205
G1 X93.760 Y108.574 E4.76896
G1 X93.432 Y109.175 F7800.000
G1 X93.392 Y109.166 F378.000 E4.77328
G1 X91.606 Y107.893 E5.00400
G1 X90.387 Y106.012 E5.23967
G1 X89.910 Y103.593 E5.49903
G1 X90.387 Y101.174 E5.75839
G1 X91.623 Y99.266 E5.99742
G1 X100.000 Y90.475 E7.27459
G1 X108.377 Y99.266 E8.55175
G1 X109.612 Y101.174 E8.79072
G1 X110.090 Y103.593 E9.05010
G1 X109.612 Y106.012 E9.30949
G1 X108.394 Y107.893 E9.54510
G1 X106.607 Y109.166 E9.77590
G1 X104.318 Y109.665 E10.02231
G1 X102.028 Y109.166 E10.26882
G1 X100.000 Y107.721 E10.53075
G1 X97.971 Y109.166 E10.79277
G1 X95.682 Y109.665 E11.03918
G1 X93.528 Y109.196 E11.27100
G1 X93.419 Y109.136 F7800.000
G1 F1800.000 E10.27100
G92 E0
G1 X94.762 Y107.632 F7800.000
G1 F1800.000 E1.00000
G1 X91.983 Y104.853 F1080.000 E1.41448
G1 X91.754 Y103.693 E1.53926
G1 X95.856 Y107.794 E2.15107
G1 X96.622 Y107.628 E2.23367
G1 X91.875 Y102.881 E2.94160
G1 X92.029 Y102.103 E3.02527
G1 X97.342 Y107.416 E3.81774
G1 X97.886 Y107.029 E3.88821
G1 X92.328 Y101.471 E4.71718
G1 X92.694 Y100.905 E4.78824
G1 X98.430 Y106.641 E5.64372
G1 X98.880 Y106.159 E5.71325
G1 X93.516 Y100.795 E6.51333
G1 X94.595 Y100.942 E6.62815
G1 X98.880 Y105.227 E7.26734
G1 X98.880 Y104.295 E7.36562
G1 X95.673 Y101.089 E7.84393
G1 X96.752 Y101.235 E7.95874
G1 X98.880 Y103.364 E8.27617
G1 X98.880 Y102.432 E8.37444
G1 X97.831 Y101.382 E8.53098
G1 F1800.000 E7.53098
G92 E0
G1 X102.589 Y108.004 F7800.000
G1 F1800.000 E1.00000
G1 X102.291 Y107.706 F360.000 E1.02221
G1 F1800.000 E0.02221
G92 E0
G1 X106.546 Y106.370 F7800.000
G1 F1800.000 E1.00000
G1 X106.972 Y106.796 F1080.000 E1.06330
G1 X107.338 Y106.230 F7800.000
G1 X106.546 Y105.438 F1080.000 E1.18108
G1 X106.546 Y104.507 F7800.000
G1 X107.704 Y105.665 F1080.000 E1.35334
G1 X107.984 Y105.013 F7800.000
G1 X106.546 Y103.575 F1080.000 E1.56728
G1 X106.546 Y102.643 F7800.000
G1 X108.138 Y104.235 F1080.000 E1.80410
G1 X108.225 Y103.390 F7800.000
G1 X106.546 Y101.711 F1080.000 E2.05384
G1 X106.546 Y100.779 F7800.000
G1 X107.995 Y102.229 F1080.000 E2.26943
G1 F1800.000 E1.26943
G92 E0
G1 X106.757 Y100.058 F7800.000
G1 F1800.000 E1.00000
G1 X106.736 Y100.038 F1080.000 E1.00304
G1 F1800.000 E0.00304
G92 E0
G1 X99.992 Y99.816 F7800.000
G1 F1800.000 E1.00000
G1 X99.782 Y99.606 F360.000 E1.03137
G1 F1800.000 E0.03137
G92 E0
G1 X95.507 Y96.263 F7800.000
G1 F1800.000 E1.00000
G1 X95.315 Y96.071 F360.000 E1.01422
G1 X95.088 Y96.310 F7800.000
G1 X95.343 Y96.565 F360.000 E1.03312
G1 X95.034 Y96.722 F7800.000
G1 X94.860 Y96.548 F360.000 E1.04601
G1 X95.542 Y95.832 F7800.000
G1 X95.712 Y96.003 F360.000 E1.05862
G1 X95.918 Y95.743 F7800.000
G1 X95.770 Y95.594 F360.000 E1.06963
G1 X95.997 Y95.355 F7800.000
G1 X96.124 Y95.482 F360.000 E1.07904
G1 X96.383 Y95.276 F7800.000
G1 X96.224 Y95.117 F360.000 E1.09080
G1 X96.452 Y94.878 F7800.000
G1 X96.660 Y95.087 F360.000 E1.10624
G1 X96.937 Y94.898 F7800.000
G1 X96.679 Y94.640 F360.000 E1.12537
G1 F1800.000 E0.12537
G92 E0
G1 X103.042 Y94.945 F7800.000
G1 F1800.000 E1.00000
G1 X102.902 Y94.806 F360.000 E1.01034
G1 X103.431 Y94.869 F7800.000
G1 X104.075 Y95.513 F360.000 E1.05804
M106 S650
M104 S185 ; set temperature
G1 F1800.000 E0.05804
G92 E0
G1 Z0.950 F7800.000
G1 X103.791 Y96.281
G1 F1800.000 E1.00000
G1 X104.337 Y97.267 F600.000 E1.10711
G1 X104.601 Y98.540 E1.23072
G1 X104.687 Y100.233 E1.39191
G1 X104.687 Y106.512 E1.98872
G1 X100.739 Y106.512 E2.36397
G1 X100.739 Y99.458 E3.03448
G1 X100.491 Y98.129 E3.16298
G1 X100.263 Y97.917 E3.19263
G1 X99.895 Y97.838 E3.22837
G1 X99.488 Y97.942 E3.26835
G1 X99.173 Y98.384 E3.31993
G1 X99.022 Y99.668 E3.44280
G1 X95.227 Y99.151 E3.80692
G1 X95.467 Y97.678 E3.94885
G1 X95.891 Y96.643 E4.05520
G1 X96.546 Y95.815 E4.15551
G1 X97.428 Y95.213 E4.25703
G1 X98.602 Y94.853 E4.37378
G1 X100.145 Y94.736 E4.52079
G1 X101.651 Y94.916 E4.66497
G1 X102.882 Y95.462 E4.79305
G1 X103.733 Y96.229 E4.90193
G1 X103.574 Y96.753 F7800.000
G1 F1800.000 E3.90193
G92 E0
G1 X99.700 Y100.809 F7800.000
G1 F1800.000 E1.00000
G1 X99.700 Y106.743 F793.037 E1.56401
G1 X97.570 Y108.260 E1.81261
G1 X95.682 Y108.671 E1.99630
G1 X93.793 Y108.260 E2.18007
G1 X92.320 Y107.210 E2.35207
G1 X91.303 Y105.641 E2.52974
G1 X90.857 Y103.381 E2.74871
G1 X90.941 Y103.381 E2.75664
G1 X91.303 Y101.545 E2.93460
G1 X92.388 Y99.870 E3.12426
G1 X94.218 Y97.950 E3.37636
G1 X94.358 Y98.020 E3.39129
G1 X94.029 Y100.037 E3.58556
G1 X99.623 Y100.799 E4.12221
G1 F1800.000 E3.12221
G92 E0
G1 X105.726 Y100.207 F7800.000
G1 F1800.000 E1.00000
G1 X105.603 Y97.762 F793.037 E1.23273
G1 X107.612 Y99.870 E1.50953
G1 X108.914 Y101.882 E1.73738
G1 X108.763 Y101.882 E1.75181
G1 X109.101 Y103.593 E1.91759
G1 X108.696 Y105.641 E2.11606
G1 X107.680 Y107.210 E2.29369
G1 X106.206 Y108.260 E2.46576
G1 X104.318 Y108.671 E2.64945
G1 X102.429 Y108.260 E2.83322
G1 X101.632 Y107.692 E2.92626
G1 X101.677 Y107.551 E2.94033
G1 X105.726 Y107.551 E3.32521
G1 X105.726 Y100.285 E4.01589
G1 F1800.000 E3.01589
G92 E0
G1 X109.630 Y103.593 F7800.000
G1 F1800.000 E1.00000
G1 X109.186 Y105.840 F793.037 E1.21773
G1 X108.063 Y107.576 E1.41427
G1 X106.421 Y108.745 E1.60589
G1 X104.170 Y109.235 E1.82482
G1 X104.170 Y109.171 E1.83093
G1 X102.214 Y108.745 E2.02124
G1 X100.008 Y107.173 E2.27878
G1 X100.013 Y107.158 E2.28026
G1 X97.785 Y108.745 E2.54032
G1 X95.682 Y109.203 E2.74490
G1 X93.578 Y108.745 E2.94957
G1 X91.937 Y107.576 E3.14112
G1 X90.813 Y105.840 E3.33771
G1 X90.369 Y103.593 E3.55542
G1 X90.813 Y101.346 E3.77312
G1 X91.979 Y99.547 E3.97690
G1 X95.265 Y96.098 E4.42974
G1 X95.492 Y96.246 E4.45553
G1 X94.964 Y97.536 E4.58803
G1 X94.628 Y99.594 E4.78632
G1 X99.476 Y100.254 E5.25147
G1 X99.696 Y98.386 E5.43034
G1 X100.009 Y98.375 E5.46004
G1 X100.220 Y99.506 E5.56940
G1 X100.220 Y107.010 E6.28275
G1 X100.190 Y107.031 E6.28619
G1 X105.206 Y107.031 E6.76304
G1 X105.206 Y100.220 E7.41048
G1 X105.118 Y98.474 E7.57673
G1 X104.830 Y97.084 E7.71166
G1 X104.306 Y96.138 E7.81447
G1 X104.581 Y95.936 E7.84687
G1 X108.021 Y99.547 E8.32100
G1 X109.186 Y101.346 E8.52474
G1 X109.615 Y103.517 E8.73506
G1 F1800.000 E7.73506
G92 E0
G1 X101.924 Y93.902 F7800.000
G1 F1800.000 E1.00000
G1 X100.167 Y93.692 F793.037 E1.16823
G1 X98.128 Y93.847 E1.36263
G1 X100.000 Y91.882 E1.62061
G1 X101.871 Y93.845 E1.87836
G1 F1800.000 E0.87836
G92 E0
G1 X103.493 Y95.165 F7800.000
G1 F1800.000 E1.00000
G1 X101.790 Y94.409 F793.037 E1.17709
G1 X100.156 Y94.214 E1.33352
G1 X98.505 Y94.339 E1.49085
G1 X96.669 Y94.902 E1.67346
G1 X96.565 Y94.734 E1.69228
G1 X100.000 Y91.129 E2.16565
G1 X103.643 Y94.952 E2.66759
G1 X103.538 Y95.101 E2.68495
G1 F1800.000 E1.68495
G92 E0
G1 X100.999 Y91.424 F7800.000
G1 F1800.000 E1.00000
G1 X108.431 Y99.224 F600.000 E2.02410
G1 X109.677 Y101.147 E2.24195
G1 X110.160 Y103.593 E2.47893
G1 X109.677 Y106.039 E2.71590
G1 X108.445 Y107.941 E2.93135
G1 X106.636 Y109.230 E3.14253
G1 X104.318 Y109.735 E3.36800
G1 X101.999 Y109.230 E3.59356
G1 X100.000 Y107.805 E3.82698
G1 X98.000 Y109.230 E4.06047
G1 X95.682 Y109.735 E4.28594
G1 X93.363 Y109.230 E4.51150
G1 X91.555 Y107.941 E4.72261
G1 X90.322 Y106.039 E4.93811
G1 X89.840 Y103.593 E5.17507
G1 X90.322 Y101.147 E5.41203
G1 X91.569 Y99.224 E5.62992
G1 X100.000 Y90.376 E6.79169
G1 X100.945 Y91.368 E6.92195
G1 X100.852 Y91.923 F7800.000
G1 F1800.000 E5.92195
G92 E0
G1 X93.778 Y99.129 F7800.000
G1 F1800.000 E1.00000
G1 X92.471 Y100.436 F1586.074 E1.17708
G1 X91.585 Y102.062 E1.35451
G1 X93.654 Y99.993 E1.63490
G1 X93.977 Y100.410 E1.68549
G1 X91.403 Y102.985 E2.03430
G1 X91.325 Y103.804 E2.11314
G1 X94.629 Y100.499 E2.56090
G1 X95.281 Y100.588 E2.62394
G1 X91.447 Y104.422 E3.14350
G1 X91.569 Y105.041 E3.20392
G1 X95.933 Y100.677 E3.79528
G1 X96.585 Y100.765 E3.85832
G1 X91.735 Y105.615 E4.51547
G1 X92.026 Y106.065 E4.56678
G1 X97.237 Y100.854 E5.27279
G1 X97.889 Y100.943 E5.33583
G1 X92.318 Y106.514 E6.09072
G1 X92.615 Y106.958 E6.14187
G1 X98.541 Y101.032 E6.94483
G1 X99.193 Y101.120 E7.00787
G1 X93.047 Y107.266 E7.84058
G1 X93.479 Y107.574 E7.89146
G1 X99.323 Y101.731 E8.68326
G1 X99.323 Y102.471 E8.75423
G1 X93.912 Y107.883 E9.48744
G1 X94.505 Y108.030 E9.54602
G1 X99.323 Y103.212 E10.19884
G1 X99.323 Y103.953 E10.26980
G1 X95.114 Y108.162 E10.84020
G1 X95.744 Y108.273 E10.90153
G1 X99.323 Y104.693 E11.38650
G1 X99.323 Y105.434 E11.45746
G1 X96.691 Y108.066 E11.81414
G1 X98.022 Y107.476 E11.95367
G1 X99.323 Y106.175 E12.12998
G1 F1800.000 E11.12998
G92 E0
G1 X103.197 Y107.960 F7800.000
G1 F1800.000 E1.00000
G1 X103.119 Y108.037 F600.000 E1.00548
G1 X102.856 Y107.916 E1.01994
G1 X102.803 Y107.969 E1.02366
G1 X104.091 Y108.073 F7800.000
G1 X104.079 Y108.085 F600.000 E1.02525
G1 X105.552 Y107.916 F7800.000
G1 X105.445 Y108.022 F600.000 E1.03276
G1 X106.103 Y107.543 F7800.000
G1 X108.388 Y105.258 F1586.074 E1.33996
G1 X108.570 Y104.334 F7800.000
G1 X106.103 Y106.802 F1586.074 E1.67168
G1 X106.103 Y106.061 F7800.000
G1 X108.693 Y103.471 F1586.074 E2.01988
G1 X108.571 Y102.853 F7800.000
G1 X106.103 Y105.321 F1586.074 E2.35164
G1 X106.103 Y104.580 F7800.000
G1 X108.448 Y102.234 F1586.074 E2.66697
G1 X108.306 Y101.636 F7800.000
G1 X106.103 Y103.839 F1586.074 E2.96320
G1 X106.103 Y103.099 F7800.000
G1 X108.015 Y101.186 F1586.074 E3.22029
G1 X107.724 Y100.737 F7800.000
G1 X106.103 Y102.358 F1586.074 E3.43825
G1 X106.103 Y101.617 F7800.000
G1 X107.433 Y100.287 F1586.074 E3.61707
G1 X107.100 Y99.879 F7800.000
G1 X106.103 Y100.877 F1586.074 E3.75115
G1 X106.100 Y100.139 F7800.000
G1 X106.739 Y99.500 F1586.074 E3.83704
G1 X106.377 Y99.121 F7800.000
G1 X106.064 Y99.434 F1586.074 E3.87913
G1 F1800.000 E2.87913
G92 E0
G1 X104.118 Y95.454 F7800.000
G1 F1800.000 E1.00000
G1 X103.898 Y95.674 F600.000 E1.02959
G1 F1800.000 E0.02959
G92 E0
G1 X100.076 Y92.909 F7800.000
G1 F1800.000 E1.00000
G1 X99.931 Y93.055 F600.000 E1.02740
G1 F1800.000 E0.02740
G92 E0
G1 X96.233 Y95.191 F7800.000
G1 F1800.000 E1.00000
G1 X95.680 Y95.745 F600.000 E1.07441
G1 F1800.000 E0.07441
G92 E0
G1 Z1.350 F7800.000
G1 X96.058 Y96.432
G1 F1800.000 E1.00000
G1 X96.546 Y95.815 F600.000 E1.07474
G1 X97.428 Y95.213 E1.17625
G1 X98.602 Y94.853 E1.29301
G1 X100.145 Y94.736 E1.44002
G1 X101.651 Y94.916 E1.58419
G1 X102.882 Y95.462 E1.71227
G1 X103.791 Y96.281 E1.82856
G1 X104.337 Y97.267 E1.93567
G1 X104.601 Y98.540 E2.05928
G1 X104.687 Y100.233 E2.22047
G1 X104.687 Y106.512 E2.81728
G1 X100.739 Y106.512 E3.19253
G1 X100.739 Y99.458 E3.86304
G1 X100.491 Y98.129 E3.99155
G1 X100.263 Y97.917 E4.02120
G1 X99.895 Y97.838 E4.05693
G1 X99.488 Y97.942 E4.09691
G1 X99.173 Y98.384 E4.14849
G1 X99.022 Y99.668 E4.27136
G1 X95.227 Y99.151 E4.63549
G1 X95.467 Y97.678 E4.77742
G1 X95.891 Y96.643 E4.88376
G1 X96.010 Y96.493 E4.90193
G1 X96.572 Y96.507 F7800.000
G1 F1800.000 E3.90193
G92 E0
