; generated by Slic3r 0.9.10b on 2014-02-06 at 14:29:06

; layer_height = 0.25
; perimeters = 3
; top_solid_layers = 3
; bottom_solid_layers = 3
; fill_density = 0.12
; perimeter_speed = 30
; infill_speed = 60
; travel_speed = 130
; nozzle_diameter = 0.35
; filament_diameter = 1.75
; extrusion_multiplier = 0.9
; perimeters extrusion width = 0.39mm
; infill extrusion width = 0.39mm
; solid infill extrusion width = 0.39mm
; top infill extrusion width = 0.39mm
; first layer extrusion width = 0.50mm

G21 ; set units to millimeters
M107
M104 S180 ; set temperature
G28 ; home all axes
G1 Z5 F5000 ; lift nozzle
M109 S180 ; wait for temperature to be reached
G90 ; use absolute coordinates
G92 E0
M82 ; use absolute distances for extrusion
G1 F1800.000 E-1.00000
G92 E0
G1 Z0.600 F7800.000
G1 X76.180 Y84.180
G1 F1800.000 E1.00000
G1 X86.180 Y74.180 F540.000 E1.61887
G1 X87.160 Y73.370 E1.67451
G1 X88.270 Y72.770 E1.72973
G1 X89.490 Y72.410 E1.78539
G1 X90.750 Y72.280 E1.84082
G1 X109.250 Y72.280 E2.65040
G1 X110.510 Y72.410 E2.70583
G1 X111.730 Y72.770 E2.76149
G1 X112.840 Y73.370 E2.81671
G1 X113.820 Y74.180 E2.87235
G1 X123.820 Y84.180 E3.49122
G1 X124.630 Y85.160 E3.54686
G1 X125.230 Y86.270 E3.60208
G1 X125.590 Y87.490 E3.65774
G1 X125.720 Y88.750 E3.71317
G1 X125.720 Y111.250 E4.69779
G1 X125.590 Y112.510 E4.75322
G1 X125.230 Y113.730 E4.80889
G1 X124.630 Y114.840 E4.86410
G1 X123.820 Y115.820 E4.91974
G1 X113.820 Y125.820 E5.53861
G1 X112.840 Y126.630 E5.59425
G1 X111.730 Y127.230 E5.64947
G1 X110.510 Y127.590 E5.70513
G1 X109.250 Y127.720 E5.76056
G1 X90.750 Y127.720 E6.57014
G1 X89.490 Y127.590 E6.62557
G1 X88.270 Y127.230 E6.68123
G1 X87.160 Y126.630 E6.73645
G1 X86.180 Y125.820 E6.79209
G1 X76.180 Y115.820 E7.41096
G1 X75.370 Y114.840 E7.46660
G1 X74.770 Y113.730 E7.52182
G1 X74.410 Y112.510 E7.57748
G1 X74.280 Y111.250 E7.63291
G1 X74.280 Y88.750 E8.61753
G1 X74.410 Y87.490 E8.67296
G1 X74.770 Y86.270 E8.72863
G1 X75.370 Y85.160 E8.78384
G1 X76.135 Y84.234 E8.83641
G1 X78.585 Y81.782 F7800.000 E7.83641
G92 E0
G1 X81.920 Y89.920
G1 F1800.000 E1.00000
G1 X91.920 Y89.920 F540.000 E1.43761
G1 X91.920 Y79.920 E1.87522
G1 X108.080 Y79.920 E2.58243
G1 X108.080 Y89.920 E3.02004
G1 X118.080 Y89.920 E3.45765
G1 X118.080 Y110.080 E4.33991
G1 X108.080 Y110.080 E4.77752
G1 X108.080 Y120.080 E5.21513
G1 X91.920 Y120.080 E5.92235
G1 X91.920 Y110.080 E6.35995
G1 X81.920 Y110.080 E6.79756
G1 X81.920 Y89.990 E7.67675
G1 X85.386 Y89.965 F7800.000 E6.67675
G92 E0
G1 X91.452 Y79.452
G1 F1800.000 E1.00000
G1 X108.548 Y79.452 F540.000 E1.74816
G1 X108.548 Y89.452 E2.18577
G1 X118.548 Y89.452 E2.62338
G1 X118.548 Y110.548 E3.54658
G1 X108.548 Y110.548 E3.98419
G1 X108.548 Y120.548 E4.42180
G1 X91.452 Y120.548 E5.16996
G1 X91.452 Y110.548 E5.60757
G1 X81.452 Y110.548 E6.04518
G1 X81.452 Y89.452 E6.96838
G1 X91.452 Y89.452 E7.40599
G1 X91.452 Y79.522 E7.84053
G1 X90.984 Y78.984 F7800.000
G1 X109.016 Y78.984 F378.000 E8.62963
G1 X109.016 Y88.984 E9.06724
G1 X119.016 Y88.984 E9.50485
G1 X119.016 Y111.016 E10.46900
G1 X109.016 Y111.016 E10.90660
G1 X109.016 Y121.016 E11.34421
G1 X90.984 Y121.016 E12.13332
G1 X90.984 Y111.016 E12.57093
G1 X80.984 Y111.016 E13.00853
G1 X80.984 Y88.984 E13.97268
G1 X90.984 Y88.984 E14.41029
G1 X90.984 Y79.054 E14.84483
G1 X91.389 Y79.218 F7800.000
G1 X94.855 Y79.172 E13.84483
G92 E0
G1 X107.571 Y80.259
G1 F1800.000 E1.00000
G1 X107.741 Y80.429 F1080.000 E1.01053
G1 X107.741 Y81.091 E1.03953
G1 X106.909 Y80.259 E1.09107
G1 X106.247 Y80.259 E1.12007
G1 X107.741 Y81.753 E1.21262
G1 X107.741 Y82.415 E1.24162
G1 X105.585 Y80.259 E1.37519
G1 X104.923 Y80.259 E1.40419
G1 X107.741 Y83.077 E1.57877
G1 X107.741 Y83.739 E1.60777
G1 X104.261 Y80.259 E1.82336
G1 X103.599 Y80.259 E1.85237
G1 X107.741 Y84.401 E2.10897
G1 X107.741 Y85.064 E2.13797
G1 X102.936 Y80.259 E2.43559
G1 X102.274 Y80.259 E2.46459
G1 X107.741 Y85.726 E2.80323
G1 X107.741 Y86.388 E2.83223
G1 X101.612 Y80.259 E3.21188
G1 X100.950 Y80.259 E3.24088
G1 X107.741 Y87.050 E3.66154
G1 X107.741 Y87.712 E3.69054
G1 X100.288 Y80.259 E4.15221
G1 X99.626 Y80.259 E4.18121
G1 X107.741 Y88.374 E4.68390
G1 X107.741 Y89.036 E4.71290
G1 X98.964 Y80.259 E5.25660
G1 X98.301 Y80.259 E5.28560
G1 X107.741 Y89.699 E5.87032
G1 X105.290 Y87.247 F7800.000 E4.87032
G92 E0
G1 X117.571 Y90.259
G1 F1800.000 E1.00000
G1 X117.741 Y90.429 F1080.000 E1.01053
G1 X117.741 Y91.091 E1.03953
G1 X116.909 Y90.259 E1.09107
G1 X116.247 Y90.259 E1.12007
G1 X117.741 Y91.753 E1.21262
G1 X117.741 Y92.415 E1.24162
G1 X115.585 Y90.259 E1.37519
G1 X114.923 Y90.259 E1.40419
G1 X117.741 Y93.077 E1.57877
G1 X117.741 Y93.739 E1.60777
G1 X114.261 Y90.259 E1.82336
G1 X113.599 Y90.259 E1.85237
G1 X117.741 Y94.401 E2.10897
G1 X117.741 Y95.064 E2.13797
G1 X112.936 Y90.259 E2.43559
G1 X112.274 Y90.259 E2.46459
G1 X117.741 Y95.726 E2.80323
G1 X117.741 Y96.388 E2.83223
G1 X111.612 Y90.259 E3.21188
G1 X110.950 Y90.259 E3.24088
G1 X117.741 Y97.050 E3.66154
G1 X117.741 Y97.712 E3.69054
G1 X110.288 Y90.259 E4.15221
G1 X109.626 Y90.259 E4.18121
G1 X117.741 Y98.374 E4.68390
G1 X117.741 Y99.036 E4.71290
G1 X108.964 Y90.259 E5.25660
G1 X108.301 Y90.259 E5.28560
G1 X117.741 Y99.699 E5.87032
G1 X117.741 Y100.361 E5.89932
G1 X97.639 Y80.259 E7.14444
G1 X96.977 Y80.259 E7.17345
G1 X117.741 Y101.023 E8.45959
G1 X117.741 Y101.685 E8.48859
G1 X96.315 Y80.259 E9.81574
G1 X95.653 Y80.259 E9.84474
G1 X117.741 Y102.347 E11.21291
G1 X117.741 Y103.009 E11.24191
G1 X94.991 Y80.259 E12.65109
G1 X94.329 Y80.259 E12.68009
G1 X117.741 Y103.671 E14.13029
G1 X117.741 Y104.334 E14.15929
G1 X93.666 Y80.259 E15.65050
G1 X93.004 Y80.259 E15.67950
G1 X117.741 Y104.996 E17.21172
G1 X117.741 Y105.658 E17.24072
G1 X92.342 Y80.259 E18.81395
G1 X92.259 Y80.837 E18.83956
G1 X117.741 Y106.320 E20.41797
G1 X117.741 Y106.982 E20.44697
G1 X92.259 Y81.499 E22.02538
G1 X92.259 Y82.161 E22.05438
G1 X117.741 Y107.644 E23.63279
G1 X117.741 Y108.306 E23.66179
G1 X92.259 Y82.824 E25.24020
G1 X92.259 Y83.486 E25.26920
G1 X117.741 Y108.969 E26.84761
G1 X117.741 Y109.631 E26.87661
G1 X92.259 Y84.148 E28.45501
G1 X92.259 Y84.810 E28.48402
G1 X117.190 Y109.741 E30.02826
G1 X116.528 Y109.741 E30.05727
G1 X92.259 Y85.472 E31.56050
G1 X92.259 Y86.134 E31.58950
G1 X115.866 Y109.741 E33.05172
G1 X115.203 Y109.741 E33.08072
G1 X92.259 Y86.797 E34.50193
G1 X92.259 Y87.459 E34.53093
G1 X114.541 Y109.741 E35.91113
G1 X113.879 Y109.741 E35.94013
G1 X92.259 Y88.121 E37.27931
G1 X92.259 Y88.783 E37.30831
G1 X113.217 Y109.741 E38.60648
G1 X112.555 Y109.741 E38.63548
G1 X92.259 Y89.445 E39.89264
G1 X92.259 Y90.107 E39.92164
G1 X111.893 Y109.741 E41.13778
G1 X111.231 Y109.741 E41.16678
G1 X91.748 Y90.259 E42.37355
G1 X91.086 Y90.259 E42.40255
G1 X110.568 Y109.741 E43.60932
G1 X109.906 Y109.741 E43.63832
G1 X90.423 Y90.259 E44.84509
G1 X89.761 Y90.259 E44.87409
G1 X109.244 Y109.741 E46.08086
G1 X108.582 Y109.741 E46.10986
G1 X89.099 Y90.259 E47.31663
G1 X88.437 Y90.259 E47.34563
G1 X107.920 Y109.741 E48.55240
G1 X107.741 Y110.225 E48.57498
G1 X87.775 Y90.259 E49.81171
G1 X87.113 Y90.259 E49.84071
G1 X107.741 Y110.887 E51.11845
G1 X107.741 Y111.549 E51.14745
G1 X86.451 Y90.259 E52.46621
G1 X85.788 Y90.259 E52.49521
G1 X107.741 Y112.212 E53.85498
G1 X107.741 Y112.874 E53.88398
G1 X85.126 Y90.259 E55.28476
G1 X84.464 Y90.259 E55.31376
G1 X107.741 Y113.536 E56.75556
G1 X107.741 Y114.198 E56.78456
G1 X83.802 Y90.259 E58.26737
G1 X83.140 Y90.259 E58.29637
G1 X107.741 Y114.860 E59.82020
G1 X107.741 Y115.522 E59.84920
G1 X82.478 Y90.259 E61.41403
G1 X82.259 Y90.702 E61.43568
G1 X107.741 Y116.184 E63.01409
G1 X107.741 Y116.847 E63.04309
G1 X82.259 Y91.364 E64.62150
G1 X82.259 Y92.026 E64.65050
G1 X107.741 Y117.509 E66.22891
G1 X107.741 Y118.171 E66.25791
G1 X82.259 Y92.688 E67.83632
G1 X82.259 Y93.350 E67.86532
G1 X107.741 Y118.833 E69.44373
G1 X107.741 Y119.495 E69.47273
G1 X82.259 Y94.012 E71.05114
G1 X82.259 Y94.674 E71.08014
G1 X107.326 Y119.741 E72.63278
G1 X106.663 Y119.741 E72.66179
G1 X82.259 Y95.337 E74.17342
G1 X82.259 Y95.999 E74.20242
G1 X106.001 Y119.741 E75.67304
G1 X105.339 Y119.741 E75.70204
G1 X82.259 Y96.661 E77.13165
G1 X82.259 Y97.323 E77.16065
G1 X104.677 Y119.741 E78.54924
G1 X104.015 Y119.741 E78.57824
G1 X82.259 Y97.985 E79.92582
G1 X82.259 Y98.647 E79.95482
G1 X103.353 Y119.741 E81.26139
G1 X102.690 Y119.741 E81.29039
G1 X82.259 Y99.310 E82.55594
G1 X82.259 Y99.972 E82.58494
G1 X92.028 Y109.741 E83.19008
G1 X92.259 Y109.972 F7800.000
G1 X102.028 Y119.741 F1080.000 E83.79522
G1 X101.366 Y119.741 E83.82423
G1 X92.259 Y110.634 E84.38835
G1 X92.259 Y111.296 E84.41735
G1 X100.704 Y119.741 E84.94047
G1 X100.042 Y119.741 E84.96947
G1 X92.259 Y111.958 E85.45157
G1 X92.259 Y112.620 E85.48057
G1 X99.380 Y119.741 E85.92165
G1 X98.718 Y119.741 E85.95065
G1 X92.259 Y113.282 E86.35073
G1 X92.259 Y113.945 E86.37973
G1 X98.055 Y119.741 E86.73879
G1 X97.393 Y119.741 E86.76779
G1 X92.259 Y114.607 E87.08583
G1 X92.259 Y115.269 E87.11483
G1 X96.731 Y119.741 E87.39187
G1 X96.069 Y119.741 E87.42087
G1 X92.259 Y115.931 E87.65689
G1 X92.259 Y116.593 E87.68589
G1 X95.407 Y119.741 E87.88089
G1 X94.745 Y119.741 E87.90990
G1 X92.259 Y117.255 E88.06389
G1 X92.259 Y117.917 E88.09289
G1 X94.083 Y119.741 E88.20587
G1 X93.420 Y119.741 E88.23487
G1 X92.259 Y118.580 E88.30683
G1 X92.259 Y119.242 E88.33584
G1 X92.758 Y119.741 E88.36679
G1 X92.259 Y119.242 F7800.000 E88.16293
G1 X92.259 Y118.580 E87.97193
G1 X93.420 Y119.741 E87.49795
G1 X93.875 Y119.741 E87.36679
G92 E0
G1 X82.259 Y109.242
G1 F1800.000 E1.00000
G1 X82.758 Y109.741 F1080.000 E1.03095
G1 X83.420 Y109.741 E1.05995
G1 X82.259 Y108.580 E1.13192
G1 X82.259 Y107.917 E1.16092
G1 X84.083 Y109.741 E1.27390
G1 X84.745 Y109.741 E1.30290
G1 X82.259 Y107.255 E1.45689
G1 X82.259 Y106.593 E1.48589
G1 X85.407 Y109.741 E1.68090
G1 X86.069 Y109.741 E1.70990
G1 X82.259 Y105.931 E1.94592
G1 X82.259 Y105.269 E1.97492
G1 X86.731 Y109.741 E2.25195
G1 X87.393 Y109.741 E2.28095
G1 X82.259 Y104.607 E2.59900
G1 X82.259 Y103.945 E2.62800
G1 X88.055 Y109.741 E2.98706
G1 X88.718 Y109.741 E3.01606
G1 X82.259 Y103.282 E3.41613
G1 X82.259 Y102.620 E3.44513
G1 X89.380 Y109.741 E3.88622
G1 X90.042 Y109.741 E3.91522
G1 X82.259 Y101.958 E4.39732
G1 X82.259 Y101.296 E4.42632
G1 X90.704 Y109.741 E4.94944
G1 X91.366 Y109.741 E4.97844
G1 X82.259 Y100.634 E5.54256
G1 X84.710 Y103.085 F7800.000 E4.54256
G92 E0
G1 Z0.850
G1 X81.712 Y110.288
G1 F1800.000 E1.00000
G1 X81.712 Y89.712 F1800.000 E1.74073
G1 X91.712 Y89.712 E2.10073
G1 X91.712 Y79.712 E2.46073
G1 X108.288 Y79.712 E3.05746
G1 X108.288 Y89.712 E3.41746
G1 X118.288 Y89.712 E3.77746
G1 X118.288 Y110.288 E4.51818
G1 X108.288 Y110.288 E4.87818
G1 X108.288 Y120.288 E5.23818
G1 X91.712 Y120.288 E5.83491
G1 X91.712 Y110.288 E6.19491
G1 X81.770 Y110.288 E6.55283
G1 X81.760 Y106.821 F7800.000 E5.55283
G92 E0
G1 X118.673 Y110.673
G1 F1800.000 E1.00000
G1 X108.673 Y110.673 F1800.000 E1.36000
G1 X108.673 Y120.673 E1.72000
G1 X91.327 Y120.673 E2.34444
G1 X91.327 Y110.673 E2.70444
G1 X81.327 Y110.673 E3.06444
G1 X81.327 Y89.327 E3.83287
G1 X91.327 Y89.327 E4.19287
G1 X91.327 Y79.327 E4.55287
G1 X108.673 Y79.327 E5.17731
G1 X108.673 Y89.327 E5.53731
G1 X118.673 Y89.327 E5.89731
G1 X118.673 Y110.615 E6.66367
G1 X119.058 Y111.058 F7800.000
G1 X109.058 Y111.058 F1260.000 E7.02367
G1 X109.058 Y121.058 E7.38367
G1 X90.942 Y121.058 E8.03581
G1 X90.942 Y111.058 E8.39581
G1 X80.942 Y111.058 E8.75581
G1 X80.942 Y88.942 E9.55196
G1 X90.942 Y88.942 E9.91196
G1 X90.942 Y78.942 E10.27196
G1 X109.058 Y78.942 E10.92411
G1 X109.058 Y88.942 E11.28411
G1 X119.058 Y88.942 E11.64411
G1 X119.058 Y111.000 E12.43817
G1 X118.724 Y110.865 F7800.000
G1 X115.258 Y110.934 E11.43817
G92 E0
G1 X118.009 Y109.676
G1 F1800.000 E1.00000
G1 X117.676 Y110.009 F3600.000 E1.01698
G1 X117.131 Y110.009 E1.03666
G1 X118.009 Y109.131 E1.08147
G1 X118.009 Y108.585 E1.10115
G1 X116.585 Y110.009 E1.17380
G1 X116.040 Y110.009 E1.19348
G1 X118.009 Y108.040 E1.29396
G1 X118.009 Y107.494 E1.31364
G1 X115.494 Y110.009 E1.44195
G1 X114.949 Y110.009 E1.46163
G1 X118.009 Y106.949 E1.61778
G1 X118.009 Y106.403 E1.63746
G1 X114.403 Y110.009 E1.82144
G1 X113.858 Y110.009 E1.84112
G1 X118.009 Y105.858 E2.05294
G1 X118.009 Y105.312 E2.07262
G1 X113.312 Y110.009 E2.31227
G1 X112.767 Y110.009 E2.33195
G1 X118.009 Y104.767 E2.59944
G1 X118.009 Y104.221 E2.61912
G1 X112.221 Y110.009 E2.91444
G1 X111.676 Y110.009 E2.93412
G1 X118.009 Y103.676 E3.25727
G1 X118.009 Y103.131 E3.27695
G1 X111.131 Y110.009 E3.62794
G1 X110.585 Y110.009 E3.64762
G1 X118.009 Y102.585 E4.02644
G1 X118.009 Y102.040 E4.04612
G1 X110.040 Y110.009 E4.45278
G1 X109.494 Y110.009 E4.47246
G1 X118.009 Y101.494 E4.90695
G1 X118.009 Y100.949 E4.92663
G1 X108.949 Y110.009 E5.38895
G1 X108.403 Y110.009 E5.40864
G1 X118.009 Y100.403 E5.89879
G1 X118.009 Y99.858 E5.91847
G1 X97.858 Y120.009 E6.94673
G1 X98.403 Y120.009 E6.96642
G1 X108.009 Y110.403 E7.45657
G1 X108.009 Y110.949 E7.47625
G1 X98.949 Y120.009 E7.93858
G1 X99.494 Y120.009 E7.95826
G1 X108.009 Y111.494 E8.39275
G1 X108.009 Y112.040 E8.41243
G1 X100.040 Y120.009 E8.81908
G1 X100.585 Y120.009 E8.83877
G1 X108.009 Y112.585 E9.21759
G1 X108.009 Y113.131 E9.23727
G1 X101.131 Y120.009 E9.58826
G1 X101.676 Y120.009 E9.60794
G1 X108.009 Y113.676 E9.93109
G1 X108.009 Y114.221 E9.95077
G1 X102.221 Y120.009 E10.24609
G1 X102.767 Y120.009 E10.26577
G1 X108.009 Y114.767 E10.53326
G1 X108.009 Y115.312 E10.55294
G1 X103.312 Y120.009 E10.79259
G1 X103.858 Y120.009 E10.81227
G1 X108.009 Y115.858 E11.02408
G1 X108.009 Y116.403 E11.04377
G1 X104.403 Y120.009 E11.22775
G1 X104.949 Y120.009 E11.24743
G1 X108.009 Y116.949 E11.40358
G1 X108.009 Y117.494 E11.42326
G1 X105.494 Y120.009 E11.55157
G1 X106.040 Y120.009 E11.57125
G1 X108.009 Y118.040 E11.67173
G1 X108.009 Y118.585 E11.69141
G1 X106.585 Y120.009 E11.76406
G1 X107.131 Y120.009 E11.78374
G1 X108.009 Y119.131 E11.82855
G1 X108.009 Y119.676 E11.84823
G1 X107.676 Y120.009 E11.86521
G1 X108.009 Y119.676 F7800.000 E11.72949
G1 X108.009 Y119.131 E11.57214
G1 X107.131 Y120.009 E11.21388
G1 X106.585 Y120.009 E11.05653
G1 X107.054 Y119.540 E10.86521
G92 E0
G1 X97.312 Y120.009
G1 F1800.000 E1.00000
G1 X118.009 Y99.312 F3600.000 E2.05609
G1 X118.009 Y98.767 E2.07577
G1 X96.767 Y120.009 E3.15970
G1 X96.221 Y120.009 E3.17938
G1 X118.009 Y98.221 E4.29114
G1 X118.009 Y97.676 E4.31083
G1 X95.676 Y120.009 E5.45042
G1 X95.130 Y120.009 E5.47010
G1 X118.009 Y97.130 E6.63753
G1 X118.009 Y96.585 E6.65721
G1 X94.585 Y120.009 E7.85248
G1 X94.039 Y120.009 E7.87216
G1 X118.009 Y96.039 E9.09526
G1 X118.009 Y95.494 E9.11494
G1 X93.494 Y120.009 E10.36587
G1 X92.948 Y120.009 E10.38555
G1 X118.009 Y94.948 E11.66432
G1 X118.009 Y94.403 E11.68400
G1 X92.403 Y120.009 E12.99060
G1 X91.991 Y119.875 E13.00622
G1 X118.009 Y93.857 E14.33383
G1 X118.009 Y93.312 E14.35351
G1 X91.991 Y119.330 E15.68112
G1 X91.991 Y118.784 E15.70081
G1 X118.009 Y92.766 E17.02842
G1 X118.009 Y92.221 E17.04810
G1 X91.991 Y118.239 E18.37571
G1 X91.991 Y117.693 E18.39539
G1 X118.009 Y91.675 E19.72300
G1 X118.009 Y91.130 E19.74269
G1 X91.991 Y117.148 E21.07030
G1 X91.991 Y116.602 E21.08998
G1 X118.009 Y90.584 E22.41759
G1 X118.009 Y90.039 E22.43727
G1 X91.991 Y116.057 E23.76488
G1 X91.991 Y115.511 E23.78457
G1 X117.511 Y89.991 E25.08679
G1 X116.966 Y89.991 E25.10647
G1 X91.991 Y114.966 E26.38086
G1 X91.991 Y114.420 E26.40054
G1 X116.420 Y89.991 E27.64710
G1 X115.875 Y89.991 E27.66678
G1 X91.991 Y113.875 E28.88550
G1 X91.991 Y113.329 E28.90518
G1 X115.329 Y89.991 E30.09607
G1 X114.784 Y89.991 E30.11575
G1 X91.991 Y112.784 E31.27880
G1 X91.991 Y112.239 E31.29848
G1 X114.239 Y89.991 E32.43370
G1 X113.693 Y89.991 E32.45338
G1 X91.991 Y111.693 E33.56076
G1 X91.991 Y111.148 E33.58044
G1 X113.148 Y89.991 E34.65999
G1 X112.602 Y89.991 E34.67968
G1 X91.991 Y110.602 E35.73139
G1 X91.991 Y110.057 E35.75107
G1 X112.057 Y89.991 E36.77495
G1 X111.511 Y89.991 E36.79464
G1 X91.493 Y110.009 E37.81609
G1 X90.948 Y110.009 E37.83577
G1 X110.966 Y89.991 E38.85722
G1 X110.420 Y89.991 E38.87690
