; generated by Slic3r 0.9.10b on 2014-02-07 at 21:53:39

; layer_height = 0.25
; perimeters = 3
; top_solid_layers = 3
; bottom_solid_layers = 3
; fill_density = 0.2
; perimeter_speed = 30
; infill_speed = 60
; travel_speed = 130
; nozzle_diameter = 0.35
; filament_diameter = 1.72
; extrusion_multiplier = 1.1
; perimeters extrusion width = 0.39mm
; infill extrusion width = 0.39mm
; solid infill extrusion width = 0.39mm
; top infill extrusion width = 0.39mm
; first layer extrusion width = 0.50mm

G21 ; set units to millimeters
M107
M104 S190 ; set temperature
G28 ; home all axes
G1 Z5 F5000 ; lift nozzle
M109 S190 ; wait for temperature to be reached
G90 ; use absolute coordinates
G92 E0
M82 ; use absolute distances for extrusion
G1 F1800.000 E-1.00000
G92 E0
G1 Z0.600 F7800.000
G1 X96.709 Y58.930
G1 F1800.000 E1.00000
G1 X97.019 Y58.440 F540.000 E1.03210
G1 X97.359 Y57.980 E1.06377
G1 X99.469 Y55.400 E1.24831
G1 X99.909 Y54.920 E1.28436
G1 X100.389 Y54.480 E1.32042
G1 X102.969 Y52.370 E1.50495
G1 X103.469 Y52.000 E1.53939
G1 X104.009 Y51.680 E1.57415
G1 X106.939 Y50.110 E1.75820
G1 X107.509 Y49.840 E1.79312
G1 X108.109 Y49.620 E1.82850
G1 X111.299 Y48.650 E2.01311
G1 X111.939 Y48.490 E2.04963
G1 X112.669 Y48.390 E2.09043
G1 X115.879 Y48.080 E2.26899
G1 X116.499 Y48.050 E2.30335
G1 X117.119 Y48.080 E2.33772
G1 X120.429 Y48.400 E2.52184
G1 X121.069 Y48.500 E2.55771
G1 X121.689 Y48.650 E2.59303
G1 X124.879 Y49.620 E2.77763
G1 X125.479 Y49.830 E2.81283
G1 X126.049 Y50.100 E2.84775
G1 X128.989 Y51.670 E3.03229
G1 X129.529 Y52.000 E3.06733
G1 X130.039 Y52.380 E3.10254
G1 X132.609 Y54.490 E3.28665
G1 X133.089 Y54.920 E3.32233
G1 X133.519 Y55.400 E3.35801
G1 X135.629 Y57.980 E3.54255
G1 X135.999 Y58.480 E3.57699
G1 X136.319 Y59.020 E3.61174
G1 X137.889 Y61.950 E3.79579
G1 X138.159 Y62.520 E3.83071
G1 X138.379 Y63.110 E3.86557
G1 X139.349 Y66.290 E4.04965
G1 X139.499 Y66.910 E4.08497
G1 X139.599 Y67.540 E4.12029
G1 X139.929 Y70.860 E4.30501
G1 X139.959 Y71.500 E4.34049
G1 X139.929 Y72.140 E4.37596
G1 X139.599 Y75.450 E4.56014
G1 X139.499 Y76.080 E4.59546
G1 X139.349 Y76.690 E4.63024
G1 X138.379 Y79.880 E4.81484
G1 X138.159 Y80.480 E4.85023
G1 X137.889 Y81.050 E4.88515
G1 X136.319 Y83.980 E5.06920
G1 X136.079 Y84.390 E5.09550
G1 X99.429 Y142.290 E8.88954
G1 X98.959 Y142.940 E8.93396
G1 X97.089 Y145.210 E9.09679
G1 X96.669 Y145.670 E9.13128
G1 X96.209 Y146.090 E9.16577
G1 X93.939 Y147.960 E9.32861
G1 X93.419 Y148.350 E9.36460
G1 X92.869 Y148.680 E9.40011
G1 X90.279 Y150.060 E9.56260
G1 X89.719 Y150.330 E9.59702
G1 X89.129 Y150.540 E9.63169
G1 X86.309 Y151.400 E9.79493
G1 X85.689 Y151.550 E9.83025
G1 X85.059 Y151.650 E9.86557
G1 X82.139 Y151.940 E10.02804
G1 X81.499 Y151.970 E10.06351
G1 X80.859 Y151.940 E10.09898
G1 X77.929 Y151.650 E10.26200
G1 X77.299 Y151.550 E10.29732
G1 X76.679 Y151.390 E10.33277
G1 X73.869 Y150.530 E10.49548
G1 X73.289 Y150.330 E10.52945
G1 X72.729 Y150.060 E10.56387
G1 X70.129 Y148.680 E10.72685
G1 X69.569 Y148.350 E10.76284
G1 X69.049 Y147.960 E10.79882
G1 X66.779 Y146.090 E10.96166
G1 X66.319 Y145.670 E10.99615
G1 X65.899 Y145.210 E11.03064
G1 X64.029 Y142.940 E11.19348
G1 X63.639 Y142.420 E11.22947
G1 X63.309 Y141.870 E11.26498
G1 X61.929 Y139.280 E11.42747
G1 X61.659 Y138.720 E11.46189
G1 X61.449 Y138.130 E11.49656
G1 X60.589 Y135.310 E11.65980
G1 X60.439 Y134.680 E11.69566
G1 X60.339 Y134.040 E11.73152
G1 X60.059 Y131.120 E11.89394
G1 X60.029 Y130.500 E11.92830
G1 X60.059 Y129.880 E11.96267
G1 X60.339 Y126.950 E12.12564
G1 X60.439 Y126.310 E12.16150
G1 X60.599 Y125.680 E12.19749
G1 X61.459 Y122.870 E12.36020
G1 X61.659 Y122.290 E12.39417
G1 X61.929 Y121.730 E12.42859
G1 X63.359 Y119.020 E12.59824
G1 X96.675 Y58.991 E16.39945
G1 X97.019 Y58.440 F7800.000 E16.21198
G1 X97.359 Y57.980 E16.04698
G1 X98.780 Y56.242 E15.39945
G92 E0
G1 X105.269 Y63.709
G1 F1800.000 E1.00000
G1 X107.005 Y61.667 F540.000 E1.14839
G1 X109.107 Y60.004 E1.29678
G1 X111.490 Y58.782 E1.44508
G1 X114.068 Y58.050 E1.59347
G1 X116.739 Y57.833 E1.74180
G1 X119.401 Y58.143 E1.89019
G1 X121.951 Y58.965 E2.03855
G1 X124.291 Y60.269 E2.18689
G1 X126.334 Y62.005 E2.33529
G1 X127.996 Y64.106 E2.48365
G1 X129.218 Y66.490 E2.63197
G1 X129.951 Y69.068 E2.78036
G1 X130.167 Y71.738 E2.92869
G1 X129.858 Y74.400 E3.07708
G1 X129.036 Y76.951 E3.22544
G1 X127.732 Y79.291 E3.37378
G1 X125.996 Y81.333 E3.52218
G1 X123.895 Y82.996 E3.67054
G1 X121.511 Y84.218 E3.81886
G1 X118.933 Y84.950 E3.96725
G1 X116.262 Y85.167 E4.11558
G1 X113.600 Y84.857 E4.26397
G1 X111.050 Y84.035 E4.41233
G1 X108.710 Y82.731 E4.56067
G1 X106.667 Y80.995 E4.70907
G1 X105.005 Y78.894 E4.85742
G1 X103.783 Y76.510 E5.00575
G1 X103.050 Y73.932 E5.15414
G1 X102.834 Y71.262 E5.30247
G1 X103.143 Y68.600 E5.45085
G1 X103.965 Y66.049 E5.59922
G1 X105.235 Y63.770 E5.74367
G1 X105.656 Y63.977 F7800.000
G1 X107.332 Y62.005 F540.000 E5.88696
G1 X109.361 Y60.399 E6.03024
G1 X111.663 Y59.219 E6.17345
G1 X114.152 Y58.512 E6.31673
G1 X116.731 Y58.303 E6.45997
G1 X119.301 Y58.602 E6.60324
G1 X121.764 Y59.396 E6.74651
G1 X124.024 Y60.655 E6.88974
G1 X125.995 Y62.331 E7.03304
G1 X127.601 Y64.360 E7.17629
G1 X128.781 Y66.662 E7.31952
G1 X129.488 Y69.151 E7.46280
G1 X129.697 Y71.730 E7.60604
G1 X129.399 Y74.300 E7.74932
G1 X128.605 Y76.763 E7.89258
G1 X127.345 Y79.023 E8.03582
G1 X125.669 Y80.995 E8.17911
G1 X123.640 Y82.600 E8.32237
G1 X121.338 Y83.780 E8.46559
G1 X118.849 Y84.488 E8.60887
G1 X116.270 Y84.697 E8.75211
G1 X113.700 Y84.398 E8.89539
G1 X111.237 Y83.604 E9.03865
G1 X108.977 Y82.345 E9.18189
G1 X107.006 Y80.669 E9.32519
G1 X105.400 Y78.640 E9.46844
G1 X104.220 Y76.338 E9.61167
G1 X103.513 Y73.849 E9.75494
G1 X103.304 Y71.270 E9.89818
G1 X103.602 Y68.700 E10.04146
G1 X104.396 Y66.237 E10.18472
G1 X105.621 Y64.038 E10.32408
G1 X106.042 Y64.245 F7800.000
G1 X107.658 Y62.343 F378.000 E10.46227
G1 X109.615 Y60.795 E10.60042
G1 X111.835 Y59.657 E10.73855
G1 X114.236 Y58.975 E10.87672
G1 X116.722 Y58.773 E11.01486
G1 X119.201 Y59.061 E11.15303
G1 X121.576 Y59.827 E11.29119
G1 X123.756 Y61.041 E11.42933
G1 X125.657 Y62.658 E11.56752
G1 X127.206 Y64.614 E11.70567
G1 X128.344 Y66.835 E11.84381
G1 X129.026 Y69.235 E11.98197
G1 X129.227 Y71.722 E12.12012
G1 X128.939 Y74.201 E12.25829
G1 X128.174 Y76.576 E12.39645
G1 X126.959 Y78.755 E12.53459
G1 X125.343 Y80.657 E12.67278
G1 X123.386 Y82.205 E12.81093
G1 X121.166 Y83.343 E12.94906
G1 X118.765 Y84.025 E13.08723
G1 X116.279 Y84.227 E13.22537
G1 X113.800 Y83.939 E13.36354
G1 X111.425 Y83.173 E13.50170
G1 X109.245 Y81.959 E13.63984
G1 X107.344 Y80.342 E13.77803
G1 X105.795 Y78.386 E13.91618
G1 X104.657 Y76.165 E14.05432
G1 X103.975 Y73.765 E14.19249
G1 X103.774 Y71.278 E14.33063
G1 X104.062 Y68.799 E14.46880
G1 X104.827 Y66.424 E14.60696
G1 X106.008 Y64.306 E14.74121
G1 X106.506 Y64.299 F7800.000
G1 X107.658 Y62.343 E14.08654
G1 X108.597 Y61.600 E13.74121
G92 E0
G1 X86.791 Y117.727
G1 F1800.000 E1.00000
G1 X89.182 Y119.005 F540.000 E1.15011
G1 X91.277 Y120.724 E1.30014
G1 X92.995 Y122.819 E1.45018
G1 X94.274 Y125.210 E1.60029
G1 X95.060 Y127.803 E1.75033
G1 X95.325 Y130.500 E1.90037
G1 X95.060 Y133.197 E2.05041
G1 X94.274 Y135.790 E2.20046
G1 X92.995 Y138.181 E2.35056
G1 X91.277 Y140.276 E2.50060
G1 X89.182 Y141.995 E2.65064
G1 X86.791 Y143.273 E2.80075
G1 X84.197 Y144.059 E2.95080
G1 X81.500 Y144.326 E3.10084
G1 X78.804 Y144.059 E3.25087
G1 X76.210 Y143.273 E3.40093
G1 X73.819 Y141.995 E3.55103
G1 X71.724 Y140.276 E3.70107
G1 X70.006 Y138.181 E3.85111
G1 X68.727 Y135.790 E4.00121
G1 X67.941 Y133.197 E4.15127
G1 X67.675 Y130.500 E4.30130
G1 X67.941 Y127.803 E4.45134
G1 X68.727 Y125.210 E4.60139
G1 X70.006 Y122.819 E4.75150
G1 X71.724 Y120.724 E4.90154
G1 X73.819 Y119.005 E5.05157
G1 X76.210 Y117.727 E5.20168
G1 X78.804 Y116.941 E5.35172
G1 X81.501 Y116.675 E5.50177
G1 X84.197 Y116.941 E5.65181
G1 X86.724 Y117.706 E5.79797
G1 X89.182 Y119.005 F7800.000 E4.99606
G1 X89.712 Y119.441 E4.79797
G92 E0
G1 X71.392 Y120.392
G1 F1800.000 E1.00000
G1 X73.558 Y118.614 F540.000 E1.15514
G1 X76.274 Y117.162 E1.32562
G1 X76.274 Y117.219 E1.32874
G1 X78.712 Y116.480 E1.46981
G1 X81.501 Y116.205 E1.62495
G1 X84.289 Y116.480 E1.78009
G1 X86.971 Y117.292 E1.93524
G1 X89.443 Y118.614 E2.09045
G1 X91.609 Y120.392 E2.24559
G1 X93.386 Y122.558 E2.40073
G1 X94.708 Y125.030 E2.55594
G1 X95.521 Y127.711 E2.71109
G1 X95.795 Y130.500 E2.86623
G1 X95.521 Y133.289 E3.02137
G1 X94.708 Y135.970 E3.17652
G1 X93.386 Y138.442 E3.33173
G1 X91.609 Y140.608 E3.48687
G1 X89.443 Y142.386 E3.64200
G1 X86.971 Y143.708 E3.79722
G1 X84.289 Y144.520 E3.95237
G1 X81.500 Y144.796 E4.10751
G1 X78.712 Y144.520 E4.26265
G1 X76.030 Y143.708 E4.41780
G1 X73.558 Y142.386 E4.57301
G1 X71.392 Y140.608 E4.72815
G1 X69.615 Y138.442 E4.88329
G1 X68.293 Y135.970 E5.03850
G1 X67.480 Y133.288 E5.19366
G1 X67.205 Y130.500 E5.34879
G1 X67.480 Y127.712 E5.50393
G1 X68.293 Y125.030 E5.65909
G1 X69.615 Y122.558 E5.81430
G1 X71.348 Y120.446 E5.96555
G1 X70.958 Y120.183 F7800.000
G1 X71.060 Y120.059 F378.000 E5.97444
G1 X73.297 Y118.223 E6.13468
G1 X75.850 Y116.858 E6.29500
G1 X78.620 Y116.019 E6.45525
G1 X81.500 Y115.735 E6.61549
G1 X84.381 Y116.019 E6.77573
G1 X87.151 Y116.858 E6.93598
G1 X89.704 Y118.223 E7.09630
G1 X91.941 Y120.059 E7.25654
G1 X93.777 Y122.297 E7.41678
G1 X95.142 Y124.850 E7.57709
G1 X95.982 Y127.620 E7.73734
G1 X96.265 Y130.500 E7.89758
G1 X95.982 Y133.380 E8.05782
G1 X95.142 Y136.150 E8.21807
G1 X93.777 Y138.703 E8.37839
G1 X91.941 Y140.941 E8.53863
G1 X89.704 Y142.777 E8.69887
G1 X87.151 Y144.142 E8.85918
G1 X84.381 Y144.981 E9.01944
G1 X81.500 Y145.266 E9.17968
G1 X78.620 Y144.981 E9.33992
G1 X75.850 Y144.142 E9.50018
G1 X73.297 Y142.777 E9.66049
G1 X71.060 Y140.941 E9.82073
G1 X69.224 Y138.703 E9.98097
G1 X67.859 Y136.150 E10.14128
G1 X67.019 Y133.380 E10.30154
G1 X66.735 Y130.500 E10.46178
G1 X67.019 Y127.620 E10.62202
G1 X67.859 Y124.850 E10.78228
G1 X69.224 Y122.297 E10.94259
G1 X70.913 Y120.238 E11.09005
G1 X71.116 Y120.210 F7800.000
G1 X71.060 Y120.059 E11.04373
G1 X73.297 Y118.223 E10.20888
G1 X73.660 Y118.029 E10.09005
G92 E0
G1 X105.318 Y82.682
G1 F1800.000 E1.00000
G1 X103.351 Y80.286 F540.000 E1.17164
G1 X101.890 Y77.552 E1.34327
G1 X100.990 Y74.585 E1.51494
G1 X100.685 Y71.500 E1.68659
G1 X100.990 Y68.414 E1.85827
G1 X101.890 Y65.448 E2.02991
G1 X103.352 Y62.714 E2.20156
G1 X105.318 Y60.317 E2.37320
G1 X107.714 Y58.351 E2.54481
G1 X110.448 Y56.890 E2.71647
G1 X113.415 Y55.989 E2.88813
G1 X116.500 Y55.685 E3.05979
G1 X119.586 Y55.989 E3.23147
G1 X122.552 Y56.890 E3.40311
G1 X125.287 Y58.351 E3.57476
G1 X127.683 Y60.318 E3.74639
G1 X129.649 Y62.714 E3.91803
G1 X131.111 Y65.448 E4.08966
G1 X132.011 Y68.415 E4.26133
G1 X132.315 Y71.500 E4.43298
G1 X132.011 Y74.586 E4.60467
G1 X131.111 Y77.552 E4.77629
G1 X129.649 Y80.286 E4.94797
G1 X127.683 Y82.682 E5.11957
G1 X125.287 Y84.649 E5.29122
G1 X122.553 Y86.110 E5.46285
G1 X119.586 Y87.011 E5.63452
G1 X116.501 Y87.315 E5.80618
G1 X113.415 Y87.011 E5.97786
G1 X110.449 Y86.110 E6.14949
G1 X107.714 Y84.649 E6.32114
G1 X105.372 Y82.727 E6.48889
G1 X103.351 Y80.286 F7800.000 E5.57481
G1 X103.211 Y80.023 E5.48889
G92 E0
G1 X132.785 Y71.500
G1 F1800.000 E1.00000
G1 X132.472 Y74.677 F540.000 E1.17679
G1 X131.545 Y77.732 E1.35352
G1 X130.040 Y80.547 E1.53029
G1 X128.015 Y83.015 E1.70701
G1 X125.548 Y85.040 E1.88375
G1 X122.733 Y86.545 E2.06049
G1 X119.678 Y87.472 E2.23725
G1 X116.501 Y87.785 E2.41401
G1 X113.323 Y87.472 E2.59079
G1 X110.269 Y86.545 E2.76754
G1 X107.453 Y85.040 E2.94429
G1 X104.986 Y83.015 E3.12102
G1 X102.961 Y80.547 E3.29776
G1 X101.456 Y77.732 E3.47450
G1 X100.529 Y74.677 E3.65126
G1 X100.215 Y71.500 E3.82803
G1 X100.529 Y68.323 E4.00481
G1 X101.456 Y65.268 E4.18155
G1 X102.961 Y62.453 E4.35830
G1 X104.986 Y59.985 E4.53504
G1 X107.453 Y57.960 E4.71176
G1 X110.268 Y56.455 E4.88851
G1 X113.323 Y55.528 E5.06528
G1 X116.500 Y55.215 E5.24204
G1 X119.678 Y55.528 E5.41882
G1 X122.732 Y56.455 E5.59557
G1 X125.548 Y57.960 E5.77231
G1 X128.015 Y59.985 E5.94905
G1 X130.040 Y62.453 E6.12579
G1 X131.545 Y65.268 E6.30253
G1 X132.472 Y68.323 E6.47929
G1 X132.778 Y71.430 E6.65216
G1 X133.255 Y71.500 F7800.000
G1 X132.933 Y74.769 F378.000 E6.83404
G1 X131.979 Y77.912 E7.01589
G1 X130.431 Y80.809 E7.19774
G1 X128.348 Y83.347 E7.37957
G1 X125.809 Y85.431 E7.56141
G1 X122.912 Y86.979 E7.74326
G1 X119.769 Y87.933 E7.92512
G1 X116.501 Y88.255 E8.10699
G1 X113.231 Y87.933 E8.28887
G1 X110.089 Y86.979 E8.47072
G1 X107.192 Y85.431 E8.65257
G1 X104.653 Y83.347 E8.83441
G1 X102.570 Y80.808 E9.01625
G1 X101.022 Y77.912 E9.19809
G1 X100.068 Y74.769 E9.37995
G1 X99.745 Y71.500 E9.56182
G1 X100.068 Y68.231 E9.74370
G1 X101.022 Y65.088 E9.92555
G1 X102.570 Y62.192 E10.10740
G1 X104.653 Y59.653 E10.28924
G1 X107.192 Y57.569 E10.47107
G1 X110.089 Y56.021 E10.65292
G1 X113.231 Y55.067 E10.83478
G1 X116.500 Y54.745 E11.01665
G1 X119.770 Y55.067 E11.19853
G1 X122.912 Y56.021 E11.38038
G1 X125.809 Y57.569 E11.56223
G1 X128.348 Y59.653 E11.74407
G1 X130.431 Y62.192 E11.92591
G1 X131.979 Y65.088 E12.10775
G1 X132.933 Y68.231 E12.28961
G1 X133.248 Y71.430 E12.46759
G1 X132.842 Y71.721 F7800.000
G1 X132.933 Y74.769 E11.58780
G1 X132.812 Y75.168 E11.46759
G92 E0
G1 X88.558 Y119.056
G1 F1800.000 E1.00000
G1 X92.945 Y123.443 F1080.000 E1.34427
G1 X93.706 Y124.868 E1.43394
G1 X87.133 Y118.294 E1.94982
G1 X86.024 Y117.849 E2.01611
G1 X94.152 Y125.976 E2.65393
G1 X94.440 Y126.928 E2.70910
G1 X85.073 Y117.560 E3.44422
G1 X84.123 Y117.274 E3.49924
G1 X94.726 Y127.877 E4.33132
G1 X94.799 Y128.612 E4.37233
G1 X83.388 Y117.202 E5.26780
G1 X82.653 Y117.129 E5.30881
G1 X94.871 Y129.348 E6.26768
G1 X94.944 Y130.083 E6.30869
G1 X81.917 Y117.057 E7.33095
G1 X81.239 Y117.042 E7.36860
G1 X94.959 Y130.762 E8.44530
G1 X94.899 Y131.365 E8.47895
G1 X80.635 Y117.101 E9.59836
G1 X80.032 Y117.160 E9.63202
G1 X94.840 Y131.969 E10.79413
G1 X94.781 Y132.573 E10.82779
G1 X79.428 Y117.220 E12.03261
G1 X78.831 Y117.286 E12.06591
G1 X94.714 Y133.169 E13.31231
G1 X94.560 Y133.678 E13.34182
G1 X78.323 Y117.441 E14.61604
G1 X77.814 Y117.595 E14.64555
G1 X94.406 Y134.187 E15.94760
G1 X94.251 Y134.695 E15.97710
G1 X77.305 Y117.749 E17.30698
G1 X76.796 Y117.903 E17.33649
G1 X94.097 Y135.204 E18.69419
G1 X93.935 Y135.705 E18.72341
G1 X76.295 Y118.066 E20.10768
G1 X75.863 Y118.297 E20.13487
G1 X93.704 Y136.137 E21.53492
G1 X93.473 Y136.569 E21.56210
G1 X75.431 Y118.528 E22.97793
G1 X74.999 Y118.759 E23.00511
G1 X93.242 Y137.001 E24.43672
G1 X93.011 Y137.433 E24.46390
G1 X74.567 Y118.990 E25.91128
G1 X74.135 Y119.221 E25.93847
G1 X92.780 Y137.865 E27.40162
G1 X92.501 Y138.249 E27.42796
G1 X73.751 Y119.500 E28.89936
G1 X73.387 Y119.799 E28.92551
G1 X92.202 Y138.614 E30.40204
G1 X91.903 Y138.978 E30.42818
G1 X73.023 Y120.097 E31.90984
G1 X72.658 Y120.396 E31.93599
G1 X91.604 Y139.342 E33.42278
G1 X91.305 Y139.706 E33.44892
G1 X72.294 Y120.695 E34.94085
G1 X71.936 Y121.000 E34.96694
G1 X91.000 Y140.064 E36.46300
G1 X90.636 Y140.363 E36.48914
G1 X71.638 Y121.364 E37.98007
G1 X71.339 Y121.729 E38.00621
G1 X90.272 Y140.662 E39.49201
G1 X89.908 Y140.961 E39.51815
G1 X71.040 Y122.093 E40.99882
G1 X70.741 Y122.457 E41.02496
G1 X89.543 Y141.259 E42.50050
G1 X89.179 Y141.558 E42.52664
G1 X70.442 Y122.821 E43.99704
G1 X70.176 Y123.219 E44.02357
G1 X88.782 Y141.824 E45.48366
G1 X88.350 Y142.055 E45.51084
G1 X69.945 Y123.651 E46.95516
G1 X69.714 Y124.083 E46.98234
G1 X87.918 Y142.286 E48.41088
G1 X87.486 Y142.517 E48.43807
G1 X69.483 Y124.515 E49.85083
G1 X69.252 Y124.947 E49.87801
G1 X87.054 Y142.748 E51.27500
G1 X86.615 Y142.972 E51.30234
G1 X69.028 Y125.386 E52.68247
G1 X68.874 Y125.895 E52.71198
G1 X86.106 Y143.127 E54.06428
G1 X85.597 Y143.281 E54.09378
G1 X68.720 Y126.403 E55.41825
G1 X68.565 Y126.912 E55.44776
G1 X85.088 Y143.435 E56.74441
G1 X84.579 Y143.589 E56.77391
G1 X68.411 Y127.421 E58.04273
G1 X68.268 Y127.941 E58.07266
G1 X84.060 Y143.732 E59.31190
G1 X83.456 Y143.792 E59.34555
G1 X68.209 Y128.544 E60.54211
G1 X68.149 Y129.148 E60.57576
G1 X82.853 Y143.852 E61.72965
