; generated by Slic3r 0.9.10b on 2014-03-26 at 23:31:29

; layer_height = 0.4
; perimeters = 2
; top_solid_layers = 3
; bottom_solid_layers = 3
; fill_density = 0.2
; perimeter_speed = 30
; infill_speed = 60
; travel_speed = 130
; nozzle_diameter = 0.4
; filament_diameter = 1.75
; extrusion_multiplier = 1.1
; perimeters extrusion width = 0.42mm
; infill extrusion width = 0.42mm
; solid infill extrusion width = 0.42mm
; top infill extrusion width = 0.42mm
; first layer extrusion width = 0.70mm

G21 ; set units to millimeters
M107 ; disable fan
M190 S60 ; wait for bed temperature to be reached
M104 S175 ; set temperature
G28 ; home all axes
G1 Z5 F5000 ; lift nozzle
M109 S175 ; wait for temperature to be reached
G90 ; use absolute coordinates
G92 E0 ; reset extrusion distance
M82 ; use absolute distances for extrusion
G1 F1800.000 E-1.00000 ; retract
G92 E0 ; reset extrusion distance
G1 Z-0.350 F7800.000 ; move to next layer (0)
G1 X60.830 Y65.720 ; move to first skirt point
G1 F1800.000 E1.00000 ; compensate retraction
G1 X62.050 Y65.130 F540.000 E1.13788 ; skirt
G1 X63.500 Y64.530 E1.29753 ; skirt
G1 X65.440 Y63.830 E1.50736 ; skirt
G1 X66.510 Y63.520 E1.62070 ; skirt
G1 X68.470 Y63.050 E1.82576 ; skirt
G1 X69.950 Y62.790 E1.97864 ; skirt
G1 X71.520 Y62.590 E2.13967 ; skirt
G1 X72.640 Y62.500 E2.25398 ; skirt
G1 X74.070 Y62.460 E2.39953 ; skirt
G1 X76.250 Y62.500 E2.62136 ; skirt
G1 X77.370 Y62.590 E2.73568 ; skirt
G1 X78.940 Y62.790 E2.89670 ; skirt
G1 X80.430 Y63.060 E3.05076 ; skirt
G1 X80.950 Y63.170 E3.10483 ; skirt
G1 X82.350 Y63.520 E3.25165 ; skirt
G1 X83.720 Y63.920 E3.39686 ; skirt
G1 X227.650 Y110.880 E18.80001 ; skirt
G1 X229.060 Y111.480 E18.95591 ; skirt
G1 X230.330 Y112.330 E19.11139 ; skirt
G1 X231.440 Y113.380 E19.26684 ; skirt
G1 X232.340 Y114.620 E19.42273 ; skirt
G1 X233.000 Y116.000 E19.57836 ; skirt
G1 X233.410 Y117.480 E19.73460 ; skirt
G1 X233.540 Y119.000 E19.88981 ; skirt
G1 X233.540 Y129.000 E20.90721 ; skirt
G1 X233.410 Y130.480 E21.05837 ; skirt
G1 X233.030 Y131.920 E21.20989 ; skirt
G1 X232.400 Y133.270 E21.36146 ; skirt
G1 X231.540 Y134.490 E21.51332 ; skirt
G1 X230.490 Y135.540 E21.66440 ; skirt
G1 X229.270 Y136.400 E21.81626 ; skirt
G1 X227.920 Y137.030 E21.96783 ; skirt
G1 X226.480 Y137.410 E22.11935 ; skirt
G1 X225.000 Y137.540 E22.27050 ; skirt
G1 X-25.000 Y137.540 E47.70552 ; skirt
G1 X-26.480 Y137.410 E47.85667 ; skirt
G1 X-27.920 Y137.030 E48.00819 ; skirt
G1 X-29.270 Y136.400 E48.15976 ; skirt
G1 X-30.490 Y135.540 E48.31162 ; skirt
G1 X-31.540 Y134.490 E48.46270 ; skirt
G1 X-32.400 Y133.270 E48.61456 ; skirt
G1 X-33.030 Y131.920 E48.76613 ; skirt
G1 X-33.410 Y130.480 E48.91765 ; skirt
G1 X-33.540 Y129.000 E49.06881 ; skirt
G1 X-33.540 Y119.000 E50.08621 ; skirt
G1 X-33.400 Y117.440 E50.24556 ; skirt
G1 X-32.970 Y115.940 E50.40432 ; skirt
G1 X-32.280 Y114.540 E50.56311 ; skirt
G1 X-31.350 Y113.280 E50.72244 ; skirt
G1 X-30.200 Y112.220 E50.88156 ; skirt
G1 X-28.880 Y111.390 E51.04020 ; skirt
G1 X60.745 Y65.763 E61.27226 ; skirt
G1 X61.120 Y66.280 F7800.000 ; move to first skirt point
G1 X62.700 Y65.540 F540.000 E61.44977 ; skirt
G1 X63.740 Y65.110 E61.56426 ; skirt
G1 X65.150 Y64.600 E61.71681 ; skirt
G1 X65.620 Y64.450 E61.76701 ; skirt
G1 X66.990 Y64.060 E61.91193 ; skirt
G1 X68.580 Y63.680 E62.07825 ; skirt
G1 X70.030 Y63.420 E62.22813 ; skirt
G1 X71.140 Y63.270 E62.34209 ; skirt
G1 X73.150 Y63.110 E62.54723 ; skirt
G1 X74.580 Y63.090 E62.69273 ; skirt
G1 X75.710 Y63.110 E62.80772 ; skirt
G1 X76.200 Y63.140 E62.85766 ; skirt
G1 X77.750 Y63.270 E63.01591 ; skirt
G1 X78.860 Y63.420 E63.12987 ; skirt
G1 X80.310 Y63.680 E63.27975 ; skirt
G1 X82.170 Y64.130 E63.47444 ; skirt
G1 X83.520 Y64.520 E63.61741 ; skirt
G1 X227.450 Y111.480 E79.02056 ; skirt
G1 X228.750 Y112.040 E79.16457 ; skirt
G1 X229.940 Y112.820 E79.30933 ; skirt
G1 X230.960 Y113.800 E79.45324 ; skirt
G1 X231.790 Y114.950 E79.59753 ; skirt
G1 X232.400 Y116.220 E79.74088 ; skirt
G1 X232.780 Y117.590 E79.88552 ; skirt
G1 X232.910 Y119.000 E80.02958 ; skirt
G1 X232.910 Y129.000 E81.04698 ; skirt
G1 X232.790 Y130.370 E81.18690 ; skirt
G1 X232.430 Y131.700 E81.32708 ; skirt
G1 X231.850 Y132.950 E81.46728 ; skirt
G1 X231.060 Y134.080 E81.60756 ; skirt
G1 X230.080 Y135.060 E81.74856 ; skirt
G1 X228.950 Y135.850 E81.88884 ; skirt
G1 X227.700 Y136.430 E82.02904 ; skirt
G1 X226.370 Y136.790 E82.16922 ; skirt
G1 X225.000 Y136.910 E82.30914 ; skirt
G1 X-25.000 Y136.910 E107.74415 ; skirt
G1 X-26.370 Y136.790 E107.88407 ; skirt
G1 X-27.700 Y136.430 E108.02425 ; skirt
G1 X-28.950 Y135.850 E108.16445 ; skirt
G1 X-30.080 Y135.060 E108.30473 ; skirt
G1 X-31.060 Y134.080 E108.44573 ; skirt
G1 X-31.850 Y132.950 E108.58601 ; skirt
G1 X-32.430 Y131.700 E108.72621 ; skirt
G1 X-32.790 Y130.370 E108.86639 ; skirt
G1 X-32.910 Y129.000 E109.00631 ; skirt
G1 X-32.910 Y119.000 E110.02371 ; skirt
G1 X-32.770 Y117.560 E110.17090 ; skirt
G1 X-32.380 Y116.170 E110.31778 ; skirt
G1 X-31.740 Y114.870 E110.46520 ; skirt
G1 X-30.870 Y113.710 E110.61273 ; skirt
G1 X-29.810 Y112.730 E110.75960 ; skirt
G1 X-28.590 Y111.950 E110.90692 ; skirt
G1 X61.035 Y66.323 E121.13898 ; skirt
G1 X61.410 Y66.850 F7800.000 ; move to first skirt point
G1 X62.600 Y66.280 F540.000 E121.27322 ; skirt
G1 X63.980 Y65.700 E121.42552 ; skirt
G1 X65.800 Y65.060 E121.62180 ; skirt
G1 X67.140 Y64.670 E121.76379 ; skirt
G1 X68.690 Y64.300 E121.92592 ; skirt
G1 X70.120 Y64.050 E122.07361 ; skirt
G1 X71.620 Y63.860 E122.22744 ; skirt
G1 X72.740 Y63.770 E122.34176 ; skirt
G1 X74.090 Y63.730 E122.47917 ; skirt
G1 X75.700 Y63.750 E122.64298 ; skirt
G1 X77.270 Y63.860 E122.80311 ; skirt
G1 X78.770 Y64.050 E122.95694 ; skirt
G1 X80.200 Y64.310 E123.10481 ; skirt
G1 X80.650 Y64.400 E123.15150 ; skirt
G1 X82.000 Y64.740 E123.29314 ; skirt
G1 X83.330 Y65.130 E123.43415 ; skirt
G1 X227.260 Y112.090 E138.83730 ; skirt
G1 X228.640 Y112.710 E138.99122 ; skirt
G1 X229.870 Y113.600 E139.14568 ; skirt
G1 X230.890 Y114.730 E139.30056 ; skirt
G1 X231.640 Y116.050 E139.45502 ; skirt
G1 X232.110 Y117.490 E139.60913 ; skirt
G1 X232.270 Y119.000 E139.76362 ; skirt
G1 X232.270 Y129.000 E140.78102 ; skirt
G1 X232.130 Y130.420 E140.92619 ; skirt
G1 X231.720 Y131.780 E141.07071 ; skirt
G1 X231.050 Y133.040 E141.21590 ; skirt
G1 X230.140 Y134.140 E141.36114 ; skirt
G1 X229.040 Y135.050 E141.50639 ; skirt
G1 X227.780 Y135.720 E141.65158 ; skirt
G1 X226.420 Y136.130 E141.79610 ; skirt
G1 X225.000 Y136.270 E141.94127 ; skirt
G1 X-25.000 Y136.270 E167.37628 ; skirt
G1 X-26.420 Y136.130 E167.52145 ; skirt
G1 X-27.780 Y135.720 E167.66597 ; skirt
G1 X-29.040 Y135.050 E167.81116 ; skirt
G1 X-30.140 Y134.140 E167.95640 ; skirt
G1 X-31.050 Y133.040 E168.10165 ; skirt
G1 X-31.720 Y131.780 E168.24684 ; skirt
G1 X-32.130 Y130.420 E168.39136 ; skirt
G1 X-32.270 Y129.000 E168.53653 ; skirt
G1 X-32.270 Y119.000 E169.55393 ; skirt
G1 X-32.150 Y117.670 E169.68979 ; skirt
G1 X-31.790 Y116.390 E169.82507 ; skirt
G1 X-31.200 Y115.200 E169.96021 ; skirt
G1 X-30.400 Y114.130 E170.09613 ; skirt
G1 X-29.420 Y113.230 E170.23150 ; skirt
G1 X-28.300 Y112.520 E170.36642 ; skirt
G1 X61.325 Y66.893 E180.59848 ; skirt
G1 X61.700 Y67.420 F7800.000 ; move to first skirt point
G1 X63.180 Y66.720 F540.000 E180.76505 ; skirt
G1 X64.220 Y66.290 E180.87954 ; skirt
G1 X65.580 Y65.790 E181.02696 ; skirt
G1 X65.970 Y65.670 E181.06848 ; skirt
G1 X67.290 Y65.290 E181.20823 ; skirt
G1 X68.800 Y64.930 E181.36616 ; skirt
G1 X70.200 Y64.680 E181.51085 ; skirt
G1 X71.310 Y64.530 E181.62481 ; skirt
G1 X72.790 Y64.410 E181.77588 ; skirt
G1 X74.250 Y64.360 E181.92451 ; skirt
G1 X76.100 Y64.410 E182.11279 ; skirt
G1 X77.580 Y64.530 E182.26386 ; skirt
G1 X78.690 Y64.680 E182.37782 ; skirt
G1 X80.090 Y64.930 E182.52251 ; skirt
G1 X81.820 Y65.350 E182.70363 ; skirt
G1 X83.130 Y65.730 E182.84241 ; skirt
G1 X227.060 Y112.690 E198.24556 ; skirt
G1 X228.320 Y113.260 E198.38626 ; skirt
G1 X229.440 Y114.070 E198.52688 ; skirt
G1 X230.370 Y115.100 E198.66807 ; skirt
G1 X231.060 Y116.300 E198.80890 ; skirt
G1 X231.490 Y117.620 E198.95015 ; skirt
G1 X231.640 Y119.000 E199.09137 ; skirt
G1 X231.640 Y129.000 E200.10877 ; skirt
G1 X231.510 Y130.290 E200.24068 ; skirt
G1 X231.130 Y131.540 E200.37361 ; skirt
G1 X230.520 Y132.690 E200.50605 ; skirt
G1 X229.690 Y133.690 E200.63827 ; skirt
G1 X228.690 Y134.520 E200.77049 ; skirt
G1 X227.540 Y135.130 E200.90293 ; skirt
G1 X226.290 Y135.510 E201.03585 ; skirt
G1 X225.000 Y135.640 E201.16776 ; skirt
G1 X-25.000 Y135.640 E226.60277 ; skirt
G1 X-26.290 Y135.510 E226.73468 ; skirt
G1 X-27.540 Y135.130 E226.86760 ; skirt
G1 X-28.690 Y134.520 E227.00004 ; skirt
G1 X-29.690 Y133.690 E227.13226 ; skirt
G1 X-30.520 Y132.690 E227.26448 ; skirt
G1 X-31.130 Y131.540 E227.39692 ; skirt
G1 X-31.510 Y130.290 E227.52984 ; skirt
G1 X-31.640 Y129.000 E227.66175 ; skirt
G1 X-31.640 Y119.000 E228.67915 ; skirt
G1 X-31.480 Y117.550 E228.82757 ; skirt
G1 X-31.000 Y116.170 E228.97623 ; skirt
G1 X-30.240 Y114.930 E229.12419 ; skirt
G1 X-29.230 Y113.890 E229.27169 ; skirt
G1 X-28.010 Y113.090 E229.42012 ; skirt
G1 X61.615 Y67.463 E239.65218 ; skirt
G1 F1800.000 E238.65218 ; retract
G92 E0 ; reset extrusion distance
G1 X72.782 Y89.422 F7800.000 ; move to first perimeter point
G1 F1800.000 E1.00000 ; compensate retraction
G1 X73.321 Y89.183 F540.000 E1.05998 ; perimeter
G1 X73.831 Y89.048 E1.11365 ; perimeter
G1 X74.361 Y88.995 E1.16784 ; perimeter
G1 X74.671 Y89.001 E1.19941 ; perimeter
G1 X75.198 Y89.074 E1.25358 ; perimeter
G1 X75.724 Y89.236 E1.30950 ; perimeter
G1 X76.216 Y89.478 E1.36538 ; perimeter
G1 X76.649 Y89.785 E1.41931 ; perimeter
G1 X76.867 Y89.982 E1.44919 ; perimeter
G1 X77.068 Y90.196 E1.47905 ; perimeter
G1 X77.382 Y90.620 E1.53275 ; perimeter
G1 X77.635 Y91.110 E1.58884 ; perimeter
G1 X77.807 Y91.632 E1.64476 ; perimeter
G1 X77.891 Y92.152 E1.69843 ; perimeter
G1 X77.903 Y92.449 E1.72858 ; perimeter
G1 X77.891 Y92.745 E1.75874 ; perimeter
G1 X77.807 Y93.266 E1.81240 ; perimeter
G1 X77.635 Y93.788 E1.86832 ; perimeter
G1 X77.382 Y94.277 E1.92442 ; perimeter
G1 X77.068 Y94.702 E1.97811 ; perimeter
G1 X76.867 Y94.915 E2.00798 ; perimeter
G1 X76.649 Y95.112 E2.03786 ; perimeter
G1 X76.216 Y95.419 E2.09179 ; perimeter
G1 X75.724 Y95.661 E2.14767 ; perimeter
G1 X75.217 Y95.817 E2.20162 ; perimeter
G1 X74.909 Y95.873 E2.23343 ; perimeter
G1 X74.380 Y95.904 E2.28739 ; perimeter
G1 X73.831 Y95.849 E2.34352 ; perimeter
G1 X73.321 Y95.714 E2.39718 ; perimeter
G1 X73.048 Y95.606 E2.42709 ; perimeter
G1 X72.782 Y95.475 E2.45722 ; perimeter
G1 X72.340 Y95.187 E2.51089 ; perimeter
G1 X71.933 Y94.819 E2.56676 ; perimeter
G1 X71.589 Y94.390 E2.62264 ; perimeter
G1 X71.327 Y93.929 E2.67657 ; perimeter
G1 X71.121 Y93.380 E2.73628 ; perimeter
G1 X71.017 Y92.860 E2.79023 ; perimeter
G1 X70.995 Y92.311 E2.84610 ; perimeter
G1 X71.060 Y91.766 E2.90197 ; perimeter
G1 X71.206 Y91.256 E2.95591 ; perimeter
G1 X71.327 Y90.968 E2.98773 ; perimeter
G1 X71.589 Y90.507 E3.04166 ; perimeter
G1 X71.933 Y90.079 E3.09754 ; perimeter
G1 X72.340 Y89.710 E3.15341 ; perimeter
G1 X72.702 Y89.474 E3.19738 ; perimeter
G1 X73.097 Y89.976 F7800.000 ; move to first perimeter point
G1 X73.520 Y89.788 F540.000 E3.24448 ; perimeter
G1 X73.944 Y89.675 E3.28916 ; perimeter
G1 X74.386 Y89.631 E3.33431 ; perimeter
G1 X74.620 Y89.636 E3.35816 ; perimeter
G1 X75.060 Y89.697 E3.40332 ; perimeter
G1 X75.488 Y89.829 E3.44891 ; perimeter
G1 X75.890 Y90.026 E3.49448 ; perimeter
G1 X76.250 Y90.282 E3.53940 ; perimeter
G1 X76.421 Y90.436 E3.56284 ; perimeter
G1 X76.579 Y90.604 E3.58628 ; perimeter
G1 X76.840 Y90.957 E3.63098 ; perimeter
G1 X77.047 Y91.357 E3.67675 ; perimeter
G1 X77.188 Y91.782 E3.72235 ; perimeter
G1 X77.257 Y92.216 E3.76703 ; perimeter
G1 X77.267 Y92.449 E3.79071 ; perimeter
G1 X77.257 Y92.681 E3.81440 ; perimeter
G1 X77.188 Y93.115 E3.85907 ; perimeter
G1 X77.047 Y93.540 E3.90467 ; perimeter
G1 X76.840 Y93.940 E3.95045 ; perimeter
G1 X76.579 Y94.293 E3.99515 ; perimeter
G1 X76.421 Y94.461 E4.01859 ; perimeter
G1 X76.250 Y94.616 E4.04203 ; perimeter
G1 X75.890 Y94.871 E4.08695 ; perimeter
G1 X75.488 Y95.069 E4.13252 ; perimeter
G1 X75.066 Y95.198 E4.17745 ; perimeter
G1 X74.833 Y95.241 E4.20154 ; perimeter
G1 X74.392 Y95.267 E4.24647 ; perimeter
G1 X73.944 Y95.222 E4.29227 ; perimeter
G1 X73.520 Y95.110 E4.33695 ; perimeter
G1 X73.306 Y95.025 E4.36040 ; perimeter
G1 X73.097 Y94.922 E4.38408 ; perimeter
G1 X72.729 Y94.682 E4.42876 ; perimeter
G1 X72.397 Y94.381 E4.47433 ; perimeter
G1 X72.116 Y94.032 E4.51991 ; perimeter
G1 X71.898 Y93.648 E4.56482 ; perimeter
G1 X71.737 Y93.217 E4.61167 ; perimeter
G1 X71.650 Y92.784 E4.65660 ; perimeter
G1 X71.632 Y92.337 E4.70217 ; perimeter
G1 X71.685 Y91.892 E4.74773 ; perimeter
G1 X71.807 Y91.467 E4.79266 ; perimeter
G1 X71.898 Y91.249 E4.81675 ; perimeter
G1 X72.116 Y90.865 E4.86166 ; perimeter
G1 X72.397 Y90.516 E4.90724 ; perimeter
G1 X72.729 Y90.215 E4.95281 ; perimeter
G1 X73.017 Y90.028 E4.98779 ; perimeter
G1 X73.485 Y90.228 F7800.000 ; move inwards before travel
G1 F1800.000 E3.98779 ; retract
G92 E0 ; reset extrusion distance
G1 X59.957 Y77.957 F7800.000 ; move to first perimeter point
G1 F1800.000 E1.00000 ; compensate retraction
G1 X60.735 Y77.218 F540.000 E1.10917 ; perimeter
G1 X61.551 Y76.521 E1.21834 ; perimeter
G1 X62.402 Y75.868 E1.32750 ; perimeter
G1 X63.286 Y75.260 E1.43666 ; perimeter
G1 X64.201 Y74.700 E1.54583 ; perimeter
G1 X65.144 Y74.188 E1.65499 ; perimeter
G1 X66.113 Y73.726 E1.76417 ; perimeter
G1 X67.104 Y73.315 E1.87333 ; perimeter
G1 X68.115 Y72.957 E1.98249 ; perimeter
G1 X69.144 Y72.652 E2.09166 ; perimeter
G1 X70.187 Y72.402 E2.20083 ; perimeter
G1 X71.242 Y72.206 E2.30999 ; perimeter
G1 X72.306 Y72.066 E2.41915 ; perimeter
G1 X73.376 Y71.982 E2.52832 ; perimeter
G1 X74.449 Y71.954 E2.63749 ; perimeter
G1 X75.521 Y71.982 E2.74665 ; perimeter
G1 X76.591 Y72.066 E2.85582 ; perimeter
G1 X77.655 Y72.206 E2.96498 ; perimeter
G1 X78.710 Y72.402 E3.07415 ; perimeter
G1 X79.753 Y72.652 E3.18331 ; perimeter
G1 X80.782 Y72.957 E3.29248 ; perimeter
G1 X81.793 Y73.315 E3.40165 ; perimeter
G1 X82.785 Y73.726 E3.51080 ; perimeter
G1 X83.753 Y74.188 E3.61998 ; perimeter
G1 X84.696 Y74.700 E3.72914 ; perimeter
G1 X85.611 Y75.260 E3.83831 ; perimeter
G1 X86.495 Y75.868 E3.94747 ; perimeter
G1 X87.346 Y76.521 E4.05663 ; perimeter
G1 X88.162 Y77.218 E4.16580 ; perimeter
G1 X88.941 Y77.957 E4.27497 ; perimeter
G1 X89.679 Y78.735 E4.38414 ; perimeter
G1 X90.376 Y79.551 E4.49330 ; perimeter
G1 X91.029 Y80.402 E4.60246 ; perimeter
G1 X91.637 Y81.286 E4.71163 ; perimeter
G1 X92.198 Y82.201 E4.82079 ; perimeter
G1 X92.710 Y83.144 E4.92996 ; perimeter
G1 X93.172 Y84.113 E5.03913 ; perimeter
G1 X93.582 Y85.104 E5.14829 ; perimeter
G1 X93.940 Y86.115 E5.25745 ; perimeter
G1 X94.245 Y87.144 E5.36662 ; perimeter
G1 X94.496 Y88.187 E5.47579 ; perimeter
G1 X94.691 Y89.242 E5.58495 ; perimeter
G1 X94.831 Y90.306 E5.69412 ; perimeter
G1 X94.915 Y91.376 E5.80328 ; perimeter
G1 X94.943 Y92.449 E5.91245 ; perimeter
G1 X94.915 Y93.521 E6.02161 ; perimeter
G1 X94.831 Y94.591 E6.13078 ; perimeter
G1 X94.691 Y95.655 E6.23995 ; perimeter
G1 X94.496 Y96.710 E6.34911 ; perimeter
G1 X94.245 Y97.753 E6.45828 ; perimeter
G1 X93.940 Y98.782 E6.56745 ; perimeter
G1 X93.582 Y99.793 E6.67661 ; perimeter
G1 X93.172 Y100.785 E6.78577 ; perimeter
G1 X92.710 Y101.753 E6.89494 ; perimeter
G1 X92.198 Y102.696 E7.00411 ; perimeter
G1 X91.637 Y103.611 E7.11327 ; perimeter
G1 X91.029 Y104.495 E7.22244 ; perimeter
G1 X90.376 Y105.346 E7.33159 ; perimeter
G1 X89.679 Y106.162 E7.44076 ; perimeter
G1 X88.941 Y106.941 E7.54993 ; perimeter
G1 X88.162 Y107.679 E7.65910 ; perimeter
G1 X87.346 Y108.376 E7.76827 ; perimeter
G1 X86.495 Y109.029 E7.87743 ; perimeter
G1 X85.611 Y109.637 E7.98659 ; perimeter
G1 X84.696 Y110.198 E8.09576 ; perimeter
G1 X83.753 Y110.710 E8.20492 ; perimeter
G1 X82.785 Y111.172 E8.31409 ; perimeter
G1 X81.793 Y111.582 E8.42325 ; perimeter
G1 X80.782 Y111.940 E8.53242 ; perimeter
G1 X79.753 Y112.245 E8.64159 ; perimeter
