; generated by Slic3r 0.9.10b on 2014-04-08 at 02:45:30

; layer_height = 0.15
; perimeters = 3
; top_solid_layers = 7
; bottom_solid_layers = 7
; fill_density = 0.2
; perimeter_speed = 30
; infill_speed = 60
; travel_speed = 130
; nozzle_diameter = 0.25
; filament_diameter = 1.75
; extrusion_multiplier = 1.25
; perimeters extrusion width = 0.35mm
; infill extrusion width = 0.35mm
; solid infill extrusion width = 0.35mm
; top infill extrusion width = 0.35mm
; first layer extrusion width = 0.36mm

G21 ; set units to millimeters
M107
M190 S60 ; wait for bed temperature to be reached
M104 S200 ; set temperature
G28 ; home all axes
G1 Z5 F5000 ; lift nozzle
M109 S200 ; wait for temperature to be reached
G90 ; use absolute coordinates
G92 E0
M82 ; use absolute distances for extrusion
G1 F1800.000 E-1.00000
G92 E0
G1 Z-0.370 F7800.000
G1 X73.300 Y85.646
G1 F1800.000 E1.00000
G1 X73.890 Y85.156 F540.000 E1.02413
G1 X75.920 Y83.676 E1.10319
G1 X76.570 Y83.256 E1.12754
G1 X77.260 Y82.906 E1.15189
G1 X79.550 Y81.886 E1.23077
G1 X80.270 Y81.606 E1.25508
G1 X81.010 Y81.406 E1.27920
G1 X83.460 Y80.886 E1.35802
G1 X84.220 Y80.766 E1.38223
G1 X84.990 Y80.726 E1.40649
G1 X87.500 Y80.726 E1.48548
G1 X88.180 Y80.766 E1.50691
G1 X117.720 Y83.496 E2.44043
G1 X118.220 Y83.556 E2.45627
G1 X120.190 Y83.876 E2.51908
G1 X120.980 Y84.046 E2.54451
G1 X121.750 Y84.306 E2.57008
G1 X123.590 Y85.046 E2.63249
G1 X124.300 Y85.386 E2.65726
G1 X124.980 Y85.786 E2.68208
G1 X126.630 Y86.906 E2.74484
G1 X127.250 Y87.386 E2.76951
G1 X127.820 Y87.926 E2.79422
G1 X129.170 Y89.346 E2.85587
G1 X129.690 Y89.956 E2.88110
G1 X130.150 Y90.626 E2.90667
G1 X131.190 Y92.356 E2.97019
G1 X131.550 Y93.046 E2.99468
G1 X131.840 Y93.766 E3.01911
G1 X132.480 Y95.646 E3.08160
G1 X132.700 Y96.436 E3.10740
G1 X132.830 Y97.246 E3.13322
G1 X133.040 Y99.226 E3.19587
G1 X133.090 Y99.996 E3.22016
G1 X133.040 Y100.766 E3.24444
G1 X132.830 Y102.746 E3.30709
G1 X132.700 Y103.556 E3.33291
G1 X132.480 Y104.346 E3.35871
G1 X131.840 Y106.226 E3.42121
G1 X131.550 Y106.946 E3.44563
G1 X131.190 Y107.636 E3.47012
G1 X130.150 Y109.366 E3.53364
G1 X129.690 Y110.036 E3.55921
G1 X129.170 Y110.646 E3.58444
G1 X127.820 Y112.066 E3.64609
G1 X127.250 Y112.606 E3.67080
G1 X126.630 Y113.086 E3.69547
G1 X124.980 Y114.206 E3.75823
G1 X124.290 Y114.616 E3.78348
G1 X123.560 Y114.956 E3.80882
G1 X121.720 Y115.686 E3.87112
G1 X120.980 Y115.936 E3.89569
G1 X120.220 Y116.096 E3.92013
G1 X118.250 Y116.426 E3.98299
G1 X117.720 Y116.496 E3.99981
G1 X88.180 Y119.226 E4.93333
G1 X87.500 Y119.266 E4.95476
G1 X84.990 Y119.266 E5.03375
G1 X84.210 Y119.216 E5.05834
G1 X83.440 Y119.096 E5.08286
G1 X80.990 Y118.566 E5.16174
G1 X80.270 Y118.376 E5.18518
G1 X79.580 Y118.106 E5.20849
G1 X77.290 Y117.096 E5.28725
G1 X76.580 Y116.736 E5.31230
G1 X75.910 Y116.306 E5.33735
G1 X73.890 Y114.826 E5.41615
G1 X73.310 Y114.346 E5.43984
G1 X72.780 Y113.816 E5.46343
G1 X71.100 Y111.956 E5.54230
G1 X70.610 Y111.356 E5.56668
G1 X70.180 Y110.706 E5.59120
G1 X68.930 Y108.536 E5.67000
G1 X68.590 Y107.856 E5.69393
G1 X68.320 Y107.156 E5.71754
G1 X67.540 Y104.776 E5.79635
G1 X67.340 Y104.016 E5.82108
G1 X67.210 Y103.246 E5.84565
G1 X66.950 Y100.756 E5.92443
G1 X66.910 Y99.996 E5.94838
G1 X66.950 Y99.236 E5.97233
G1 X67.210 Y96.746 E6.05111
G1 X67.340 Y95.976 E6.07568
G1 X67.540 Y95.216 E6.10041
G1 X68.320 Y92.836 E6.17923
G1 X68.590 Y92.136 E6.20283
G1 X68.930 Y91.456 E6.22676
G1 X70.180 Y89.286 E6.30556
G1 X70.600 Y88.646 E6.32965
G1 X71.080 Y88.046 E6.35383
G1 X72.750 Y86.186 E6.43249
G1 X73.264 Y85.681 E6.45516
G1 X73.520 Y85.896 F7800.000
G1 X74.090 Y85.436 F540.000 E6.47821
G1 X76.120 Y83.956 E6.55726
G1 X76.740 Y83.546 E6.58065
G1 X77.400 Y83.216 E6.60387
G1 X79.690 Y82.196 E6.68276
G1 X80.370 Y81.926 E6.70578
G1 X81.080 Y81.736 E6.72891
G1 X83.530 Y81.216 E6.80772
G1 X84.260 Y81.106 E6.83095
G1 X84.990 Y81.066 E6.85396
G1 X87.500 Y81.066 E6.93294
G1 X88.150 Y81.096 E6.95342
G1 X117.690 Y83.826 E7.88693
G1 X118.160 Y83.886 E7.90184
G1 X120.130 Y84.206 E7.96465
G1 X120.890 Y84.376 E7.98915
G1 X121.630 Y84.626 E8.01373
G1 X123.470 Y85.366 E8.07614
G1 X124.140 Y85.676 E8.09937
G1 X124.790 Y86.066 E8.12322
G1 X126.440 Y87.186 E8.18598
G1 X127.030 Y87.636 E8.20933
G1 X127.580 Y88.156 E8.23314
G1 X128.930 Y89.576 E8.29480
G1 X129.430 Y90.156 E8.31890
G1 X129.860 Y90.796 E8.34316
G1 X130.900 Y92.526 E8.40668
G1 X131.250 Y93.186 E8.43019
G1 X131.530 Y93.876 E8.45362
G1 X132.170 Y95.756 E8.51611
G1 X132.370 Y96.506 E8.54054
G1 X132.500 Y97.276 E8.56511
G1 X132.710 Y99.256 E8.62776
G1 X132.750 Y99.996 E8.65108
G1 X132.710 Y100.736 E8.67440
G1 X132.500 Y102.716 E8.73706
G1 X132.370 Y103.486 E8.76163
G1 X132.170 Y104.236 E8.78606
G1 X131.530 Y106.116 E8.84855
G1 X131.250 Y106.806 E8.87198
G1 X130.900 Y107.466 E8.89549
G1 X129.860 Y109.196 E8.95901
G1 X129.430 Y109.836 E8.98327
G1 X128.930 Y110.416 E9.00737
G1 X127.580 Y111.836 E9.06903
G1 X127.030 Y112.356 E9.09284
G1 X126.440 Y112.806 E9.11619
G1 X124.790 Y113.926 E9.17895
G1 X124.130 Y114.316 E9.20307
G1 X123.430 Y114.646 E9.22742
G1 X121.590 Y115.376 E9.28971
G1 X120.890 Y115.606 E9.31290
G1 X120.170 Y115.766 E9.33611
G1 X117.690 Y116.166 E9.41516
G1 X88.150 Y118.896 E10.34867
G1 X87.500 Y118.926 E10.36915
G1 X84.990 Y118.926 E10.44813
G1 X84.240 Y118.886 E10.47177
G1 X83.510 Y118.766 E10.49505
G1 X81.060 Y118.236 E10.57393
G1 X80.370 Y118.056 E10.59637
G1 X79.710 Y117.796 E10.61869
G1 X77.420 Y116.786 E10.69745
G1 X76.740 Y116.446 E10.72137
G1 X76.110 Y116.026 E10.74520
G1 X74.090 Y114.546 E10.82400
G1 X73.530 Y114.096 E10.84660
G1 X73.030 Y113.596 E10.86885
G1 X71.350 Y111.736 E10.94772
G1 X70.880 Y111.156 E10.97122
G1 X70.480 Y110.536 E10.99443
G1 X69.230 Y108.366 E11.07324
G1 X68.900 Y107.726 E11.09590
G1 X68.640 Y107.046 E11.11880
G1 X67.860 Y104.666 E11.19762
G1 X67.670 Y103.946 E11.22105
G1 X67.550 Y103.216 E11.24433
G1 X67.290 Y100.726 E11.32311
G1 X67.250 Y99.996 E11.34612
G1 X67.290 Y99.266 E11.36912
G1 X67.550 Y96.776 E11.44790
G1 X67.670 Y96.046 E11.47118
G1 X67.860 Y95.326 E11.49461
G1 X68.640 Y92.946 E11.57343
G1 X68.900 Y92.266 E11.59634
G1 X69.230 Y91.626 E11.61899
G1 X70.480 Y89.456 E11.69780
G1 X70.870 Y88.846 E11.72058
G1 X71.330 Y88.276 E11.74363
G1 X73.000 Y86.416 E11.82229
G1 X73.484 Y85.931 E11.84384
G1 X73.750 Y86.146 F7800.000
G1 X74.290 Y85.706 F540.000 E11.86576
G1 X76.320 Y84.226 E11.94482
G1 X76.910 Y83.836 E11.96707
G1 X77.530 Y83.516 E11.98903
G1 X79.820 Y82.496 E12.06791
G1 X80.480 Y82.246 E12.09012
G1 X81.150 Y82.066 E12.11195
G1 X83.600 Y81.546 E12.19077
G1 X84.290 Y81.436 E12.21275
G1 X84.990 Y81.406 E12.23480
G1 X87.500 Y81.406 E12.31378
G1 X88.110 Y81.436 E12.33300
G1 X117.650 Y84.166 E13.26652
G1 X118.110 Y84.216 E13.28108
G1 X120.080 Y84.536 E13.34388
G1 X120.800 Y84.696 E13.36709
G1 X121.500 Y84.936 E13.39038
G1 X123.340 Y85.676 E13.45279
G1 X123.990 Y85.976 E13.47531
G1 X124.600 Y86.346 E13.49776
G1 X126.250 Y87.466 E13.56052
G1 X126.820 Y87.896 E13.58298
G1 X127.340 Y88.386 E13.60547
G1 X128.690 Y89.806 E13.66712
G1 X129.160 Y90.366 E13.69013
G1 X129.570 Y90.966 E13.71300
G1 X130.610 Y92.696 E13.77652
G1 X130.940 Y93.326 E13.79889
G1 X131.210 Y93.986 E13.82133
G1 X131.850 Y95.866 E13.88383
G1 X132.050 Y96.576 E13.90704
G1 X132.170 Y97.316 E13.93063
G1 X132.380 Y99.296 E13.99328
G1 X132.410 Y99.996 E14.01533
G1 X132.380 Y100.696 E14.03738
G1 X132.170 Y102.676 E14.10004
G1 X132.050 Y103.416 E14.12363
G1 X131.850 Y104.126 E14.14684
G1 X131.210 Y106.006 E14.20933
G1 X130.940 Y106.666 E14.23177
G1 X130.610 Y107.296 E14.25415
G1 X129.570 Y109.026 E14.31767
G1 X129.160 Y109.626 E14.34054
G1 X128.690 Y110.186 E14.36354
G1 X127.340 Y111.606 E14.42520
G1 X126.820 Y112.096 E14.44768
G1 X126.250 Y112.526 E14.47015
G1 X124.600 Y113.646 E14.53290
G1 X123.970 Y114.026 E14.55605
G1 X123.310 Y114.326 E14.57887
G1 X121.470 Y115.056 E14.64116
G1 X120.800 Y115.286 E14.66345
G1 X120.110 Y115.436 E14.68567
G1 X118.140 Y115.766 E14.74852
G1 X117.650 Y115.826 E14.76406
G1 X88.110 Y118.556 E15.69757
G1 X87.500 Y118.586 E15.71679
G1 X84.990 Y118.586 E15.79578
G1 X84.280 Y118.546 E15.81815
G1 X83.580 Y118.436 E15.84045
G1 X81.130 Y117.906 E15.91933
G1 X80.480 Y117.736 E15.94047
G1 X79.850 Y117.496 E15.96169
G1 X77.560 Y116.486 E16.04045
G1 X76.910 Y116.156 E16.06338
G1 X76.310 Y115.756 E16.08608
G1 X74.290 Y114.276 E16.16488
G1 X73.760 Y113.846 E16.18635
G1 X73.280 Y113.366 E16.20771
G1 X71.600 Y111.506 E16.28658
G1 X71.150 Y110.956 E16.30895
G1 X70.770 Y110.366 E16.33103
G1 X69.520 Y108.196 E16.40983
G1 X69.210 Y107.586 E16.43136
G1 X68.960 Y106.946 E16.45299
G1 X68.180 Y104.566 E16.53180
G1 X67.990 Y103.876 E16.55432
G1 X67.880 Y103.176 E16.57662
G1 X67.620 Y100.686 E16.65540
G1 X67.590 Y99.996 E16.67713
G1 X67.620 Y99.306 E16.69886
G1 X67.880 Y96.816 E16.77764
G1 X67.990 Y96.116 E16.79994
G1 X68.180 Y95.426 E16.82246
G1 X68.960 Y93.046 E16.90128
G1 X69.210 Y92.406 E16.92290
G1 X69.520 Y91.796 E16.94443
G1 X70.770 Y89.626 E17.02323
G1 X71.150 Y89.036 E17.04532
G1 X71.580 Y88.496 E17.06704
G1 X73.250 Y86.636 E17.14570
G1 X73.714 Y86.181 E17.16614
G1 X73.970 Y86.396 F7800.000
G1 X74.490 Y85.976 F540.000 E17.18717
G1 X76.520 Y84.496 E17.26623
G1 X77.080 Y84.136 E17.28718
G1 X77.670 Y83.826 E17.30815
G1 X79.960 Y82.806 E17.38703
G1 X80.580 Y82.566 E17.40796
G1 X81.220 Y82.396 E17.42879
G1 X83.670 Y81.876 E17.50761
G1 X84.330 Y81.776 E17.52861
G1 X84.990 Y81.736 E17.54942
G1 X87.500 Y81.736 E17.62840
G1 X88.080 Y81.766 E17.64668
G1 X117.620 Y84.496 E18.58019
G1 X120.030 Y84.876 E18.65697
G1 X120.710 Y85.026 E18.67888
G1 X121.370 Y85.246 E18.70077
G1 X123.210 Y85.986 E18.76318
G1 X123.830 Y86.276 E18.78472
G1 X124.410 Y86.626 E18.80604
G1 X126.060 Y87.746 E18.86879
G1 X126.600 Y88.156 E18.89012
G1 X127.090 Y88.616 E18.91127
G1 X128.440 Y90.036 E18.97293
G1 X128.890 Y90.566 E18.99481
G1 X129.280 Y91.146 E19.01680
G1 X130.320 Y92.876 E19.08032
G1 X130.640 Y93.466 E19.10144
G1 X130.890 Y94.096 E19.12277
G1 X131.530 Y95.976 E19.18526
G1 X131.720 Y96.656 E19.20748
G1 X131.830 Y97.346 E19.22947
G1 X132.040 Y99.326 E19.29212
G1 X132.080 Y99.996 E19.31324
G1 X132.040 Y100.666 E19.33436
G1 X131.830 Y102.646 E19.39702
G1 X131.720 Y103.336 E19.41901
G1 X131.530 Y104.016 E19.44122
G1 X130.890 Y105.896 E19.50372
G1 X130.640 Y106.526 E19.52505
G1 X130.320 Y107.116 E19.54617
G1 X129.280 Y108.846 E19.60968
G1 X128.890 Y109.426 E19.63168
G1 X128.440 Y109.956 E19.65356
G1 X127.090 Y111.376 E19.71521
G1 X126.600 Y111.836 E19.73636
G1 X126.060 Y112.246 E19.75770
G1 X124.410 Y113.366 E19.82045
G1 X123.820 Y113.726 E19.84220
G1 X123.190 Y114.016 E19.86402
G1 X121.350 Y114.746 E19.92631
G1 X120.710 Y114.956 E19.94751
G1 X120.060 Y115.106 E19.96850
G1 X118.090 Y115.436 E20.03136
G1 X117.620 Y115.496 E20.04627
G1 X88.080 Y118.226 E20.97978
G1 X87.500 Y118.256 E20.99806
G1 X84.990 Y118.256 E21.07704
G1 X84.320 Y118.216 E21.09816
G1 X83.650 Y118.106 E21.11953
G1 X81.200 Y117.576 E21.19841
G1 X80.580 Y117.416 E21.21856
G1 X79.980 Y117.186 E21.23878
G1 X77.690 Y116.176 E21.31754
G1 X77.080 Y115.866 E21.33907
G1 X76.510 Y115.486 E21.36062
G1 X74.490 Y114.006 E21.43942
G1 X73.980 Y113.596 E21.46002
G1 X73.530 Y113.146 E21.48004
G1 X71.850 Y111.286 E21.55891
G1 X71.420 Y110.766 E21.58014
G1 X71.060 Y110.196 E21.60136
G1 X69.810 Y108.026 E21.68016
G1 X69.510 Y107.446 E21.70071
G1 X69.280 Y106.836 E21.72123
G1 X68.500 Y104.456 E21.80004
G1 X68.320 Y103.806 E21.82126
G1 X68.220 Y103.146 E21.84227
G1 X67.960 Y100.656 E21.92105
G1 X67.920 Y99.996 E21.94185
G1 X67.960 Y99.336 E21.96266
G1 X68.220 Y96.846 E22.04144
G1 X68.320 Y96.186 E22.06245
G1 X68.500 Y95.536 E22.08367
G1 X69.280 Y93.156 E22.16248
G1 X69.510 Y92.546 E22.18300
G1 X69.810 Y91.966 E22.20355
G1 X71.060 Y89.796 E22.28235
G1 X71.420 Y89.236 E22.30330
G1 X71.840 Y88.726 E22.32409
G1 X73.510 Y86.866 E22.40275
G1 X73.935 Y86.432 E22.42186
G1 F1800.000 E21.42186
G92 E0
G1 X78.798 Y91.724 F7800.000
G1 F1800.000 E1.00000
G1 X80.682 Y90.356 F540.000 E1.07326
G1 X82.809 Y89.409 E1.14652
G1 X85.086 Y88.925 E1.21978
G1 X87.414 Y88.925 E1.29304
G1 X89.691 Y89.409 E1.36631
G1 X91.818 Y90.356 E1.43957
G1 X93.702 Y91.724 E1.51283
G1 X95.260 Y93.454 E1.58609
G1 X96.424 Y95.470 E1.65935
G1 X97.143 Y97.685 E1.73261
G1 X97.386 Y100.000 E1.80587
G1 X97.143 Y102.315 E1.87913
G1 X96.424 Y104.530 E1.95239
G1 X95.260 Y106.546 E2.02566
G1 X93.702 Y108.276 E2.09892
G1 X91.818 Y109.644 E2.17218
G1 X89.691 Y110.591 E2.24544
G1 X87.414 Y111.075 E2.31870
G1 X85.086 Y111.075 E2.39196
G1 X82.809 Y110.591 E2.46522
G1 X80.682 Y109.644 E2.53848
G1 X78.798 Y108.276 E2.61174
G1 X77.240 Y106.546 E2.68501
G1 X76.076 Y104.530 E2.75827
G1 X75.357 Y102.315 E2.83153
G1 X75.114 Y100.000 E2.90479
G1 X75.357 Y97.685 E2.97805
G1 X76.076 Y95.470 E3.05131
G1 X77.240 Y93.454 E3.12457
G1 X78.765 Y91.762 E3.19625
G1 X82.704 Y110.913 F7800.000
G1 X80.513 Y109.937 F540.000 E3.27173
G1 X78.572 Y108.527 E3.34722
G1 X76.967 Y106.745 E3.42270
G1 X75.767 Y104.667 E3.49819
G1 X75.026 Y102.386 E3.57368
G1 X74.775 Y100.000 E3.64916
G1 X75.026 Y97.614 E3.72465
G1 X75.767 Y95.333 E3.80014
G1 X76.967 Y93.255 E3.87562
G1 X78.572 Y91.473 E3.95111
G1 X80.513 Y90.063 E4.02659
G1 X82.704 Y89.087 E4.10208
G1 X85.051 Y88.588 E4.17757
G1 X87.449 Y88.588 E4.25305
G1 X89.796 Y89.087 E4.32854
G1 X91.987 Y90.063 E4.40403
G1 X93.928 Y91.473 E4.47951
G1 X95.533 Y93.255 E4.55500
G1 X96.733 Y95.333 E4.63048
G1 X97.474 Y97.614 E4.70597
G1 X97.725 Y100.000 E4.78146
G1 X97.474 Y102.386 E4.85694
G1 X96.733 Y104.667 E4.93243
G1 X95.533 Y106.745 E5.00792
G1 X93.928 Y108.527 E5.08340
G1 X91.987 Y109.937 E5.15889
G1 X89.796 Y110.913 E5.23437
G1 X87.449 Y111.412 E5.30986
G1 X85.051 Y111.412 E5.38535
G1 X82.754 Y110.924 E5.45925
G1 X82.600 Y111.235 F7800.000
G1 X80.344 Y110.230 F378.000 E5.53696
G1 X78.346 Y108.779 E5.61467
G1 X76.693 Y106.943 E5.69238
G1 X75.458 Y104.805 E5.77009
G1 X74.695 Y102.456 E5.84780
G1 X74.437 Y100.000 E5.92551
G1 X74.695 Y97.544 E6.00323
G1 X75.458 Y95.195 E6.08094
G1 X76.693 Y93.057 E6.15865
G1 X78.346 Y91.221 E6.23636
G1 X80.344 Y89.770 E6.31407
G1 X82.600 Y88.765 E6.39178
G1 X85.015 Y88.252 E6.46949
G1 X87.485 Y88.252 E6.54721
G1 X89.900 Y88.765 E6.62492
G1 X92.156 Y89.770 E6.70263
G1 X94.154 Y91.221 E6.78034
G1 X95.807 Y93.057 E6.85805
G1 X97.042 Y95.195 E6.93576
G1 X97.805 Y97.544 E7.01347
G1 X98.063 Y100.000 E7.09119
G1 X97.805 Y102.456 E7.16890
G1 X97.042 Y104.805 E7.24661
G1 X95.807 Y106.943 E7.32432
G1 X94.154 Y108.779 E7.40203
G1 X92.156 Y110.230 E7.47974
G1 X89.900 Y111.235 E7.55745
G1 X87.485 Y111.748 E7.63517
G1 X85.015 Y111.748 E7.71288
G1 X82.649 Y111.245 E7.78900
G1 X82.541 Y110.903 F7800.000
G1 F1800.000 E6.78900
G92 E0
G1 X108.633 Y102.667 F7800.000
G1 F1800.000 E1.00000
G1 X108.245 Y100.903 F540.000 E1.05685
G1 X108.245 Y99.097 E1.11369
G1 X108.633 Y97.333 E1.17054
G1 X109.392 Y95.693 E1.22738
G1 X110.485 Y94.255 E1.28423
G1 X111.862 Y93.085 E1.34107
G1 X113.458 Y92.239 E1.39792
G1 X115.198 Y91.756 E1.45476
G1 X117.002 Y91.658 E1.51161
G1 X118.785 Y91.950 E1.56845
G1 X120.463 Y92.619 E1.62530
G1 X121.958 Y93.633 E1.68214
G1 X123.201 Y94.944 E1.73899
G1 X124.132 Y96.492 E1.79583
G1 X124.709 Y98.204 E1.85268
G1 X124.904 Y100.000 E1.90952
G1 X124.709 Y101.796 E1.96637
G1 X124.132 Y103.508 E2.02322
G1 X123.201 Y105.056 E2.08006
G1 X121.958 Y106.367 E2.13690
G1 X120.463 Y107.381 E2.19375
G1 X118.785 Y108.050 E2.25060
G1 X117.002 Y108.342 E2.30744
G1 X115.198 Y108.244 E2.36429
G1 X113.458 Y107.761 E2.42113
G1 X111.862 Y106.915 E2.47798
G1 X110.485 Y105.745 E2.53482
G1 X109.392 Y104.307 E2.59167
G1 X108.654 Y102.713 E2.64693
G1 X115.144 Y91.422 F7800.000
G1 X117.021 Y91.320 F540.000 E2.70607
G1 X118.876 Y91.624 E2.76522
G1 X120.622 Y92.320 E2.82437
G1 X122.177 Y93.375 E2.88352
G1 X123.470 Y94.740 E2.94267
G1 X124.439 Y96.350 E3.00181
G1 X125.039 Y98.131 E3.06096
G1 X125.242 Y100.000 E3.12011
G1 X125.039 Y101.869 E3.17926
G1 X124.439 Y103.650 E3.23840
G1 X123.470 Y105.260 E3.29755
G1 X122.177 Y106.625 E3.35670
G1 X120.622 Y107.680 E3.41585
G1 X118.876 Y108.376 E3.47499
