; generated by Slic3r 0.9.10b on 2014-03-12 at 03:37:40

; layer_height = 0.4
; perimeters = 2
; top_solid_layers = 3
; bottom_solid_layers = 3
; fill_density = 0.3
; perimeter_speed = 30
; infill_speed = 60
; travel_speed = 130
; nozzle_diameter = 0.4
; filament_diameter = 1.75
; extrusion_multiplier = 1.07
; perimeters extrusion width = 0.42mm
; infill extrusion width = 0.42mm
; solid infill extrusion width = 0.42mm
; top infill extrusion width = 0.42mm
; first layer extrusion width = 0.70mm

G21 ; set units to millimeters
M107 ; disable fan
M190 S60 ; wait for bed temperature to be reached
M104 S175 ; set temperature
G28 ; home all axes
G1 Z5 F5000 ; lift nozzle
M109 S175 ; wait for temperature to be reached
G90 ; use absolute coordinates
G92 E0 ; reset extrusion distance
M82 ; use absolute distances for extrusion
G1 F1800.000 E-1.00000 ; retract
G92 E0 ; reset extrusion distance
G1 Z-0.150 F7800.000 ; move to next layer (0)
G1 X49.503 Y80.435 ; move to first skirt point
G1 F1800.000 E1.00000 ; compensate retraction
G1 X70.023 Y65.195 F540.000 E3.52958 ; skirt
G1 X71.553 Y64.285 E3.70576 ; skirt
G1 X73.253 Y63.715 E3.88320 ; skirt
G1 X75.023 Y63.515 E4.05949 ; skirt
G1 X133.993 Y62.915 E9.89577 ; skirt
G1 X135.633 Y63.055 E10.05867 ; skirt
G1 X137.203 Y63.505 E10.22030 ; skirt
G1 X138.663 Y64.245 E10.38229 ; skirt
G1 X139.963 Y65.255 E10.54521 ; skirt
G1 X141.033 Y66.495 E10.70730 ; skirt
G1 X152.343 Y82.335 E12.63349 ; skirt
G1 X153.213 Y83.865 E12.80768 ; skirt
G1 X153.753 Y85.545 E12.98232 ; skirt
G1 X153.933 Y87.295 E13.15642 ; skirt
G1 X153.933 Y112.695 E15.67014 ; skirt
G1 X153.783 Y114.275 E15.82721 ; skirt
G1 X153.353 Y115.805 E15.98449 ; skirt
G1 X152.633 Y117.225 E16.14205 ; skirt
G1 X151.673 Y118.495 E16.29961 ; skirt
G1 X150.483 Y119.555 E16.45732 ; skirt
G1 X129.963 Y134.795 E18.98690 ; skirt
G1 X128.403 Y135.715 E19.16614 ; skirt
G1 X126.683 Y136.285 E19.34546 ; skirt
G1 X124.873 Y136.475 E19.52557 ; skirt
G1 X75.113 Y136.475 E24.45009 ; skirt
G1 X73.303 Y136.285 E24.63020 ; skirt
G1 X71.583 Y135.715 E24.80952 ; skirt
G1 X70.023 Y134.795 E24.98876 ; skirt
G1 X49.503 Y119.555 E27.51834 ; skirt
G1 X48.313 Y118.495 E27.67605 ; skirt
G1 X47.353 Y117.225 E27.83361 ; skirt
G1 X46.633 Y115.805 E27.99117 ; skirt
G1 X46.203 Y114.275 E28.14845 ; skirt
G1 X46.053 Y112.695 E28.30552 ; skirt
G1 X46.053 Y87.295 E30.81924 ; skirt
G1 X46.203 Y85.715 E30.97631 ; skirt
G1 X46.633 Y84.185 E31.13359 ; skirt
G1 X47.353 Y82.765 E31.29116 ; skirt
G1 X48.313 Y81.495 E31.44871 ; skirt
G1 X49.431 Y80.498 E31.59699 ; skirt
G1 X49.883 Y80.945 F7800.000 ; move to first skirt point
G1 X70.403 Y65.705 F540.000 E34.12657 ; skirt
G1 X71.823 Y64.865 E34.28985 ; skirt
G1 X73.393 Y64.335 E34.45384 ; skirt
G1 X75.033 Y64.145 E34.61723 ; skirt
G1 X134.003 Y63.545 E40.45351 ; skirt
G1 X135.513 Y63.675 E40.60351 ; skirt
G1 X136.973 Y64.095 E40.75385 ; skirt
G1 X138.323 Y64.785 E40.90390 ; skirt
G1 X139.523 Y65.715 E41.05415 ; skirt
G1 X140.513 Y66.865 E41.20432 ; skirt
G1 X151.823 Y82.705 E43.13051 ; skirt
G1 X152.633 Y84.115 E43.29144 ; skirt
G1 X153.133 Y85.675 E43.45356 ; skirt
G1 X153.303 Y87.295 E43.61477 ; skirt
G1 X153.303 Y112.695 E46.12849 ; skirt
G1 X153.163 Y114.165 E46.27462 ; skirt
G1 X152.753 Y115.575 E46.41994 ; skirt
G1 X152.093 Y116.885 E46.56511 ; skirt
G1 X151.203 Y118.055 E46.71060 ; skirt
G1 X150.103 Y119.045 E46.85706 ; skirt
G1 X129.583 Y134.285 E49.38664 ; skirt
G1 X128.143 Y135.135 E49.55212 ; skirt
G1 X126.543 Y135.665 E49.71893 ; skirt
G1 X124.873 Y135.845 E49.88516 ; skirt
G1 X75.113 Y135.845 E54.80967 ; skirt
G1 X73.443 Y135.665 E54.97590 ; skirt
G1 X71.843 Y135.135 E55.14271 ; skirt
G1 X70.403 Y134.285 E55.30819 ; skirt
G1 X49.883 Y119.045 E57.83777 ; skirt
G1 X48.783 Y118.055 E57.98423 ; skirt
G1 X47.893 Y116.885 E58.12971 ; skirt
G1 X47.233 Y115.575 E58.27488 ; skirt
G1 X46.823 Y114.165 E58.42020 ; skirt
G1 X46.683 Y112.695 E58.56634 ; skirt
G1 X46.683 Y87.295 E61.08006 ; skirt
G1 X46.823 Y85.825 E61.22620 ; skirt
G1 X47.233 Y84.415 E61.37152 ; skirt
G1 X47.893 Y83.105 E61.51669 ; skirt
G1 X48.783 Y81.935 E61.66217 ; skirt
G1 X49.812 Y81.009 E61.79919 ; skirt
G1 X50.253 Y81.455 F7800.000 ; move to first skirt point
G1 X70.773 Y66.215 F540.000 E64.32877 ; skirt
G1 X72.083 Y65.445 E64.47916 ; skirt
G1 X73.533 Y64.955 E64.63063 ; skirt
G1 X75.043 Y64.785 E64.78101 ; skirt
G1 X134.013 Y64.185 E70.61730 ; skirt
G1 X135.403 Y64.305 E70.75537 ; skirt
G1 X136.743 Y64.685 E70.89321 ; skirt
G1 X137.983 Y65.315 E71.03086 ; skirt
G1 X139.083 Y66.175 E71.16904 ; skirt
G1 X140.003 Y67.225 E71.30720 ; skirt
G1 X151.313 Y83.065 E73.23340 ; skirt
G1 X152.053 Y84.375 E73.38230 ; skirt
G1 X152.513 Y85.805 E73.53096 ; skirt
G1 X152.663 Y87.295 E73.67916 ; skirt
G1 X152.663 Y112.695 E76.19288 ; skirt
G1 X152.543 Y114.045 E76.32701 ; skirt
G1 X152.163 Y115.345 E76.46105 ; skirt
G1 X151.553 Y116.555 E76.59515 ; skirt
G1 X150.733 Y117.625 E76.72857 ; skirt
G1 X149.733 Y118.535 E76.86238 ; skirt
G1 X129.213 Y133.775 E79.39196 ; skirt
G1 X127.873 Y134.555 E79.54540 ; skirt
G1 X126.413 Y135.045 E79.69781 ; skirt
G1 X124.873 Y135.205 E79.85104 ; skirt
G1 X75.113 Y135.205 E84.77555 ; skirt
G1 X73.573 Y135.045 E84.92878 ; skirt
G1 X72.113 Y134.555 E85.08119 ; skirt
G1 X70.773 Y133.775 E85.23463 ; skirt
G1 X50.253 Y118.535 E87.76421 ; skirt
G1 X49.253 Y117.625 E87.89802 ; skirt
G1 X48.433 Y116.555 E88.03144 ; skirt
G1 X47.823 Y115.345 E88.16554 ; skirt
G1 X47.443 Y114.045 E88.29958 ; skirt
G1 X47.323 Y112.695 E88.43371 ; skirt
G1 X47.323 Y87.295 E90.94743 ; skirt
G1 X47.443 Y85.945 E91.08156 ; skirt
G1 X47.823 Y84.645 E91.21560 ; skirt
G1 X48.433 Y83.435 E91.34970 ; skirt
G1 X49.253 Y82.365 E91.48311 ; skirt
G1 X50.182 Y81.519 E91.60749 ; skirt
G1 X50.633 Y81.965 F7800.000 ; move to first skirt point
G1 X71.153 Y66.725 F540.000 E94.13707 ; skirt
G1 X72.353 Y66.025 E94.27455 ; skirt
G1 X73.663 Y65.575 E94.41163 ; skirt
G1 X75.043 Y65.415 E94.54912 ; skirt
G1 X134.013 Y64.815 E100.38541 ; skirt
G1 X135.283 Y64.925 E100.51156 ; skirt
G1 X136.513 Y65.275 E100.63812 ; skirt
G1 X137.643 Y65.855 E100.76383 ; skirt
G1 X138.643 Y66.635 E100.88934 ; skirt
G1 X139.483 Y67.595 E101.01558 ; skirt
G1 X150.793 Y83.435 E102.94177 ; skirt
G1 X151.473 Y84.625 E103.07741 ; skirt
G1 X151.883 Y85.935 E103.21326 ; skirt
G1 X152.033 Y87.295 E103.34867 ; skirt
G1 X152.033 Y112.695 E105.86239 ; skirt
G1 X151.853 Y114.225 E106.01485 ; skirt
G1 X151.323 Y115.675 E106.16763 ; skirt
G1 X150.473 Y116.965 E106.32052 ; skirt
G1 X149.353 Y118.025 E106.47313 ; skirt
G1 X128.833 Y133.265 E109.00272 ; skirt
G1 X127.613 Y133.975 E109.14241 ; skirt
G1 X126.273 Y134.425 E109.28230 ; skirt
G1 X124.873 Y134.575 E109.42165 ; skirt
G1 X75.113 Y134.575 E114.34616 ; skirt
G1 X73.713 Y134.425 E114.48551 ; skirt
G1 X72.373 Y133.975 E114.62540 ; skirt
G1 X71.153 Y133.265 E114.76509 ; skirt
G1 X50.633 Y118.025 E117.29467 ; skirt
G1 X49.513 Y116.965 E117.44729 ; skirt
G1 X48.663 Y115.675 E117.60017 ; skirt
G1 X48.133 Y114.225 E117.75296 ; skirt
G1 X47.953 Y112.695 E117.90542 ; skirt
G1 X47.953 Y87.295 E120.41914 ; skirt
G1 X48.133 Y85.765 E120.57160 ; skirt
G1 X48.663 Y84.315 E120.72439 ; skirt
G1 X49.513 Y83.025 E120.87727 ; skirt
G1 X50.563 Y82.031 E121.02045 ; skirt
G1 F1800.000 E120.02045 ; retract
G92 E0 ; reset extrusion distance
G1 X128.164 Y71.809 F7800.000 ; move to first perimeter point
G1 F1800.000 E1.00000 ; compensate retraction
G1 X134.085 Y71.456 F540.000 E1.58703 ; perimeter
G1 F1800.000 E0.58703 ; retract
G92 E0 ; reset extrusion distance
G1 X128.164 Y71.809 F7800.000 ; move to first perimeter point
G1 F1800.000 E1.00000 ; compensate retraction
G1 X126.422 Y71.913 F540.000 E1.17266 ; perimeter
G1 X126.422 Y71.913 F7800.000 ; move to first perimeter point
G1 X125.726 Y71.955 F540.000 E1.24172 ; perimeter
G1 X125.726 Y71.955 F7800.000 ; move to first perimeter point
G1 X125.446 Y71.972 F540.000 E1.26950 ; perimeter
G1 X125.387 Y72.057 F7800.000 ; move to first perimeter point
G1 X125.289 Y72.127 F540.000 E1.28144 ; perimeter
G1 X125.387 Y72.057 F7800.000 ; move to first perimeter point
G1 X125.271 Y71.837 F540.000 E1.30607 ; perimeter
G1 F1800.000 E0.30607 ; retract
G92 E0 ; reset extrusion distance
G1 X85.572 Y127.638 F7800.000 ; move to first fill point
G1 F1800.000 E1.00000 ; compensate retraction
G1 X85.538 Y127.604 F360.000 E1.00233 ; fill
G1 X85.970 Y127.604 E1.02292 ; fill
G1 X86.005 Y127.638 E1.02526 ; fill
G1 X86.403 Y127.604 E1.04427 ; fill
G1 X86.437 Y127.638 E1.04660 ; fill
G1 X86.835 Y127.604 E1.06561 ; fill
G1 X86.870 Y127.638 E1.06795 ; fill
G1 X87.267 Y127.604 E1.08696 ; fill
G1 X87.302 Y127.638 E1.08929 ; fill
G1 X87.700 Y127.604 E1.10831 ; fill
G1 X87.735 Y127.638 E1.11064 ; fill
G1 X88.132 Y127.604 E1.12965 ; fill
G1 X88.167 Y127.638 E1.13199 ; fill
G1 X88.565 Y127.604 E1.15100 ; fill
G1 X88.599 Y127.638 E1.15333 ; fill
G1 X88.997 Y127.604 E1.17234 ; fill
G1 X89.032 Y127.638 E1.17468 ; fill
G1 X89.430 Y127.604 E1.19369 ; fill
G1 X89.464 Y127.638 E1.19602 ; fill
G1 X89.862 Y127.604 E1.21503 ; fill
G1 X89.897 Y127.638 E1.21737 ; fill
G1 X90.295 Y127.604 E1.23638 ; fill
G1 X90.329 Y127.638 E1.23871 ; fill
G1 X90.727 Y127.604 E1.25772 ; fill
G1 X90.762 Y127.638 E1.26006 ; fill
G1 X91.160 Y127.604 E1.27907 ; fill
G1 X91.194 Y127.638 E1.28140 ; fill
G1 X91.592 Y127.604 E1.30041 ; fill
G1 X91.627 Y127.638 E1.30275 ; fill
G1 X92.024 Y127.604 E1.32176 ; fill
G1 X92.059 Y127.638 E1.32409 ; fill
G1 X92.457 Y127.604 E1.34310 ; fill
G1 X92.492 Y127.638 E1.34544 ; fill
G1 X92.889 Y127.604 E1.36445 ; fill
G1 X92.924 Y127.638 E1.36678 ; fill
G1 X93.322 Y127.604 E1.38579 ; fill
G1 X93.356 Y127.638 E1.38813 ; fill
G1 X93.754 Y127.604 E1.40714 ; fill
G1 X93.789 Y127.638 E1.40947 ; fill
G1 X75.626 Y127.638 F7800.000 ; move to first fill point
G1 X75.591 Y127.604 F360.000 E1.41181 ; fill
G1 X76.024 Y127.604 E1.43239 ; fill
G1 X76.058 Y127.638 E1.43473 ; fill
G1 X76.456 Y127.604 E1.45374 ; fill
G1 X76.491 Y127.638 E1.45607 ; fill
G1 X76.889 Y127.604 E1.47508 ; fill
G1 X76.923 Y127.638 E1.47741 ; fill
G1 X77.321 Y127.604 E1.49642 ; fill
G1 X77.356 Y127.638 E1.49876 ; fill
G1 X77.754 Y127.604 E1.51776 ; fill
G1 X77.788 Y127.638 E1.52010 ; fill
G1 X78.186 Y127.604 E1.53911 ; fill
G1 X78.221 Y127.638 E1.54144 ; fill
G1 X78.618 Y127.604 E1.56045 ; fill
G1 X78.653 Y127.638 E1.56278 ; fill
G1 X79.051 Y127.604 E1.58179 ; fill
G1 X79.086 Y127.638 E1.58413 ; fill
G1 X79.483 Y127.604 E1.60313 ; fill
G1 X79.518 Y127.638 E1.60547 ; fill
G1 X79.916 Y127.604 E1.62448 ; fill
G1 X79.950 Y127.638 E1.62681 ; fill
G1 X80.348 Y127.604 E1.64582 ; fill
G1 X80.383 Y127.638 E1.64815 ; fill
G1 X80.781 Y127.604 E1.66716 ; fill
G1 X80.815 Y127.638 E1.66950 ; fill
G1 X81.213 Y127.604 E1.68850 ; fill
G1 X81.248 Y127.638 E1.69084 ; fill
G1 X81.646 Y127.604 E1.70985 ; fill
G1 X81.680 Y127.638 E1.71218 ; fill
G1 X82.078 Y127.604 E1.73119 ; fill
G1 X82.113 Y127.638 E1.73352 ; fill
G1 X82.510 Y127.604 E1.75253 ; fill
G1 X82.545 Y127.638 E1.75487 ; fill
G1 X82.943 Y127.604 E1.77388 ; fill
G1 X82.978 Y127.638 E1.77621 ; fill
G1 X83.375 Y127.604 E1.79522 ; fill
G1 X83.410 Y127.638 E1.79755 ; fill
G1 X83.808 Y127.604 E1.81656 ; fill
G1 X83.843 Y127.638 E1.81889 ; fill
G1 F1800.000 E0.81889 ; retract
G92 E0 ; reset extrusion distance
G1 X54.934 Y112.136 F7800.000 ; move to first fill point
G1 F1800.000 E1.00000 ; compensate retraction
G1 X54.899 Y112.101 F360.000 E1.00233 ; fill
G1 X54.934 Y111.703 E1.02134 ; fill
G1 X54.899 Y111.669 E1.02368 ; fill
G1 X54.934 Y111.271 E1.04268 ; fill
G1 X54.899 Y111.236 E1.04502 ; fill
G1 X54.934 Y110.838 E1.06403 ; fill
G1 X54.899 Y110.804 E1.06636 ; fill
G1 X54.934 Y110.406 E1.08537 ; fill
G1 X54.899 Y110.371 E1.08770 ; fill
G1 X54.934 Y109.973 E1.10671 ; fill
G1 X54.899 Y109.939 E1.10905 ; fill
G1 X54.934 Y109.541 E1.12805 ; fill
G1 X54.899 Y109.506 E1.13039 ; fill
G1 X54.934 Y109.108 E1.14940 ; fill
G1 X54.899 Y109.074 E1.15173 ; fill
G1 X54.934 Y108.676 E1.17074 ; fill
G1 X54.899 Y108.641 E1.17307 ; fill
G1 X54.934 Y108.244 E1.19208 ; fill
G1 X54.899 Y108.209 E1.19442 ; fill
G1 X54.934 Y107.811 E1.21342 ; fill
G1 X54.899 Y107.776 E1.21576 ; fill
G1 X54.934 Y107.379 E1.23477 ; fill
G1 X54.899 Y107.344 E1.23710 ; fill
G1 X54.934 Y106.946 E1.25611 ; fill
G1 X54.899 Y106.912 E1.25844 ; fill
G1 X54.934 Y106.514 E1.27745 ; fill
G1 X54.899 Y106.479 E1.27979 ; fill
G1 X54.934 Y106.081 E1.29879 ; fill
G1 X54.899 Y106.047 E1.30113 ; fill
G1 X54.934 Y105.649 E1.32014 ; fill
G1 X54.899 Y105.614 E1.32247 ; fill
G1 X54.934 Y105.216 E1.34148 ; fill
G1 X54.899 Y105.182 E1.34381 ; fill
G1 X54.934 Y104.784 E1.36282 ; fill
G1 X54.899 Y104.749 E1.36516 ; fill
G1 X54.934 Y104.352 E1.38416 ; fill
G1 X54.899 Y104.317 E1.38650 ; fill
G1 X54.934 Y103.919 E1.40551 ; fill
G1 X54.899 Y103.884 E1.40784 ; fill
G1 X54.934 Y103.487 E1.42685 ; fill
G1 X54.899 Y103.452 E1.42918 ; fill
G1 X54.934 Y103.054 E1.44819 ; fill
G1 X54.899 Y103.019 E1.45053 ; fill
G1 X54.934 Y102.622 E1.46953 ; fill
G1 X54.899 Y102.587 E1.47187 ; fill
G1 X54.934 Y102.189 E1.49088 ; fill
G1 X54.899 Y102.155 E1.49321 ; fill
G1 X54.934 Y101.757 E1.51222 ; fill
G1 X54.899 Y101.722 E1.51455 ; fill
G1 X54.934 Y101.324 E1.53356 ; fill
G1 X54.899 Y101.290 E1.53590 ; fill
G1 X54.934 Y100.892 E1.55490 ; fill
G1 X54.899 Y100.857 E1.55724 ; fill
G1 X54.934 Y99.162 F7800.000 ; move to first fill point
G1 X54.899 Y99.127 F360.000 E1.55957 ; fill
G1 X54.934 Y98.730 E1.57858 ; fill
G1 X54.899 Y98.695 E1.58091 ; fill
G1 X54.934 Y98.297 E1.59992 ; fill
G1 X54.899 Y98.263 E1.60226 ; fill
G1 X54.934 Y97.865 E1.62127 ; fill
G1 X54.899 Y97.830 E1.62360 ; fill
G1 X54.934 Y97.432 E1.64261 ; fill
G1 X54.899 Y97.398 E1.64494 ; fill
G1 X54.934 Y97.000 E1.66395 ; fill
G1 X54.899 Y96.965 E1.66628 ; fill
G1 X54.934 Y96.567 E1.68529 ; fill
G1 X54.899 Y96.533 E1.68763 ; fill
G1 X54.934 Y96.135 E1.70664 ; fill
G1 X54.899 Y96.100 E1.70897 ; fill
G1 X54.934 Y95.702 E1.72798 ; fill
G1 X54.899 Y95.668 E1.73031 ; fill
G1 X54.934 Y95.270 E1.74932 ; fill
G1 X54.899 Y95.235 E1.75165 ; fill
G1 X54.934 Y94.838 E1.77066 ; fill
G1 X54.899 Y94.803 E1.77300 ; fill
G1 X54.934 Y94.405 E1.79200 ; fill
G1 X54.899 Y94.370 E1.79434 ; fill
G1 X54.934 Y93.973 E1.81335 ; fill
G1 X54.899 Y93.938 E1.81568 ; fill
G1 X54.934 Y93.540 E1.83469 ; fill
G1 X54.899 Y93.506 E1.83702 ; fill
G1 X54.934 Y93.108 E1.85603 ; fill
G1 X54.899 Y93.073 E1.85837 ; fill
G1 X54.934 Y92.675 E1.87737 ; fill
G1 X54.899 Y92.641 E1.87971 ; fill
G1 X54.934 Y92.243 E1.89872 ; fill
G1 X54.899 Y92.208 E1.90105 ; fill
G1 X54.934 Y91.810 E1.92006 ; fill
G1 X54.899 Y91.776 E1.92239 ; fill
G1 X54.934 Y91.378 E1.94140 ; fill
G1 X54.899 Y91.343 E1.94374 ; fill
G1 X54.934 Y90.946 E1.96274 ; fill
G1 X54.899 Y90.911 E1.96508 ; fill
G1 X54.934 Y90.513 E1.98409 ; fill
G1 X54.899 Y90.478 E1.98642 ; fill
G1 X54.934 Y90.081 E2.00543 ; fill
G1 X54.899 Y90.046 E2.00776 ; fill
G1 X54.934 Y89.648 E2.02677 ; fill
G1 X54.899 Y89.614 E2.02911 ; fill
G1 X54.934 Y89.216 E2.04811 ; fill
G1 X54.899 Y89.181 E2.05045 ; fill
G1 X54.934 Y88.783 E2.06946 ; fill
G1 X54.899 Y88.749 E2.07179 ; fill
G1 X54.934 Y88.351 E2.09080 ; fill
G1 X54.899 Y88.316 E2.09313 ; fill
G1 X54.934 Y87.918 E2.11214 ; fill
G1 X54.899 Y87.884 E2.11448 ; fill
G1 F1800.000 E1.11448 ; retract
G92 E0 ; reset extrusion distance
G1 X75.737 Y72.396 F7800.000 ; move to first fill point
G1 F1800.000 E1.00000 ; compensate retraction
G1 X75.702 Y72.361 F360.000 E1.00238 ; fill
G1 X76.135 Y72.361 E1.02297 ; fill
G1 X76.170 Y72.396 E1.02535 ; fill
G1 X76.567 Y72.361 E1.04432 ; fill
G1 X76.602 Y72.396 E1.04670 ; fill
G1 X76.999 Y72.361 E1.06568 ; fill
G1 X77.035 Y72.396 E1.06806 ; fill
G1 X77.432 Y72.361 E1.08704 ; fill
G1 X77.467 Y72.396 E1.08942 ; fill
G1 X77.864 Y72.361 E1.10840 ; fill
G1 X77.900 Y72.396 E1.11078 ; fill
G1 X78.297 Y72.361 E1.12976 ; fill
G1 X78.332 Y72.396 E1.13214 ; fill
G1 X78.729 Y72.361 E1.15112 ; fill
G1 X78.765 Y72.396 E1.15350 ; fill
G1 X79.162 Y72.361 E1.17248 ; fill
G1 X79.197 Y72.396 E1.17485 ; fill
G1 X79.594 Y72.361 E1.19383 ; fill
