; generated by Slic3r 0.9.10b on 2014-03-11 at 00:56:39

; layer_height = 0.4
; perimeters = 2
; top_solid_layers = 3
; bottom_solid_layers = 3
; fill_density = 0.3
; perimeter_speed = 30
; infill_speed = 60
; travel_speed = 130
; nozzle_diameter = 0.4
; filament_diameter = 1.75
; extrusion_multiplier = 1.07
; perimeters extrusion width = 0.42mm
; infill extrusion width = 0.42mm
; solid infill extrusion width = 0.42mm
; top infill extrusion width = 0.42mm
; first layer extrusion width = 0.70mm

G21 ; set units to millimeters
M107 ; disable fan
M190 S60 ; wait for bed temperature to be reached
M104 S185 ; set temperature
G28 ; home all axes
G1 Z5 F5000 ; lift nozzle
M109 S185 ; wait for temperature to be reached
G90 ; use absolute coordinates
G92 E0 ; reset extrusion distance
M82 ; use absolute distances for extrusion
G1 F1800.000 E-1.00000 ; retract
G92 E0 ; reset extrusion distance
G1 Z-0.150 F7800.000 ; move to next layer (0)
G1 X74.510 Y83.460 ; move to first skirt point
G1 F1800.000 E1.00000 ; compensate retraction
G1 X75.730 Y82.600 F540.000 E1.14772 ; skirt
G1 X77.080 Y81.970 E1.29516 ; skirt
G1 X78.520 Y81.590 E1.44254 ; skirt
G1 X80.000 Y81.460 E1.58958 ; skirt
G1 X120.000 Y81.460 E5.54819 ; skirt
G1 X121.480 Y81.590 E5.69522 ; skirt
G1 X122.920 Y81.970 E5.84261 ; skirt
G1 X124.270 Y82.600 E5.99005 ; skirt
G1 X125.490 Y83.460 E6.13777 ; skirt
G1 X126.540 Y84.510 E6.28472 ; skirt
G1 X127.400 Y85.730 E6.43244 ; skirt
G1 X128.030 Y87.080 E6.57988 ; skirt
G1 X128.410 Y88.520 E6.72727 ; skirt
G1 X128.540 Y90.000 E6.87430 ; skirt
G1 X128.540 Y110.000 E8.85361 ; skirt
G1 X128.410 Y111.480 E9.00064 ; skirt
G1 X128.030 Y112.920 E9.14803 ; skirt
G1 X127.400 Y114.270 E9.29546 ; skirt
G1 X126.540 Y115.490 E9.44318 ; skirt
G1 X125.490 Y116.540 E9.59014 ; skirt
G1 X124.270 Y117.400 E9.73786 ; skirt
G1 X122.920 Y118.030 E9.88529 ; skirt
G1 X121.480 Y118.410 E10.03268 ; skirt
G1 X120.000 Y118.540 E10.17971 ; skirt
G1 X80.000 Y118.540 E14.13833 ; skirt
G1 X78.520 Y118.410 E14.28536 ; skirt
G1 X77.080 Y118.030 E14.43275 ; skirt
G1 X75.730 Y117.400 E14.58018 ; skirt
G1 X74.510 Y116.540 E14.72790 ; skirt
G1 X73.460 Y115.490 E14.87486 ; skirt
G1 X72.600 Y114.270 E15.02258 ; skirt
G1 X71.970 Y112.920 E15.17002 ; skirt
G1 X71.590 Y111.480 E15.31740 ; skirt
G1 X71.460 Y110.000 E15.46444 ; skirt
G1 X71.460 Y90.000 E17.44374 ; skirt
G1 X71.590 Y88.520 E17.59078 ; skirt
G1 X71.970 Y87.080 E17.73816 ; skirt
G1 X72.600 Y85.730 E17.88560 ; skirt
G1 X73.460 Y84.510 E18.03332 ; skirt
G1 X74.443 Y83.527 E18.17084 ; skirt
G1 X74.920 Y83.940 F7800.000 ; move to first skirt point
G1 X76.050 Y83.150 F540.000 E18.30729 ; skirt
G1 X77.300 Y82.570 E18.44367 ; skirt
G1 X78.630 Y82.210 E18.58003 ; skirt
G1 X80.000 Y82.090 E18.71613 ; skirt
G1 X120.000 Y82.090 E22.67474 ; skirt
G1 X121.370 Y82.210 E22.81084 ; skirt
G1 X122.700 Y82.570 E22.94720 ; skirt
G1 X123.950 Y83.150 E23.08358 ; skirt
G1 X125.080 Y83.940 E23.22003 ; skirt
G1 X126.060 Y84.920 E23.35719 ; skirt
G1 X126.850 Y86.050 E23.49364 ; skirt
G1 X127.430 Y87.300 E23.63001 ; skirt
G1 X127.790 Y88.630 E23.76637 ; skirt
G1 X127.910 Y90.000 E23.90247 ; skirt
G1 X127.910 Y110.000 E25.88178 ; skirt
G1 X127.790 Y111.370 E26.01788 ; skirt
G1 X127.430 Y112.700 E26.15424 ; skirt
G1 X126.850 Y113.950 E26.29062 ; skirt
G1 X126.060 Y115.080 E26.42707 ; skirt
G1 X125.080 Y116.060 E26.56423 ; skirt
G1 X123.950 Y116.850 E26.70068 ; skirt
G1 X122.700 Y117.430 E26.83705 ; skirt
G1 X121.370 Y117.790 E26.97341 ; skirt
G1 X120.000 Y117.910 E27.10951 ; skirt
G1 X80.000 Y117.910 E31.06813 ; skirt
G1 X78.630 Y117.790 E31.20423 ; skirt
G1 X77.300 Y117.430 E31.34059 ; skirt
G1 X76.050 Y116.850 E31.47696 ; skirt
G1 X74.920 Y116.060 E31.61341 ; skirt
G1 X73.940 Y115.080 E31.75057 ; skirt
G1 X73.150 Y113.950 E31.88702 ; skirt
G1 X72.570 Y112.700 E32.02340 ; skirt
G1 X72.210 Y111.370 E32.15976 ; skirt
G1 X72.090 Y110.000 E32.29586 ; skirt
G1 X72.090 Y90.000 E34.27516 ; skirt
G1 X72.210 Y88.630 E34.41127 ; skirt
G1 X72.570 Y87.300 E34.54763 ; skirt
G1 X73.150 Y86.050 E34.68400 ; skirt
G1 X73.940 Y84.920 E34.82045 ; skirt
G1 X74.853 Y84.007 E34.94817 ; skirt
G1 X74.860 Y84.860 F7800.000 ; move to first skirt point
G1 X75.960 Y83.950 F540.000 E35.08946 ; skirt
G1 X77.220 Y83.280 E35.23069 ; skirt
G1 X78.580 Y82.870 E35.37127 ; skirt
G1 X80.000 Y82.730 E35.51248 ; skirt
G1 X120.000 Y82.730 E39.47109 ; skirt
G1 X121.420 Y82.870 E39.61230 ; skirt
G1 X122.780 Y83.280 E39.75288 ; skirt
G1 X124.040 Y83.950 E39.89411 ; skirt
G1 X125.140 Y84.860 E40.03539 ; skirt
G1 X126.050 Y85.960 E40.17668 ; skirt
G1 X126.720 Y87.220 E40.31791 ; skirt
G1 X127.130 Y88.580 E40.45848 ; skirt
G1 X127.270 Y90.000 E40.59969 ; skirt
G1 X127.270 Y110.000 E42.57900 ; skirt
G1 X127.130 Y111.420 E42.72021 ; skirt
G1 X126.720 Y112.780 E42.86079 ; skirt
G1 X126.050 Y114.040 E43.00202 ; skirt
G1 X125.140 Y115.140 E43.14330 ; skirt
G1 X124.040 Y116.050 E43.28459 ; skirt
G1 X122.780 Y116.720 E43.42582 ; skirt
G1 X121.420 Y117.130 E43.56639 ; skirt
G1 X120.000 Y117.270 E43.70761 ; skirt
G1 X80.000 Y117.270 E47.66622 ; skirt
G1 X78.580 Y117.130 E47.80743 ; skirt
G1 X77.220 Y116.720 E47.94801 ; skirt
G1 X75.960 Y116.050 E48.08924 ; skirt
G1 X74.860 Y115.140 E48.23052 ; skirt
G1 X73.950 Y114.040 E48.37181 ; skirt
G1 X73.280 Y112.780 E48.51304 ; skirt
G1 X72.870 Y111.420 E48.65361 ; skirt
G1 X72.730 Y110.000 E48.79482 ; skirt
G1 X72.730 Y90.000 E50.77413 ; skirt
G1 X72.870 Y88.580 E50.91534 ; skirt
G1 X73.280 Y87.220 E51.05592 ; skirt
G1 X73.950 Y85.960 E51.19715 ; skirt
G1 X74.799 Y84.933 E51.32900 ; skirt
G1 X75.310 Y85.310 F7800.000 ; move to first skirt point
G1 X76.310 Y84.480 F540.000 E51.45761 ; skirt
G1 X77.460 Y83.870 E51.58644 ; skirt
G1 X78.710 Y83.490 E51.71574 ; skirt
G1 X80.000 Y83.360 E51.84405 ; skirt
G1 X120.000 Y83.360 E55.80266 ; skirt
G1 X121.290 Y83.490 E55.93097 ; skirt
G1 X122.540 Y83.870 E56.06027 ; skirt
G1 X123.690 Y84.480 E56.18910 ; skirt
G1 X124.690 Y85.310 E56.31771 ; skirt
G1 X125.520 Y86.310 E56.44633 ; skirt
G1 X126.130 Y87.460 E56.57516 ; skirt
G1 X126.510 Y88.710 E56.70445 ; skirt
G1 X126.640 Y90.000 E56.83276 ; skirt
G1 X126.640 Y110.000 E58.81207 ; skirt
G1 X126.510 Y111.290 E58.94038 ; skirt
G1 X126.130 Y112.540 E59.06968 ; skirt
G1 X125.520 Y113.690 E59.19851 ; skirt
G1 X124.690 Y114.690 E59.32712 ; skirt
G1 X123.690 Y115.520 E59.45574 ; skirt
G1 X122.540 Y116.130 E59.58456 ; skirt
G1 X121.290 Y116.510 E59.71386 ; skirt
G1 X120.000 Y116.640 E59.84217 ; skirt
G1 X80.000 Y116.640 E63.80079 ; skirt
G1 X78.710 Y116.510 E63.92910 ; skirt
G1 X77.460 Y116.130 E64.05839 ; skirt
G1 X76.310 Y115.520 E64.18722 ; skirt
G1 X75.310 Y114.690 E64.31584 ; skirt
G1 X74.480 Y113.690 E64.44445 ; skirt
G1 X73.870 Y112.540 E64.57328 ; skirt
G1 X73.490 Y111.290 E64.70258 ; skirt
G1 X73.360 Y110.000 E64.83089 ; skirt
G1 X73.360 Y90.000 E66.81020 ; skirt
G1 X73.490 Y88.710 E66.93851 ; skirt
G1 X73.870 Y87.460 E67.06780 ; skirt
G1 X74.480 Y86.310 E67.19663 ; skirt
G1 X75.249 Y85.383 E67.31581 ; skirt
G1 F1800.000 E66.31581 ; retract
G92 E0 ; reset extrusion distance
G1 X105.051 Y98.043 F7800.000 ; move to first perimeter point
G1 F1800.000 E1.00000 ; compensate retraction
G1 X105.190 Y97.720 F540.000 E1.03485 ; perimeter
G1 X105.505 Y97.148 E1.09944 ; perimeter
G1 X105.870 Y96.644 E1.16107 ; perimeter
G1 X106.128 Y96.347 E1.19998 ; perimeter
G1 X106.606 Y95.899 E1.26482 ; perimeter
G1 X107.099 Y95.538 E1.32530 ; perimeter
G1 X107.446 Y95.330 E1.36529 ; perimeter
G1 X108.039 Y95.051 E1.43021 ; perimeter
G1 X108.620 Y94.861 E1.49071 ; perimeter
G1 X109.014 Y94.769 E1.53069 ; perimeter
G1 X109.651 Y94.689 E1.59424 ; perimeter
G1 X110.000 Y94.678 E1.62882 ; perimeter
G1 X110.678 Y94.721 E1.69608 ; perimeter
G1 X111.324 Y94.844 E1.76112 ; perimeter
G1 X111.945 Y95.046 E1.82580 ; perimeter
G1 X112.279 Y95.190 E1.86174 ; perimeter
G1 X112.802 Y95.476 E1.92076 ; perimeter
G1 X113.137 Y95.700 E1.96061 ; perimeter
G1 X113.600 Y96.081 E2.01998 ; perimeter
G1 X113.877 Y96.354 E2.05849 ; perimeter
G1 X114.111 Y96.619 E2.09342 ; perimeter
G1 X114.495 Y97.148 E2.15810 ; perimeter
G1 X114.810 Y97.720 E2.22277 ; perimeter
G1 X114.954 Y98.055 E2.25883 ; perimeter
G1 X115.152 Y98.662 E2.32203 ; perimeter
G1 X115.231 Y99.017 E2.35808 ; perimeter
G1 X115.311 Y99.651 E2.42126 ; perimeter
G1 X115.311 Y100.349 E2.49037 ; perimeter
G1 X115.231 Y100.983 E2.55355 ; perimeter
G1 X115.152 Y101.338 E2.58961 ; perimeter
G1 X114.950 Y101.959 E2.65418 ; perimeter
G1 X114.691 Y102.512 E2.71468 ; perimeter
G1 X114.489 Y102.861 E2.75454 ; perimeter
G1 X114.137 Y103.347 E2.81391 ; perimeter
G1 X113.872 Y103.652 E2.85390 ; perimeter
G1 X113.394 Y104.101 E2.91886 ; perimeter
G1 X112.891 Y104.468 E2.98047 ; perimeter
G1 X112.554 Y104.670 E3.01939 ; perimeter
G1 X111.960 Y104.950 E3.08434 ; perimeter
G1 X111.338 Y105.152 E3.14902 ; perimeter
G1 X110.983 Y105.231 E3.18508 ; perimeter
G1 X110.349 Y105.311 E3.24825 ; perimeter
G1 X110.000 Y105.322 E3.28283 ; perimeter
G1 X109.651 Y105.311 E3.31740 ; perimeter
G1 X109.017 Y105.231 E3.38058 ; perimeter
G1 X108.662 Y105.152 E3.41664 ; perimeter
G1 X108.041 Y104.950 E3.48121 ; perimeter
G1 X107.488 Y104.691 E3.54169 ; perimeter
G1 X107.139 Y104.489 E3.58157 ; perimeter
G1 X106.653 Y104.137 E3.64095 ; perimeter
G1 X106.348 Y103.872 E3.68093 ; perimeter
G1 X105.899 Y103.394 E3.74586 ; perimeter
G1 X105.539 Y102.901 E3.80634 ; perimeter
G1 X105.330 Y102.554 E3.84632 ; perimeter
G1 X105.050 Y101.960 E3.91136 ; perimeter
G1 X104.848 Y101.338 E3.97605 ; perimeter
G1 X104.769 Y100.983 E4.01210 ; perimeter
G1 X104.689 Y100.349 E4.07528 ; perimeter
G1 X104.678 Y100.000 E4.10985 ; perimeter
G1 X104.689 Y99.651 E4.14443 ; perimeter
G1 X104.771 Y99.003 E4.20903 ; perimeter
G1 X104.924 Y98.400 E4.27064 ; perimeter
G1 X105.019 Y98.133 E4.29864 ; perimeter
G1 X105.643 Y98.276 F7800.000 ; move to first perimeter point
G1 X105.762 Y98.000 F540.000 E4.32836 ; perimeter
G1 X106.043 Y97.489 E4.38608 ; perimeter
G1 X106.368 Y97.040 E4.44097 ; perimeter
G1 X106.587 Y96.789 E4.47389 ; perimeter
G1 X107.012 Y96.389 E4.53170 ; perimeter
G1 X107.451 Y96.068 E4.58550 ; perimeter
G1 X107.746 Y95.891 E4.61948 ; perimeter
G1 X108.274 Y95.643 E4.67731 ; perimeter
G1 X108.791 Y95.473 E4.73113 ; perimeter
G1 X109.126 Y95.396 E4.76510 ; perimeter
G1 X109.701 Y95.323 E4.82248 ; perimeter
G1 X110.000 Y95.314 E4.85210 ; perimeter
G1 X110.591 Y95.351 E4.91072 ; perimeter
G1 X111.166 Y95.461 E4.96859 ; perimeter
G1 X111.721 Y95.641 E5.02634 ; perimeter
G1 X111.999 Y95.762 E5.05643 ; perimeter
G1 X112.472 Y96.020 E5.10976 ; perimeter
G1 X112.757 Y96.211 E5.14368 ; perimeter
G1 X113.174 Y96.554 E5.19712 ; perimeter
G1 X113.614 Y97.017 E5.26031 ; perimeter
G1 X113.957 Y97.489 E5.31806 ; perimeter
G1 X114.238 Y98.000 E5.37581 ; perimeter
G1 X114.359 Y98.279 E5.40594 ; perimeter
G1 X114.538 Y98.830 E5.46320 ; perimeter
G1 X114.604 Y99.127 E5.49332 ; perimeter
G1 X114.677 Y99.701 E5.55057 ; perimeter
G1 X114.677 Y100.299 E5.60980 ; perimeter
G1 X114.604 Y100.873 E5.66705 ; perimeter
G1 X114.538 Y101.170 E5.69718 ; perimeter
G1 X114.358 Y101.725 E5.75489 ; perimeter
G1 X114.127 Y102.218 E5.80871 ; perimeter
G1 X113.955 Y102.514 E5.84264 ; perimeter
G1 X113.639 Y102.952 E5.89608 ; perimeter
G1 X113.414 Y103.211 E5.93005 ; perimeter
G1 X112.988 Y103.611 E5.98790 ; perimeter
G1 X112.539 Y103.938 E6.04278 ; perimeter
G1 X112.254 Y104.109 E6.07570 ; perimeter
G1 X111.725 Y104.358 E6.13355 ; perimeter
G1 X111.170 Y104.538 E6.19130 ; perimeter
G1 X110.873 Y104.604 E6.22142 ; perimeter
G1 X110.299 Y104.677 E6.27867 ; perimeter
G1 X110.000 Y104.686 E6.30830 ; perimeter
G1 X109.701 Y104.677 E6.33794 ; perimeter
G1 X109.127 Y104.604 E6.39519 ; perimeter
G1 X108.830 Y104.538 E6.42531 ; perimeter
G1 X108.275 Y104.358 E6.48303 ; perimeter
G1 X107.783 Y104.127 E6.53683 ; perimeter
G1 X107.486 Y103.955 E6.57077 ; perimeter
G1 X107.048 Y103.639 E6.62423 ; perimeter
G1 X106.789 Y103.414 E6.65819 ; perimeter
G1 X106.389 Y102.988 E6.71603 ; perimeter
G1 X106.069 Y102.549 E6.76983 ; perimeter
G1 X105.891 Y102.254 E6.80381 ; perimeter
G1 X105.642 Y101.725 E6.86168 ; perimeter
G1 X105.462 Y101.170 E6.91943 ; perimeter
G1 X105.396 Y100.873 E6.94956 ; perimeter
G1 X105.323 Y100.299 E7.00681 ; perimeter
G1 X105.314 Y100.000 E7.03644 ; perimeter
G1 X105.323 Y99.701 E7.06607 ; perimeter
G1 X105.396 Y99.122 E7.12379 ; perimeter
G1 X105.533 Y98.585 E7.17867 ; perimeter
G1 X105.611 Y98.366 E7.20167 ; perimeter
G1 X105.940 Y98.234 F7800.000 ; move inwards before travel
G1 F1800.000 E6.20167 ; retract
G92 E0 ; reset extrusion distance
G1 X95.311 Y99.651 F7800.000 ; move to first perimeter point
G1 F1800.000 E1.00000 ; compensate retraction
G1 X95.311 Y100.349 F540.000 E1.06911 ; perimeter
G1 X95.231 Y100.983 E1.13229 ; perimeter
G1 X95.152 Y101.338 E1.16835 ; perimeter
G1 X94.950 Y101.959 E1.23295 ; perimeter
G1 X94.686 Y102.523 E1.29458 ; perimeter
G1 X94.488 Y102.862 E1.33340 ; perimeter
G1 X94.130 Y103.356 E1.39381 ; perimeter
G1 X93.872 Y103.653 E1.43273 ; perimeter
G1 X93.394 Y104.101 E1.49760 ; perimeter
G1 X92.891 Y104.468 E1.55921 ; perimeter
G1 X92.554 Y104.670 E1.59813 ; perimeter
G1 X91.960 Y104.950 E1.66308 ; perimeter
G1 X91.338 Y105.152 E1.72776 ; perimeter
G1 X90.983 Y105.231 E1.76382 ; perimeter
G1 X90.349 Y105.311 E1.82700 ; perimeter
G1 X89.651 Y105.311 E1.89611 ; perimeter
G1 X89.004 Y105.229 E1.96067 ; perimeter
G1 X88.411 Y105.079 E2.02115 ; perimeter
G1 X88.044 Y104.950 E2.05966 ; perimeter
G1 X87.720 Y104.810 E2.09460 ; perimeter
G1 X87.148 Y104.495 E2.15927 ; perimeter
G1 X86.619 Y104.111 E2.22395 ; perimeter
G1 X86.346 Y103.870 E2.25989 ; perimeter
G1 X85.937 Y103.437 E2.31888 ; perimeter
G1 X85.687 Y103.119 E2.35889 ; perimeter
G1 X85.335 Y102.565 E2.42389 ; perimeter
G1 X85.061 Y101.984 E2.48742 ; perimeter
G1 X84.934 Y101.632 E2.52455 ; perimeter
G1 X84.771 Y100.998 E2.58930 ; perimeter
G1 X84.690 Y100.361 E2.65282 ; perimeter
G1 X84.689 Y99.651 E2.72311 ; perimeter
G1 X84.771 Y99.002 E2.78778 ; perimeter
G1 X84.937 Y98.355 E2.85394 ; perimeter
G1 X85.178 Y97.747 E2.91862 ; perimeter
G1 X85.343 Y97.423 E2.95467 ; perimeter
G1 X85.693 Y96.872 E3.01923 ; perimeter
G1 X86.081 Y96.400 E3.07973 ; perimeter
G1 X86.365 Y96.112 E3.11971 ; perimeter
G1 X86.859 Y95.703 E3.18326 ; perimeter
G1 X87.160 Y95.499 E3.21921 ; perimeter
G1 X87.682 Y95.210 E3.27822 ; perimeter
G1 X88.037 Y95.053 E3.31671 ; perimeter
G1 X88.369 Y94.933 E3.35165 ; perimeter
G1 X89.002 Y94.771 E3.41632 ; perimeter
G1 X89.651 Y94.689 E3.48100 ; perimeter
G1 X90.000 Y94.678 E3.51557 ; perimeter
G1 X90.678 Y94.721 E3.58283 ; perimeter
G1 X91.324 Y94.844 E3.64788 ; perimeter
G1 X91.945 Y95.046 E3.71255 ; perimeter
G1 X92.279 Y95.190 E3.74849 ; perimeter
G1 X92.802 Y95.476 E3.80752 ; perimeter
G1 X93.137 Y95.700 E3.84737 ; perimeter
G1 X93.600 Y96.081 E3.90674 ; perimeter
G1 X93.877 Y96.354 E3.94524 ; perimeter
G1 X94.111 Y96.619 E3.98018 ; perimeter
G1 X94.495 Y97.148 E4.04485 ; perimeter
G1 X94.810 Y97.720 E4.10953 ; perimeter
G1 X94.954 Y98.055 E4.14558 ; perimeter
G1 X95.152 Y98.662 E4.20878 ; perimeter
G1 X95.231 Y99.017 E4.24483 ; perimeter
G1 X95.299 Y99.556 E4.29858 ; perimeter
G1 X94.677 Y99.701 F7800.000 ; move to first perimeter point
G1 X94.677 Y100.299 F540.000 E4.35781 ; perimeter
G1 X94.604 Y100.873 E4.41506 ; perimeter
G1 X94.538 Y101.170 E4.44519 ; perimeter
G1 X94.358 Y101.725 E4.50291 ; perimeter
G1 X94.122 Y102.227 E4.55780 ; perimeter
G1 X93.955 Y102.514 E4.59069 ; perimeter
G1 X93.632 Y102.960 E4.64517 ; perimeter
G1 X93.413 Y103.211 E4.67810 ; perimeter
G1 X92.988 Y103.611 E4.73591 ; perimeter
G1 X92.539 Y103.938 E4.79079 ; perimeter
G1 X92.254 Y104.109 E4.82372 ; perimeter
G1 X91.725 Y104.358 E4.88156 ; perimeter
G1 X91.170 Y104.538 E4.93931 ; perimeter
G1 X90.873 Y104.604 E4.96944 ; perimeter
G1 X90.299 Y104.677 E5.02669 ; perimeter
G1 X89.701 Y104.677 E5.08592 ; perimeter
G1 X89.122 Y104.604 E5.14363 ; perimeter
G1 X88.595 Y104.470 E5.19743 ; perimeter
G1 X88.000 Y104.238 E5.26063 ; perimeter
