; generated by Slic3r 0.9.10b on 2014-02-02 at 19:10:07

; layer_height = 0.4
; perimeters = 3
; top_solid_layers = 3
; bottom_solid_layers = 3
; fill_density = 0.4
; perimeter_speed = 30
; infill_speed = 60
; travel_speed = 130
; nozzle_diameter = 0.5
; filament_diameter = 1.75
; extrusion_multiplier = 1.1
; perimeters extrusion width = 0.53mm
; infill extrusion width = 0.53mm
; solid infill extrusion width = 0.53mm
; top infill extrusion width = 0.53mm
; first layer extrusion width = 0.70mm

G21 ; set units to millimeters
M107
M104 S190 ; set temperature
G28 ; home all axes
G1 Z5 F5000 ; lift nozzle
M109 S190 ; wait for temperature to be reached
G90 ; use absolute coordinates
G92 E0
M82 ; use absolute distances for extrusion
G1 F1800.000 E-1.00000
G92 E0
G1 Z0.550 F7800.000
G1 X80.290 Y81.790
G1 F1800.000 E1.00000
G1 X81.300 Y80.960 F540.000 E1.13749
G1 X82.450 Y80.350 E1.27441
G1 X83.700 Y79.970 E1.41182
G1 X85.000 Y79.840 E1.54923
G1 X115.000 Y79.840 E4.70448
G1 X116.300 Y79.970 E4.84189
G1 X117.550 Y80.350 E4.97930
G1 X118.700 Y80.960 E5.11621
G1 X119.710 Y81.790 E5.25370
G1 X120.540 Y82.800 E5.39120
G1 X121.150 Y83.950 E5.52811
G1 X121.530 Y85.200 E5.66552
G1 X121.660 Y86.500 E5.80293
G1 X121.660 Y93.500 E6.53916
G1 X121.620 Y94.220 E6.61500
G1 X121.500 Y94.930 E6.69073
G1 X117.440 Y113.370 E8.67661
G1 X117.300 Y113.910 E8.73529
G1 X116.980 Y114.830 E8.83773
G1 X116.630 Y115.570 E8.92383
G1 X116.090 Y116.460 E9.03332
G1 X115.960 Y116.640 E9.05667
G1 X115.400 Y117.310 E9.14851
G1 X114.670 Y118.020 E9.25561
G1 X113.850 Y118.650 E9.36437
G1 X113.480 Y118.890 E9.41076
G1 X112.920 Y119.210 E9.47859
G1 X112.330 Y119.480 E9.54683
G1 X112.130 Y119.560 E9.56949
G1 X111.190 Y119.860 E9.67327
G1 X110.410 Y120.030 E9.75723
G1 X109.800 Y120.110 E9.82193
G1 X108.990 Y120.160 E9.90729
G1 X90.750 Y120.140 E11.82568
G1 X90.160 Y120.110 E11.88782
G1 X89.360 Y119.990 E11.97290
G1 X88.580 Y119.800 E12.05733
G1 X87.660 Y119.480 E12.15978
G1 X86.920 Y119.130 E12.24588
G1 X86.030 Y118.590 E12.35536
G1 X85.850 Y118.460 E12.37872
G1 X85.180 Y117.900 E12.47056
G1 X84.590 Y117.310 E12.55831
G1 X83.940 Y116.500 E12.66754
G1 X83.810 Y116.310 E12.69176
G1 X83.320 Y115.470 E12.79404
G1 X82.880 Y114.500 E12.90606
G1 X82.630 Y113.690 E12.99522
G1 X78.500 Y94.930 E15.01555
G1 X78.380 Y94.220 E15.09128
G1 X78.340 Y93.500 E15.16713
G1 X78.340 Y86.500 E15.90335
G1 X78.470 Y85.200 E16.04076
G1 X78.850 Y83.950 E16.17817
G1 X79.460 Y82.800 E16.31509
G1 X80.227 Y81.866 E16.44221
G1 F1800.000 E15.44221
G92 E0
G1 X90.643 Y100.193 F7800.000
G1 F1800.000 E1.00000
G1 X91.157 Y100.154 F540.000 E1.05420
G1 X91.304 Y101.106 E1.15556
G1 X91.415 Y101.620 E1.21088
G1 X91.575 Y102.184 E1.27254
G1 X91.727 Y102.624 E1.32155
G1 X91.927 Y103.111 E1.37689
G1 X92.156 Y103.584 E1.43220
G1 X92.445 Y104.094 E1.49385
G1 X92.697 Y104.487 E1.54286
G1 X93.006 Y104.912 E1.59819
G1 X93.340 Y105.318 E1.65349
G1 X93.698 Y105.704 E1.70879
G1 X94.078 Y106.068 E1.76411
G1 X94.433 Y106.369 E1.81314
G1 X94.899 Y106.724 E1.87477
G1 X95.338 Y107.015 E1.93011
G1 X95.793 Y107.279 E1.98542
G1 X96.263 Y107.515 E2.04075
G1 X96.746 Y107.723 E2.09608
G1 X97.357 Y107.944 E2.16446
G1 X97.357 Y111.857 E2.57601
G1 X91.046 Y111.857 E3.23979
G1 X90.846 Y111.820 E3.26120
G1 X90.749 Y111.751 E3.27369
G1 X90.700 Y111.689 E3.28205
G1 X90.654 Y111.579 E3.29455
G1 X90.643 Y111.454 E3.30775
G1 X90.643 Y100.292 E4.48176
G1 F1800.000 E3.48176
G92 E0
G1 X102.643 Y107.944 F7800.000
G1 F1800.000 E1.00000
G1 X103.226 Y107.733 F540.000 E1.06519
G1 X103.709 Y107.527 E1.12051
G1 X104.233 Y107.264 E1.18216
G1 X104.687 Y106.998 E1.23749
G1 X105.125 Y106.706 E1.29281
G1 X105.544 Y106.389 E1.34813
G1 X105.899 Y106.087 E1.39714
G1 X106.323 Y105.682 E1.45877
G1 X106.679 Y105.295 E1.51410
G1 X106.975 Y104.935 E1.56309
G1 X107.286 Y104.511 E1.61841
G1 X107.571 Y104.069 E1.67375
G1 X107.829 Y103.611 E1.72907
G1 X108.084 Y103.083 E1.79071
G1 X108.262 Y102.652 E1.83973
G1 X108.435 Y102.155 E1.89505
G1 X108.578 Y101.649 E1.95038
G1 X108.701 Y101.076 E2.01202
G1 X108.843 Y100.154 E2.11016
G1 X109.357 Y100.193 E2.16436
G1 X109.357 Y111.454 E3.34869
G1 X109.335 Y111.617 E3.36602
G1 X109.277 Y111.721 E3.37852
G1 X109.154 Y111.820 E3.39512
G1 X108.954 Y111.857 E3.41653
G1 X102.643 Y111.857 E4.08031
G1 X102.643 Y108.043 E4.48149
G1 F1800.000 E3.48149
G92 E0
G1 X108.866 Y98.836 F7800.000
G1 F1800.000 E1.00000
G1 X108.609 Y97.480 F540.000 E1.14512
G1 X108.474 Y96.972 E1.20045
G1 X108.287 Y96.416 E1.26211
G1 X108.114 Y95.984 E1.31111
G1 X107.890 Y95.508 E1.36641
G1 X107.608 Y94.994 E1.42809
G1 X107.360 Y94.599 E1.47707
G1 X107.056 Y94.170 E1.53239
G1 X106.687 Y93.715 E1.59404
G1 X106.373 Y93.370 E1.64305
G1 X105.998 Y93.002 E1.69837
G1 X105.554 Y92.619 E1.76001
G1 X105.184 Y92.336 E1.80901
G1 X104.749 Y92.040 E1.86434
G1 X104.244 Y91.743 E1.92598
G1 X103.830 Y91.529 E1.97498
G1 X103.349 Y91.316 E2.03032
G1 X102.799 Y91.112 E2.09196
G1 X102.354 Y90.976 E2.14096
G1 X101.843 Y90.851 E2.19628
G1 X101.325 Y90.757 E2.25162
G1 X100.803 Y90.693 E2.30694
G1 X100.218 Y90.660 E2.36860
G1 X99.752 Y90.660 E2.41758
G1 X99.227 Y90.691 E2.47291
G1 X98.704 Y90.752 E2.52825
G1 X98.128 Y90.858 E2.58989
G1 X97.675 Y90.968 E2.63889
G1 X97.172 Y91.121 E2.69422
G1 X96.623 Y91.328 E2.75586
G1 X96.197 Y91.516 E2.80487
G1 X95.729 Y91.757 E2.86019
G1 X95.276 Y92.024 E2.91552
G1 X94.840 Y92.318 E2.97084
G1 X94.376 Y92.677 E3.03249
G1 X94.024 Y92.981 E3.08148
G1 X93.647 Y93.348 E3.13682
G1 X93.293 Y93.737 E3.19214
G1 X92.926 Y94.195 E3.25379
G1 X92.656 Y94.574 E3.30279
G1 X92.376 Y95.019 E3.35812
G1 X92.123 Y95.481 E3.41345
G1 X91.898 Y95.956 E3.46877
G1 X91.702 Y96.444 E3.52410
G1 X91.534 Y96.943 E3.57943
G1 X91.397 Y97.451 E3.63476
G1 X91.113 Y98.827 E3.78255
G1 X90.643 Y98.779 E3.83229
G1 X90.643 Y91.857 E4.56028
G1 X86.643 Y91.857 E4.98098
G1 X86.643 Y88.143 E5.37166
G1 X113.357 Y88.143 E8.18137
G1 X113.357 Y91.857 E8.57205
G1 X109.357 Y91.857 E8.99275
G1 X109.357 Y98.791 E9.72205
G1 X108.965 Y98.827 E9.76352
G1 F1800.000 E8.76352
G92 E0
G1 X114.014 Y87.486 F7800.000
G1 F1800.000 E1.00000
G1 X114.014 Y92.514 F540.000 E1.52890
G1 X110.014 Y92.514 E1.94960
G1 X110.014 Y111.472 E3.94350
G1 X110.006 Y111.613 E3.95837
G1 X109.956 Y111.835 E3.98222
G1 X109.858 Y112.039 E4.00607
G1 X109.716 Y112.216 E4.02992
G1 X109.539 Y112.358 E4.05378
G1 X109.335 Y112.456 E4.07763
G1 X109.113 Y112.506 E4.10149
G1 X108.972 Y112.514 E4.11635
G1 X101.986 Y112.514 E4.85118
G1 X101.986 Y107.446 E5.38427
G1 X102.574 Y107.270 E5.44883
G1 X103.031 Y107.104 E5.50004
G1 X103.441 Y106.927 E5.54697
G1 X103.912 Y106.690 E5.60244
G1 X104.333 Y106.445 E5.65365
G1 X104.705 Y106.198 E5.70058
G1 X105.126 Y105.881 E5.75605
G1 X105.497 Y105.565 E5.80726
G1 X105.819 Y105.257 E5.85418
G1 X106.178 Y104.870 E5.90966
G1 X106.461 Y104.526 E5.95658
G1 X106.749 Y104.133 E6.00778
G1 X107.033 Y103.688 E6.06326
G1 X107.251 Y103.299 E6.11020
G1 X107.464 Y102.861 E6.16139
G1 X107.665 Y102.373 E6.21687
G1 X107.810 Y101.951 E6.26381
G1 X107.942 Y101.483 E6.31502
G1 X108.053 Y100.967 E6.37048
G1 X108.121 Y100.526 E6.41741
G1 X108.168 Y100.042 E6.46861
G1 X108.185 Y99.515 E6.52409
G1 X108.174 Y99.068 E6.57102
G1 X108.134 Y98.583 E6.62222
G1 X108.058 Y98.061 E6.67770
G1 X107.968 Y97.624 E6.72462
G1 X107.842 Y97.154 E6.77583
G1 X107.675 Y96.654 E6.83131
G1 X107.508 Y96.240 E6.87824
G1 X107.301 Y95.799 E6.92943
G1 X107.048 Y95.337 E6.98492
G1 X106.811 Y94.959 E7.03184
G1 X106.529 Y94.562 E7.08304
G1 X106.223 Y94.183 E7.13425
G1 X105.896 Y93.822 E7.18545
G1 X105.518 Y93.454 E7.24092
G1 X105.181 Y93.162 E7.28785
G1 X104.795 Y92.866 E7.33906
G1 X104.392 Y92.592 E7.39026
G1 X103.974 Y92.343 E7.44146
G1 X103.504 Y92.103 E7.49693
G1 X103.096 Y91.922 E7.54387
G1 X102.640 Y91.752 E7.59507
G1 X102.135 Y91.598 E7.65055
G1 X101.702 Y91.493 E7.69747
G1 X101.223 Y91.406 E7.74869
G1 X100.699 Y91.345 E7.80415
G1 X100.253 Y91.318 E7.85109
G1 X99.767 Y91.317 E7.90228
G1 X99.240 Y91.350 E7.95776
G1 X98.797 Y91.403 E8.00470
G1 X98.318 Y91.489 E8.05590
G1 X97.806 Y91.614 E8.11137
G1 X97.379 Y91.745 E8.15831
G1 X96.923 Y91.915 E8.20951
G1 X96.441 Y92.129 E8.26498
G1 X96.044 Y92.333 E8.31191
G1 X95.625 Y92.581 E8.36312
G1 X95.222 Y92.854 E8.41432
G1 X94.835 Y93.149 E8.46553
G1 X94.437 Y93.496 E8.52099
G1 X94.118 Y93.807 E8.56793
G1 X93.790 Y94.167 E8.61913
G1 X93.484 Y94.546 E8.67034
G1 X93.201 Y94.942 E8.72154
G1 X92.922 Y95.390 E8.77701
G1 X92.708 Y95.781 E8.82395
G1 X92.499 Y96.221 E8.87515
G1 X92.305 Y96.711 E8.93062
G1 X92.163 Y97.135 E8.97756
G1 X92.036 Y97.605 E9.02876
G1 X91.932 Y98.122 E9.08423
G1 X91.868 Y98.563 E9.13116
G1 X91.826 Y99.048 E9.18237
G1 X91.815 Y99.576 E9.23784
G1 X91.831 Y100.021 E9.28477
G1 X91.876 Y100.506 E9.33598
G1 X91.959 Y101.027 E9.39145
G1 X92.053 Y101.463 E9.43838
G1 X92.184 Y101.932 E9.48959
G1 X92.358 Y102.430 E9.54506
G1 X92.528 Y102.843 E9.59200
G1 X92.740 Y103.281 E9.64320
G1 X92.999 Y103.740 E9.69867
G1 X93.240 Y104.116 E9.74561
G1 X93.526 Y104.510 E9.79682
G1 X93.835 Y104.886 E9.84800
G1 X94.139 Y105.213 E9.89492
G1 X94.518 Y105.579 E9.95039
G1 X94.889 Y105.894 E10.00160
G1 X95.246 Y106.163 E10.04853
G1 X95.684 Y106.456 E10.10401
G1 X96.105 Y106.700 E10.15520
G1 X96.504 Y106.901 E10.20214
G1 X96.987 Y107.111 E10.25761
G1 X97.445 Y107.277 E10.30882
G1 X98.014 Y107.446 E10.37127
G1 X98.014 Y112.514 E10.90436
G1 X91.028 Y112.514 E11.63919
G1 X90.887 Y112.506 E11.65405
G1 X90.665 Y112.456 E11.67790
G1 X90.461 Y112.358 E11.70176
G1 X90.284 Y112.216 E11.72561
G1 X90.142 Y112.039 E11.74947
G1 X90.044 Y111.835 E11.77332
G1 X89.994 Y111.613 E11.79717
G1 X89.986 Y111.472 E11.81203
G1 X89.986 Y92.514 E13.80594
G1 X85.986 Y92.514 E14.22664
G1 X85.986 Y87.486 E14.75554
G1 X113.916 Y87.486 E17.69310
G1 X114.671 Y86.829 F7800.000
G1 X114.671 Y93.171 F378.000 E18.36022
G1 X110.671 Y93.171 E18.78092
G1 X110.671 Y111.491 E20.70765
G1 X110.660 Y111.687 E20.72833
G1 X110.577 Y112.052 E20.76769
G1 X110.415 Y112.389 E20.80704
G1 X110.182 Y112.682 E20.84639
G1 X109.889 Y112.915 E20.88575
G1 X109.552 Y113.077 E20.92510
G1 X109.187 Y113.160 E20.96445
G1 X108.991 Y113.171 E20.98513
G1 X101.329 Y113.171 E21.79101
G1 X101.329 Y106.908 E22.44982
G1 X101.931 Y106.777 E22.51471
G1 X102.361 Y106.649 E22.56179
G1 X102.762 Y106.504 E22.60666
G1 X103.192 Y106.318 E22.65595
G1 X103.592 Y106.116 E22.70304
G1 X103.961 Y105.902 E22.74790
G1 X104.351 Y105.644 E22.79720
G1 X104.709 Y105.374 E22.84428
G1 X105.034 Y105.098 E22.88914
G1 X105.373 Y104.774 E22.93844
G1 X105.677 Y104.445 E22.98552
G1 X105.947 Y104.116 E23.03038
G1 X106.223 Y103.737 E23.07968
G1 X106.453 Y103.377 E23.12455
G1 X106.672 Y102.987 E23.17163
G1 X106.876 Y102.565 E23.22092
G1 X107.039 Y102.171 E23.26579
G1 X107.185 Y101.748 E23.31287
G1 X107.311 Y101.296 E23.36217
G1 X107.401 Y100.879 E23.40703
G1 X107.470 Y100.437 E23.45411
G1 X107.512 Y99.991 E23.50119
G1 X107.528 Y99.544 E23.54828
G1 X107.516 Y99.075 E23.59757
G1 X107.480 Y98.650 E23.64244
G1 X107.417 Y98.207 E23.68952
G1 X107.327 Y97.769 E23.73660
G1 X107.211 Y97.336 E23.78368
G1 X107.062 Y96.892 E23.83298
G1 X106.903 Y96.496 E23.87785
G1 X106.712 Y96.091 E23.92492
G1 X106.487 Y95.680 E23.97422
G1 X106.261 Y95.319 E24.01909
G1 X106.001 Y94.954 E24.06617
G1 X105.706 Y94.589 E24.11546
G1 X105.419 Y94.274 E24.16033
G1 X105.099 Y93.961 E24.20741
G1 X104.744 Y93.655 E24.25670
G1 X104.406 Y93.395 E24.30157
G1 X104.035 Y93.144 E24.34865
G1 X103.650 Y92.916 E24.39573
G1 X103.252 Y92.710 E24.44281
G1 X102.823 Y92.521 E24.49211
G1 X102.424 Y92.372 E24.53698
G1 X101.996 Y92.241 E24.58406
G1 X101.561 Y92.135 E24.63114
G1 X101.120 Y92.055 E24.67822
G1 X100.655 Y92.000 E24.72752
G1 X100.229 Y91.975 E24.77239
G1 X99.781 Y91.975 E24.81946
G1 X99.314 Y92.003 E24.86876
G1 X98.890 Y92.054 E24.91363
G1 X98.449 Y92.133 E24.96071
G1 X97.994 Y92.244 E25.01001
G1 X97.586 Y92.369 E25.05487
G1 X97.167 Y92.525 E25.10195
G1 X96.738 Y92.715 E25.15125
G1 X96.359 Y92.910 E25.19611
G1 X95.974 Y93.138 E25.24320
G1 X95.603 Y93.389 E25.29028
G1 X95.247 Y93.661 E25.33736
G1 X94.894 Y93.968 E25.38665
G1 X94.588 Y94.266 E25.43152
G1 X94.287 Y94.597 E25.47860
G1 X94.005 Y94.945 E25.52568
G1 X93.745 Y95.310 E25.57277
G1 X93.497 Y95.707 E25.62206
G1 X93.292 Y96.082 E25.66693
G1 X93.101 Y96.486 E25.71401
G1 X92.927 Y96.922 E25.76330
G1 X92.792 Y97.326 E25.80817
G1 X92.676 Y97.758 E25.85525
G1 X92.582 Y98.218 E25.90455
G1 X92.521 Y98.640 E25.94941
G1 X92.483 Y99.086 E25.99650
G1 X92.472 Y99.554 E26.04579
G1 X92.487 Y99.981 E26.09066
G1 X92.529 Y100.426 E26.13774
G1 X92.601 Y100.889 E26.18703
G1 X92.691 Y101.306 E26.23190
G1 X92.812 Y101.738 E26.27898
G1 X92.965 Y102.180 E26.32828
G1 X93.128 Y102.575 E26.37315
G1 X93.323 Y102.978 E26.42023
G1 X93.553 Y103.386 E26.46952
G1 X93.783 Y103.746 E26.51439
G1 X94.046 Y104.108 E26.56148
G1 X94.330 Y104.453 E26.60855
G1 X94.620 Y104.766 E26.65341
G1 X94.958 Y105.091 E26.70270
G1 X95.299 Y105.381 E26.74979
G1 X95.640 Y105.637 E26.79465
G1 X96.030 Y105.897 E26.84395
G1 X96.417 Y106.122 E26.89103
G1 X96.798 Y106.313 E26.93589
G1 X97.228 Y106.500 E26.98519
G1 X97.649 Y106.652 E27.03227
G1 X98.079 Y106.779 E27.07935
G1 X98.671 Y106.907 E27.14314
G1 X98.671 Y113.171 E27.80196
G1 X91.009 Y113.171 E28.60784
G1 X90.813 Y113.160 E28.62852
G1 X90.448 Y113.077 E28.66787
G1 X90.111 Y112.915 E28.70722
G1 X89.818 Y112.682 E28.74658
G1 X89.585 Y112.389 E28.78593
G1 X89.423 Y112.052 E28.82529
G1 X89.340 Y111.687 E28.86464
G1 X89.329 Y111.491 E28.88532
G1 X89.329 Y93.171 E30.81205
G1 X85.329 Y93.171 E31.23275
G1 X85.329 Y86.829 E31.89987
G1 X114.573 Y86.829 E34.97565
G1 X114.343 Y87.398 F7800.000
G1 F1800.000 E33.97565
G92 E0
G1 X108.621 Y103.313 F7800.000
G1 F1800.000 E1.00000
G1 X108.881 Y103.573 F1080.000 E1.03908
G1 X108.881 Y104.510 E1.13852
G1 X108.255 Y103.884 E1.23249
G1 X107.889 Y104.456 E1.30448
G1 X108.881 Y105.448 E1.45334
G1 X108.881 Y106.385 E1.55278
G1 X107.508 Y105.012 E1.75880
G1 X107.095 Y105.537 E1.82962
G1 X108.881 Y107.322 E2.09755
G1 X108.881 Y108.260 E2.19699
G1 X106.649 Y106.028 E2.53180
G1 X106.166 Y106.482 E2.60214
G1 X108.881 Y109.197 E3.00942
G1 X108.881 Y110.134 E3.10886
G1 X105.652 Y106.906 E3.59329
G1 X105.103 Y107.293 E3.66464
G1 X108.881 Y111.072 E4.23151
G1 X108.253 Y111.381 E4.30577
G1 X104.520 Y107.648 E4.86589
G1 X103.899 Y107.964 E4.93983
G1 X107.316 Y111.381 E5.45251
G1 X106.378 Y111.381 E5.55195
G1 X103.235 Y108.237 E6.02361
G1 X103.119 Y109.059 E6.11163
G1 X105.441 Y111.381 E6.46003
G1 X104.504 Y111.381 E6.55947
G1 X103.119 Y109.996 E6.76724
G1 X103.119 Y110.934 E6.86668
G1 X103.566 Y111.381 E6.93381
G1 F1800.000 E5.93381
G92 E0
G1 X108.663 Y103.408 F7800.000
G1 F1800.000 E1.00000
G1 X108.517 Y103.263 F360.000 E1.01080
G1 X108.652 Y102.935 E1.02938
G1 X108.889 Y103.171 E1.04692
G1 X108.889 Y102.708 E1.07119
G1 X108.778 Y102.597 E1.07941
G1 F1800.000 E0.07941
G92 E0
G1 X108.889 Y96.686 F7800.000
G1 F1800.000 E1.00000
G1 X108.866 Y96.662 F360.000 E1.00171
G1 X108.889 Y96.222 E1.02480
G1 X108.597 Y95.931 E1.04641
G1 X108.889 Y95.759 E1.06413
G1 X108.712 Y95.582 E1.07722
G1 X108.881 Y95.137 F7800.000
G1 X102.363 Y88.619 F1080.000 E2.04672
G1 X101.426 Y88.619 F7800.000
G1 X103.803 Y90.996 F1080.000 E2.40034
G1 X102.356 Y90.486 F7800.000
G1 X100.488 Y88.619 F1080.000 E2.67809
G1 X99.551 Y88.619 F7800.000
G1 X101.192 Y90.260 F1080.000 E2.92223
G1 X100.180 Y90.185 F7800.000
G1 X98.614 Y88.619 F1080.000 E3.15516
G1 X97.676 Y88.619 F7800.000
G1 X99.269 Y90.211 F1080.000 E3.39201
G1 X98.436 Y90.316 F7800.000
G1 X96.739 Y88.619 F1080.000 E3.64442
G1 X95.802 Y88.619 F7800.000
G1 X97.664 Y90.481 F1080.000 E3.92137
G1 X96.943 Y90.698 F7800.000
G1 X94.864 Y88.619 F1080.000 E4.23063
G1 X93.927 Y88.619 F7800.000
G1 X96.271 Y90.963 F1080.000 E4.57933
G1 X95.638 Y91.268 F7800.000
G1 X92.990 Y88.619 F1080.000 E4.97331
G1 X92.052 Y88.619 F7800.000
G1 X95.045 Y91.611 F1080.000 E5.41840
G1 X94.486 Y91.990 F7800.000
G1 X91.115 Y88.619 F1080.000 E5.91977
G1 X90.178 Y88.619 F7800.000
G1 X93.963 Y92.405 F1080.000 E6.48287
G1 X93.474 Y92.852 F7800.000
G1 X89.240 Y88.619 F1080.000 E7.11256
