; generated by Slic3r 0.9.10b on 2014-03-28 at 16:33:02

; layer_height = 0.4
; perimeters = 2
; top_solid_layers = 3
; bottom_solid_layers = 3
; fill_density = 0.2
; perimeter_speed = 30
; infill_speed = 60
; travel_speed = 130
; nozzle_diameter = 0.4
; filament_diameter = 1.75
; extrusion_multiplier = 1.1
; perimeters extrusion width = 0.42mm
; infill extrusion width = 0.42mm
; solid infill extrusion width = 0.42mm
; top infill extrusion width = 0.42mm
; first layer extrusion width = 0.70mm

G21 ; set units to millimeters
M107 ; disable fan
M190 S60 ; wait for bed temperature to be reached
M104 S170 ; set temperature
G28 ; home all axes
G1 Z5 F5000 ; lift nozzle
M109 S170 ; wait for temperature to be reached
G90 ; use absolute coordinates
G92 E0 ; reset extrusion distance
M82 ; use absolute distances for extrusion
G1 F1800.000 E-1.00000 ; retract
G92 E0 ; reset extrusion distance
G1 Z-0.350 F7800.000 ; move to next layer (0)
G1 X81.334 Y81.813 ; move to first skirt point
G1 F1800.000 E1.00000 ; compensate retraction
G1 X83.254 Y80.033 F540.000 E1.26637 ; skirt
G1 X84.254 Y79.233 E1.39666 ; skirt
G1 X86.424 Y77.753 E1.66390 ; skirt
G1 X87.544 Y77.113 E1.79514 ; skirt
G1 X89.904 Y75.983 E2.06135 ; skirt
G1 X91.024 Y75.533 E2.18415 ; skirt
G1 X93.594 Y74.743 E2.45770 ; skirt
G1 X94.824 Y74.463 E2.58604 ; skirt
G1 X97.414 Y74.073 E2.85252 ; skirt
G1 X98.684 Y73.983 E2.98205 ; skirt
G1 X101.304 Y73.983 E3.24861 ; skirt
G1 X102.574 Y74.073 E3.37815 ; skirt
G1 X105.164 Y74.463 E3.64462 ; skirt
G1 X106.404 Y74.753 E3.77418 ; skirt
G1 X108.904 Y75.523 E4.04033 ; skirt
G1 X110.084 Y75.983 E4.16918 ; skirt
G1 X112.444 Y77.113 E4.43539 ; skirt
G1 X113.564 Y77.753 E4.56663 ; skirt
G1 X115.734 Y79.233 E4.83387 ; skirt
G1 X116.734 Y80.033 E4.96416 ; skirt
G1 X118.654 Y81.813 E5.23053 ; skirt
G1 X119.534 Y82.753 E5.36153 ; skirt
G1 X121.164 Y84.803 E5.62800 ; skirt
G1 X121.874 Y85.853 E5.75695 ; skirt
G1 X123.184 Y88.123 E6.02360 ; skirt
G1 X123.734 Y89.263 E6.15238 ; skirt
G1 X124.694 Y91.703 E6.41915 ; skirt
G1 X125.074 Y92.943 E6.55109 ; skirt
G1 X125.654 Y95.493 E6.81716 ; skirt
G1 X125.844 Y96.733 E6.94479 ; skirt
G1 X126.044 Y99.343 E7.21111 ; skirt
G1 X126.044 Y100.643 E7.34337 ; skirt
G1 X125.844 Y103.253 E7.60969 ; skirt
G1 X125.654 Y104.493 E7.73732 ; skirt
G1 X125.074 Y107.053 E8.00438 ; skirt
G1 X124.694 Y108.283 E8.13535 ; skirt
G1 X124.474 Y108.853 E8.19751 ; skirt
G1 X123.734 Y110.733 E8.40307 ; skirt
G1 X123.174 Y111.883 E8.53320 ; skirt
G1 X121.864 Y114.143 E8.79897 ; skirt
G1 X121.164 Y115.183 E8.92652 ; skirt
G1 X119.534 Y117.233 E9.19298 ; skirt
G1 X118.654 Y118.173 E9.32398 ; skirt
G1 X116.734 Y119.953 E9.59035 ; skirt
G1 X115.734 Y120.753 E9.72065 ; skirt
G1 X113.564 Y122.233 E9.98788 ; skirt
G1 X112.474 Y122.863 E10.11597 ; skirt
G1 X110.114 Y124.003 E10.38262 ; skirt
G1 X108.904 Y124.473 E10.51469 ; skirt
G1 X106.404 Y125.243 E10.78083 ; skirt
G1 X105.164 Y125.533 E10.91039 ; skirt
G1 X102.574 Y125.923 E11.17687 ; skirt
G1 X101.304 Y126.013 E11.30640 ; skirt
G1 X98.684 Y126.013 E11.57296 ; skirt
G1 X97.414 Y125.923 E11.70249 ; skirt
G1 X94.824 Y125.533 E11.96897 ; skirt
G1 X93.524 Y125.233 E12.10471 ; skirt
G1 X91.094 Y124.483 E12.36345 ; skirt
G1 X89.874 Y124.003 E12.49683 ; skirt
G1 X87.514 Y122.863 E12.76348 ; skirt
G1 X86.424 Y122.233 E12.89157 ; skirt
G1 X84.254 Y120.753 E13.15881 ; skirt
G1 X83.254 Y119.953 E13.28910 ; skirt
G1 X81.334 Y118.173 E13.55547 ; skirt
G1 X80.454 Y117.233 E13.68647 ; skirt
G1 X78.824 Y115.183 E13.95293 ; skirt
G1 X78.124 Y114.143 E14.08048 ; skirt
G1 X76.814 Y111.883 E14.34625 ; skirt
G1 X76.254 Y110.723 E14.47730 ; skirt
G1 X75.294 Y108.293 E14.74312 ; skirt
G1 X74.914 Y107.053 E14.87507 ; skirt
G1 X74.334 Y104.493 E15.14212 ; skirt
G1 X74.144 Y103.223 E15.27277 ; skirt
G1 X73.954 Y100.613 E15.53902 ; skirt
G1 X73.954 Y99.373 E15.66517 ; skirt
G1 X74.144 Y96.763 E15.93142 ; skirt
G1 X74.334 Y95.493 E16.06207 ; skirt
G1 X74.914 Y92.943 E16.32813 ; skirt
G1 X75.294 Y91.703 E16.46008 ; skirt
G1 X76.254 Y89.263 E16.72685 ; skirt
G1 X76.804 Y88.123 E16.85562 ; skirt
G1 X78.114 Y85.853 E17.12227 ; skirt
G1 X78.874 Y84.753 E17.25830 ; skirt
G1 X80.444 Y82.773 E17.51539 ; skirt
G1 X81.269 Y81.883 E17.63887 ; skirt
G1 X81.764 Y82.273 F7800.000 ; move to first skirt point
G1 X83.684 Y80.493 F540.000 E17.90525 ; skirt
G1 X84.604 Y79.763 E18.02473 ; skirt
G1 X86.774 Y78.283 E18.29197 ; skirt
G1 X87.824 Y77.683 E18.41501 ; skirt
G1 X90.184 Y76.553 E18.68122 ; skirt
G1 X91.214 Y76.143 E18.79401 ; skirt
G1 X91.784 Y75.963 E18.85482 ; skirt
G1 X93.784 Y75.353 E19.06756 ; skirt
G1 X94.914 Y75.093 E19.18553 ; skirt
G1 X97.504 Y74.703 E19.45200 ; skirt
G1 X98.684 Y74.613 E19.57241 ; skirt
G1 X101.304 Y74.613 E19.83896 ; skirt
G1 X102.484 Y74.703 E19.95937 ; skirt
G1 X105.074 Y75.093 E20.22584 ; skirt
G1 X106.224 Y75.353 E20.34580 ; skirt
G1 X108.724 Y76.123 E20.61194 ; skirt
G1 X109.804 Y76.553 E20.73021 ; skirt
G1 X112.164 Y77.683 E20.99642 ; skirt
G1 X113.214 Y78.283 E21.11946 ; skirt
G1 X115.384 Y79.763 E21.38669 ; skirt
G1 X116.304 Y80.493 E21.50618 ; skirt
G1 X118.224 Y82.273 E21.77255 ; skirt
G1 X119.034 Y83.153 E21.89424 ; skirt
G1 X120.664 Y85.203 E22.16070 ; skirt
G1 X121.324 Y86.173 E22.28006 ; skirt
G1 X122.634 Y88.443 E22.54671 ; skirt
G1 X123.144 Y89.503 E22.66639 ; skirt
G1 X124.104 Y91.943 E22.93316 ; skirt
G1 X124.454 Y93.083 E23.05449 ; skirt
G1 X125.034 Y95.633 E23.32055 ; skirt
G1 X125.204 Y96.783 E23.43882 ; skirt
G1 X125.404 Y99.393 E23.70514 ; skirt
G1 X125.404 Y100.593 E23.82723 ; skirt
G1 X125.204 Y103.203 E24.09355 ; skirt
G1 X125.034 Y104.353 E24.21182 ; skirt
G1 X124.454 Y106.913 E24.47888 ; skirt
G1 X124.104 Y108.053 E24.60020 ; skirt
G1 X123.884 Y108.623 E24.66237 ; skirt
G1 X123.144 Y110.503 E24.86792 ; skirt
G1 X122.624 Y111.573 E24.98896 ; skirt
G1 X121.314 Y113.833 E25.25472 ; skirt
G1 X120.664 Y114.783 E25.37184 ; skirt
G1 X119.034 Y116.833 E25.63830 ; skirt
G1 X118.224 Y117.713 E25.75998 ; skirt
G1 X116.304 Y119.493 E26.02636 ; skirt
G1 X115.384 Y120.223 E26.14584 ; skirt
G1 X113.214 Y121.703 E26.41308 ; skirt
G1 X112.194 Y122.293 E26.53296 ; skirt
G1 X109.834 Y123.433 E26.79962 ; skirt
G1 X108.724 Y123.873 E26.92110 ; skirt
G1 X106.224 Y124.643 E27.18724 ; skirt
G1 X105.074 Y124.903 E27.30719 ; skirt
G1 X102.484 Y125.293 E27.57367 ; skirt
G1 X101.304 Y125.383 E27.69407 ; skirt
G1 X98.684 Y125.383 E27.96063 ; skirt
G1 X97.504 Y125.293 E28.08103 ; skirt
G1 X94.914 Y124.903 E28.34751 ; skirt
G1 X93.714 Y124.623 E28.47288 ; skirt
G1 X91.284 Y123.873 E28.73161 ; skirt
G1 X90.154 Y123.433 E28.85499 ; skirt
G1 X87.794 Y122.293 E29.12164 ; skirt
G1 X86.774 Y121.703 E29.24152 ; skirt
G1 X84.604 Y120.223 E29.50876 ; skirt
G1 X83.684 Y119.493 E29.62825 ; skirt
G1 X81.764 Y117.713 E29.89462 ; skirt
G1 X80.954 Y116.833 E30.01630 ; skirt
G1 X79.324 Y114.783 E30.28277 ; skirt
G1 X78.674 Y113.833 E30.39988 ; skirt
G1 X77.364 Y111.573 E30.66564 ; skirt
G1 X76.844 Y110.493 E30.78760 ; skirt
G1 X75.884 Y108.063 E31.05342 ; skirt
G1 X75.534 Y106.913 E31.17572 ; skirt
G1 X74.954 Y104.353 E31.44277 ; skirt
G1 X74.774 Y103.173 E31.56422 ; skirt
G1 X74.584 Y100.563 E31.83046 ; skirt
G1 X74.584 Y99.423 E31.94644 ; skirt
G1 X74.774 Y96.813 E32.21269 ; skirt
G1 X74.954 Y95.633 E32.33413 ; skirt
G1 X75.534 Y93.083 E32.60019 ; skirt
G1 X75.884 Y91.943 E32.72152 ; skirt
G1 X76.844 Y89.503 E32.98829 ; skirt
G1 X77.354 Y88.443 E33.10797 ; skirt
G1 X78.664 Y86.173 E33.37461 ; skirt
G1 X79.364 Y85.153 E33.50048 ; skirt
G1 X80.944 Y83.163 E33.75899 ; skirt
G1 X81.699 Y82.343 E33.87242 ; skirt
G1 X82.204 Y82.743 F7800.000 ; move to first skirt point
G1 X84.124 Y80.963 F540.000 E34.13879 ; skirt
G1 X84.964 Y80.283 E34.24874 ; skirt
G1 X87.134 Y78.803 E34.51598 ; skirt
G1 X88.094 Y78.253 E34.62854 ; skirt
G1 X90.454 Y77.123 E34.89475 ; skirt
G1 X91.404 Y76.753 E34.99848 ; skirt
G1 X92.034 Y76.553 E35.06573 ; skirt
G1 X93.964 Y75.963 E35.27106 ; skirt
G1 X95.014 Y75.723 E35.38064 ; skirt
G1 X97.604 Y75.333 E35.64712 ; skirt
G1 X98.684 Y75.253 E35.75730 ; skirt
G1 X101.304 Y75.253 E36.02386 ; skirt
G1 X102.384 Y75.333 E36.13404 ; skirt
G1 X104.974 Y75.723 E36.40051 ; skirt
G1 X106.034 Y75.963 E36.51109 ; skirt
G1 X108.534 Y76.733 E36.77723 ; skirt
G1 X109.534 Y77.123 E36.88643 ; skirt
G1 X111.894 Y78.253 E37.15264 ; skirt
G1 X112.854 Y78.803 E37.26521 ; skirt
G1 X115.024 Y80.283 E37.53244 ; skirt
G1 X115.864 Y80.963 E37.64240 ; skirt
G1 X117.784 Y82.743 E37.90877 ; skirt
G1 X118.534 Y83.543 E38.02034 ; skirt
G1 X120.164 Y85.593 E38.28680 ; skirt
G1 X120.774 Y86.493 E38.39741 ; skirt
G1 X122.084 Y88.763 E38.66406 ; skirt
G1 X122.554 Y89.733 E38.77373 ; skirt
G1 X123.514 Y92.173 E39.04049 ; skirt
G1 X123.834 Y93.223 E39.15217 ; skirt
G1 X124.414 Y95.773 E39.41824 ; skirt
G1 X124.574 Y96.823 E39.52630 ; skirt
G1 X124.774 Y99.433 E39.79262 ; skirt
G1 X124.774 Y100.553 E39.90656 ; skirt
G1 X124.574 Y103.163 E40.17288 ; skirt
G1 X124.414 Y104.213 E40.28094 ; skirt
G1 X123.834 Y106.773 E40.54800 ; skirt
G1 X123.514 Y107.823 E40.65968 ; skirt
G1 X122.554 Y110.263 E40.92645 ; skirt
G1 X122.074 Y111.253 E41.03838 ; skirt
G1 X120.764 Y113.513 E41.30415 ; skirt
G1 X120.164 Y114.393 E41.41251 ; skirt
G1 X118.534 Y116.443 E41.67897 ; skirt
G1 X117.784 Y117.243 E41.79054 ; skirt
G1 X115.864 Y119.023 E42.05691 ; skirt
G1 X115.024 Y119.703 E42.16687 ; skirt
G1 X112.854 Y121.183 E42.43410 ; skirt
G1 X111.914 Y121.723 E42.54440 ; skirt
G1 X109.554 Y122.863 E42.81105 ; skirt
G1 X108.534 Y123.263 E42.92252 ; skirt
G1 X106.034 Y124.033 E43.18866 ; skirt
G1 X104.974 Y124.273 E43.29923 ; skirt
G1 X102.384 Y124.663 E43.56571 ; skirt
G1 X101.304 Y124.743 E43.67589 ; skirt
G1 X98.684 Y124.743 E43.94245 ; skirt
G1 X97.604 Y124.663 E44.05263 ; skirt
G1 X95.014 Y124.273 E44.31911 ; skirt
G1 X93.904 Y124.013 E44.43510 ; skirt
G1 X91.464 Y123.263 E44.69480 ; skirt
G1 X90.434 Y122.863 E44.80722 ; skirt
G1 X88.074 Y121.723 E45.07387 ; skirt
G1 X87.134 Y121.183 E45.18417 ; skirt
G1 X84.964 Y119.703 E45.45140 ; skirt
G1 X84.124 Y119.023 E45.56136 ; skirt
G1 X82.204 Y117.243 E45.82773 ; skirt
G1 X81.454 Y116.443 E45.93930 ; skirt
G1 X79.824 Y114.393 E46.20576 ; skirt
G1 X79.224 Y113.513 E46.31412 ; skirt
G1 X77.914 Y111.253 E46.57989 ; skirt
G1 X77.434 Y110.263 E46.69182 ; skirt
G1 X76.474 Y107.823 E46.95859 ; skirt
G1 X76.154 Y106.773 E47.07027 ; skirt
G1 X75.574 Y104.213 E47.33733 ; skirt
G1 X75.414 Y103.133 E47.44840 ; skirt
G1 X75.224 Y100.523 E47.71465 ; skirt
G1 X75.224 Y99.463 E47.82249 ; skirt
G1 X75.414 Y96.853 E48.08874 ; skirt
G1 X75.574 Y95.773 E48.19982 ; skirt
G1 X76.154 Y93.223 E48.46588 ; skirt
G1 X76.474 Y92.173 E48.57756 ; skirt
G1 X77.434 Y89.733 E48.84433 ; skirt
G1 X77.904 Y88.763 E48.95399 ; skirt
G1 X79.214 Y86.493 E49.22064 ; skirt
G1 X79.864 Y85.553 E49.33691 ; skirt
G1 X81.444 Y83.563 E49.59543 ; skirt
G1 X82.139 Y82.813 E49.69948 ; skirt
G1 X82.634 Y83.203 F7800.000 ; move to first skirt point
G1 X84.554 Y81.423 F540.000 E49.96585 ; skirt
G1 X85.324 Y80.813 E50.06579 ; skirt
G1 X87.494 Y79.333 E50.33303 ; skirt
G1 X88.364 Y78.833 E50.43512 ; skirt
G1 X90.724 Y77.703 E50.70133 ; skirt
G1 X91.594 Y77.353 E50.79674 ; skirt
G1 X94.154 Y76.563 E51.06931 ; skirt
G1 X95.104 Y76.353 E51.16830 ; skirt
G1 X97.694 Y75.963 E51.43477 ; skirt
G1 X98.684 Y75.883 E51.53583 ; skirt
G1 X101.304 Y75.883 E51.80238 ; skirt
G1 X102.294 Y75.963 E51.90344 ; skirt
G1 X104.884 Y76.353 E52.16991 ; skirt
G1 X105.844 Y76.573 E52.27012 ; skirt
G1 X108.344 Y77.343 E52.53626 ; skirt
G1 X109.264 Y77.703 E52.63677 ; skirt
G1 X111.624 Y78.833 E52.90298 ; skirt
G1 X112.494 Y79.333 E53.00507 ; skirt
G1 X114.664 Y80.813 E53.27231 ; skirt
G1 X115.434 Y81.423 E53.37225 ; skirt
G1 X117.354 Y83.203 E53.63862 ; skirt
G1 X118.034 Y83.943 E53.74087 ; skirt
G1 X119.664 Y85.993 E54.00733 ; skirt
G1 X120.224 Y86.803 E54.10752 ; skirt
G1 X121.534 Y89.073 E54.37417 ; skirt
G1 X121.954 Y89.963 E54.47429 ; skirt
G1 X122.914 Y92.403 E54.74106 ; skirt
G1 X123.214 Y93.363 E54.84339 ; skirt
G1 X123.794 Y95.913 E55.10945 ; skirt
G1 X123.944 Y96.873 E55.20831 ; skirt
G1 X124.144 Y99.483 E55.47463 ; skirt
G1 X124.144 Y100.503 E55.57840 ; skirt
G1 X123.944 Y103.113 E55.84472 ; skirt
G1 X123.794 Y104.073 E55.94358 ; skirt
G1 X123.214 Y106.633 E56.21063 ; skirt
G1 X122.924 Y107.593 E56.31266 ; skirt
G1 X121.954 Y110.033 E56.57981 ; skirt
G1 X121.524 Y110.933 E56.68129 ; skirt
G1 X120.214 Y113.193 E56.94705 ; skirt
G1 X119.664 Y113.993 E57.04582 ; skirt
G1 X118.034 Y116.043 E57.31229 ; skirt
G1 X117.354 Y116.783 E57.41453 ; skirt
G1 X115.434 Y118.563 E57.68091 ; skirt
G1 X114.664 Y119.173 E57.78085 ; skirt
G1 X112.494 Y120.653 E58.04809 ; skirt
G1 X111.644 Y121.153 E58.14842 ; skirt
G1 X109.284 Y122.293 E58.41507 ; skirt
G1 X108.344 Y122.653 E58.51748 ; skirt
G1 X105.844 Y123.423 E58.78362 ; skirt
G1 X104.884 Y123.643 E58.88382 ; skirt
G1 X102.294 Y124.033 E59.15030 ; skirt
G1 X101.304 Y124.113 E59.25135 ; skirt
G1 X98.684 Y124.113 E59.51791 ; skirt
G1 X97.694 Y124.033 E59.61896 ; skirt
G1 X95.104 Y123.643 E59.88544 ; skirt
G1 X94.094 Y123.413 E59.99083 ; skirt
G1 X91.654 Y122.663 E60.25053 ; skirt
G1 X90.704 Y122.293 E60.35426 ; skirt
G1 X88.344 Y121.153 E60.62091 ; skirt
G1 X87.494 Y120.653 E60.72124 ; skirt
G1 X85.324 Y119.173 E60.98848 ; skirt
G1 X84.554 Y118.563 E61.08842 ; skirt
G1 X82.634 Y116.783 E61.35479 ; skirt
G1 X81.954 Y116.043 E61.45704 ; skirt
G1 X80.324 Y113.993 E61.72350 ; skirt
G1 X79.774 Y113.193 E61.82228 ; skirt
G1 X78.464 Y110.933 E62.08804 ; skirt
G1 X78.024 Y110.033 E62.18997 ; skirt
G1 X77.074 Y107.593 E62.45636 ; skirt
G1 X76.774 Y106.633 E62.55869 ; skirt
G1 X76.194 Y104.073 E62.82575 ; skirt
G1 X76.044 Y103.083 E62.92762 ; skirt
G1 X75.854 Y100.473 E63.19386 ; skirt
G1 X75.854 Y99.513 E63.29153 ; skirt
G1 X76.044 Y96.903 E63.55778 ; skirt
G1 X76.194 Y95.913 E63.65965 ; skirt
G1 X76.774 Y93.363 E63.92571 ; skirt
G1 X77.074 Y92.403 E64.02804 ; skirt
G1 X78.034 Y89.963 E64.29481 ; skirt
G1 X78.454 Y89.073 E64.39494 ; skirt
G1 X79.764 Y86.803 E64.66158 ; skirt
G1 X80.354 Y85.953 E64.76685 ; skirt
G1 X81.944 Y83.953 E65.02680 ; skirt
G1 X82.569 Y83.273 E65.12079 ; skirt
G1 F1800.000 E64.12079 ; retract
G92 E0 ; reset extrusion distance
G1 X88.665 Y90.871 F7800.000 ; move to first perimeter point
G1 F1800.000 E1.00000 ; compensate retraction
G1 X89.148 Y90.748 F540.000 E1.05074 ; perimeter
G1 X89.532 Y90.784 E1.08996 ; perimeter
G1 X89.884 Y90.946 E1.12940 ; perimeter
G1 X93.306 Y93.608 E1.57049 ; perimeter
G1 X93.604 Y93.310 E1.61331 ; perimeter
G1 X90.946 Y89.883 E2.05454 ; perimeter
G1 X90.760 Y89.481 E2.09966 ; perimeter
G1 X90.772 Y88.926 E2.15613 ; perimeter
G1 X91.001 Y88.483 E2.20686 ; perimeter
G1 X91.230 Y88.267 E2.23895 ; perimeter
G1 X93.296 Y86.977 E2.48669 ; perimeter
G1 X95.532 Y86.051 E2.73292 ; perimeter
G1 X97.904 Y85.502 E2.98066 ; perimeter
G1 X98.164 Y85.494 E3.00713 ; perimeter
G1 X98.488 Y85.558 E3.04073 ; perimeter
G1 X98.917 Y85.813 E3.09147 ; perimeter
G1 X99.190 Y86.231 E3.14221 ; perimeter
G1 X99.255 Y86.499 E3.17031 ; perimeter
G1 X99.789 Y90.763 E3.60754 ; perimeter
G1 X100.211 Y90.763 E3.65044 ; perimeter
G1 X100.744 Y86.499 E4.08766 ; perimeter
G1 X100.810 Y86.231 E4.11577 ; perimeter
G1 X101.083 Y85.813 E4.16650 ; perimeter
G1 X101.512 Y85.558 E4.21724 ; perimeter
G1 X101.836 Y85.494 E4.25084 ; perimeter
G1 X102.096 Y85.502 E4.27731 ; perimeter
G1 X104.468 Y86.051 E4.52505 ; perimeter
G1 X106.704 Y86.977 E4.77128 ; perimeter
G1 X108.770 Y88.267 E5.01902 ; perimeter
G1 X108.999 Y88.483 E5.05111 ; perimeter
G1 X109.228 Y88.926 E5.10185 ; perimeter
G1 X109.240 Y89.481 E5.15831 ; perimeter
G1 X109.054 Y89.883 E5.20343 ; perimeter
G1 X106.396 Y93.310 E5.64467 ; perimeter
G1 X106.694 Y93.608 E5.68748 ; perimeter
G1 X110.116 Y90.946 E6.12857 ; perimeter
G1 X110.468 Y90.784 E6.16802 ; perimeter
G1 X110.797 Y90.753 E6.20162 ; perimeter
G1 X111.069 Y90.790 E6.22960 ; perimeter
G1 X111.378 Y90.908 E6.26320 ; perimeter
G1 X111.704 Y91.184 E6.30667 ; perimeter
