; generated by Slic3r 0.9.10b on 2014-03-26 at 13:14:35

; layer_height = 0.4
; perimeters = 2
; top_solid_layers = 3
; bottom_solid_layers = 3
; fill_density = 0.2
; perimeter_speed = 30
; infill_speed = 60
; travel_speed = 130
; nozzle_diameter = 0.4
; filament_diameter = 1.75
; extrusion_multiplier = 1.0
; perimeters extrusion width = 0.42mm
; infill extrusion width = 0.42mm
; solid infill extrusion width = 0.42mm
; top infill extrusion width = 0.42mm
; first layer extrusion width = 0.70mm

G21 ; set units to millimeters
M107 ; disable fan
M190 S60 ; wait for bed temperature to be reached
M104 S190 ; set temperature
G28 ; home all axes
G1 Z5 F5000 ; lift nozzle
M109 S190 ; wait for temperature to be reached
G90 ; use absolute coordinates
G92 E0 ; reset extrusion distance
M82 ; use absolute distances for extrusion
G1 F1800.000 E-1.00000 ; retract
G92 E0 ; reset extrusion distance
G1 Z-0.350 F7800.000 ; move to next layer (0)
G1 X59.510 Y60.960 ; move to first skirt point
G1 F1800.000 E1.00000 ; compensate retraction
G1 X60.730 Y60.100 F540.000 E1.13806 ; skirt
G1 X62.080 Y59.470 E1.27585 ; skirt
G1 X63.520 Y59.090 E1.41359 ; skirt
G1 X65.000 Y58.960 E1.55101 ; skirt
G1 X135.000 Y58.960 E8.02537 ; skirt
G1 X136.480 Y59.090 E8.16279 ; skirt
G1 X137.920 Y59.470 E8.30053 ; skirt
G1 X139.270 Y60.100 E8.43832 ; skirt
G1 X140.490 Y60.960 E8.57638 ; skirt
G1 X141.540 Y62.010 E8.71372 ; skirt
G1 X142.400 Y63.230 E8.85178 ; skirt
G1 X143.030 Y64.580 E8.98957 ; skirt
G1 X143.410 Y66.020 E9.12731 ; skirt
G1 X143.540 Y67.500 E9.26473 ; skirt
G1 X143.540 Y132.500 E15.27664 ; skirt
G1 X143.410 Y133.980 E15.41405 ; skirt
G1 X143.030 Y135.420 E15.55180 ; skirt
G1 X142.400 Y136.770 E15.68959 ; skirt
G1 X141.540 Y137.990 E15.82765 ; skirt
G1 X140.490 Y139.040 E15.96499 ; skirt
G1 X139.270 Y139.900 E16.10304 ; skirt
G1 X137.920 Y140.530 E16.24083 ; skirt
G1 X136.480 Y140.910 E16.37858 ; skirt
G1 X135.000 Y141.040 E16.51599 ; skirt
G1 X65.000 Y141.040 E22.99036 ; skirt
G1 X63.520 Y140.910 E23.12777 ; skirt
G1 X62.080 Y140.530 E23.26552 ; skirt
G1 X60.730 Y139.900 E23.40331 ; skirt
G1 X59.510 Y139.040 E23.54137 ; skirt
G1 X58.460 Y137.990 E23.67871 ; skirt
G1 X57.600 Y136.770 E23.81677 ; skirt
G1 X56.970 Y135.420 E23.95456 ; skirt
G1 X56.590 Y133.980 E24.09230 ; skirt
G1 X56.460 Y132.500 E24.22972 ; skirt
G1 X56.460 Y67.500 E30.24163 ; skirt
G1 X56.590 Y66.020 E30.37904 ; skirt
G1 X56.970 Y64.580 E30.51679 ; skirt
G1 X57.600 Y63.230 E30.65458 ; skirt
G1 X58.460 Y62.010 E30.79263 ; skirt
G1 X59.443 Y61.027 E30.92116 ; skirt
G1 X59.920 Y61.440 F7800.000 ; move to first skirt point
G1 X61.050 Y60.650 F540.000 E31.04868 ; skirt
G1 X62.300 Y60.070 E31.17613 ; skirt
G1 X63.630 Y59.710 E31.30357 ; skirt
G1 X65.000 Y59.590 E31.43077 ; skirt
G1 X135.000 Y59.590 E37.90514 ; skirt
G1 X136.370 Y59.710 E38.03234 ; skirt
G1 X137.700 Y60.070 E38.15978 ; skirt
G1 X138.950 Y60.650 E38.28723 ; skirt
G1 X140.080 Y61.440 E38.41475 ; skirt
G1 X141.060 Y62.420 E38.54294 ; skirt
G1 X141.850 Y63.550 E38.67046 ; skirt
G1 X142.430 Y64.800 E38.79791 ; skirt
G1 X142.790 Y66.130 E38.92535 ; skirt
G1 X142.910 Y67.500 E39.05255 ; skirt
G1 X142.910 Y132.500 E45.06446 ; skirt
G1 X142.790 Y133.870 E45.19166 ; skirt
G1 X142.430 Y135.200 E45.31910 ; skirt
G1 X141.850 Y136.450 E45.44655 ; skirt
G1 X141.060 Y137.580 E45.57408 ; skirt
G1 X140.080 Y138.560 E45.70226 ; skirt
G1 X138.950 Y139.350 E45.82979 ; skirt
G1 X137.700 Y139.930 E45.95724 ; skirt
G1 X136.370 Y140.290 E46.08468 ; skirt
G1 X135.000 Y140.410 E46.21188 ; skirt
G1 X65.000 Y140.410 E52.68624 ; skirt
G1 X63.630 Y140.290 E52.81344 ; skirt
G1 X62.300 Y139.930 E52.94088 ; skirt
G1 X61.050 Y139.350 E53.06833 ; skirt
G1 X59.920 Y138.560 E53.19586 ; skirt
G1 X58.940 Y137.580 E53.32404 ; skirt
G1 X58.150 Y136.450 E53.45157 ; skirt
G1 X57.570 Y135.200 E53.57902 ; skirt
G1 X57.210 Y133.870 E53.70646 ; skirt
G1 X57.090 Y132.500 E53.83366 ; skirt
G1 X57.090 Y67.500 E59.84557 ; skirt
G1 X57.210 Y66.130 E59.97277 ; skirt
G1 X57.570 Y64.800 E60.10021 ; skirt
G1 X58.150 Y63.550 E60.22766 ; skirt
G1 X58.940 Y62.420 E60.35518 ; skirt
G1 X59.853 Y61.507 E60.47455 ; skirt
G1 X59.860 Y62.360 F7800.000 ; move to first skirt point
G1 X60.960 Y61.450 F540.000 E60.60659 ; skirt
G1 X62.220 Y60.780 E60.73858 ; skirt
G1 X63.580 Y60.370 E60.86996 ; skirt
G1 X65.000 Y60.230 E61.00194 ; skirt
G1 X135.000 Y60.230 E67.47630 ; skirt
G1 X136.420 Y60.370 E67.60828 ; skirt
G1 X137.780 Y60.780 E67.73966 ; skirt
G1 X139.040 Y61.450 E67.87165 ; skirt
G1 X140.140 Y62.360 E68.00369 ; skirt
G1 X141.050 Y63.460 E68.13573 ; skirt
G1 X141.720 Y64.720 E68.26772 ; skirt
G1 X142.130 Y66.080 E68.39910 ; skirt
G1 X142.270 Y67.500 E68.53107 ; skirt
G1 X142.270 Y132.500 E74.54299 ; skirt
G1 X142.130 Y133.920 E74.67496 ; skirt
G1 X141.720 Y135.280 E74.80634 ; skirt
G1 X141.050 Y136.540 E74.93833 ; skirt
G1 X140.140 Y137.640 E75.07037 ; skirt
G1 X139.040 Y138.550 E75.20241 ; skirt
G1 X137.780 Y139.220 E75.33440 ; skirt
G1 X136.420 Y139.630 E75.46578 ; skirt
G1 X135.000 Y139.770 E75.59776 ; skirt
G1 X65.000 Y139.770 E82.07212 ; skirt
G1 X63.580 Y139.630 E82.20410 ; skirt
G1 X62.220 Y139.220 E82.33548 ; skirt
G1 X60.960 Y138.550 E82.46747 ; skirt
G1 X59.860 Y137.640 E82.59951 ; skirt
G1 X58.950 Y136.540 E82.73155 ; skirt
G1 X58.280 Y135.280 E82.86354 ; skirt
G1 X57.870 Y133.920 E82.99492 ; skirt
G1 X57.730 Y132.500 E83.12690 ; skirt
G1 X57.730 Y67.500 E89.13881 ; skirt
G1 X57.870 Y66.080 E89.27078 ; skirt
G1 X58.280 Y64.720 E89.40216 ; skirt
G1 X58.950 Y63.460 E89.53415 ; skirt
G1 X59.799 Y62.433 E89.65737 ; skirt
G1 X60.310 Y62.810 F7800.000 ; move to first skirt point
G1 X61.310 Y61.980 F540.000 E89.77757 ; skirt
G1 X62.460 Y61.370 E89.89798 ; skirt
G1 X63.710 Y60.990 E90.01881 ; skirt
G1 X65.000 Y60.860 E90.13873 ; skirt
G1 X135.000 Y60.860 E96.61310 ; skirt
G1 X136.290 Y60.990 E96.73302 ; skirt
G1 X137.540 Y61.370 E96.85385 ; skirt
G1 X138.690 Y61.980 E96.97426 ; skirt
G1 X139.690 Y62.810 E97.09445 ; skirt
G1 X140.520 Y63.810 E97.21465 ; skirt
G1 X141.130 Y64.960 E97.33506 ; skirt
G1 X141.510 Y66.210 E97.45589 ; skirt
G1 X141.640 Y67.500 E97.57581 ; skirt
G1 X141.640 Y132.500 E103.58772 ; skirt
G1 X141.510 Y133.790 E103.70764 ; skirt
G1 X141.130 Y135.040 E103.82848 ; skirt
G1 X140.520 Y136.190 E103.94888 ; skirt
G1 X139.690 Y137.190 E104.06908 ; skirt
G1 X138.690 Y138.020 E104.18928 ; skirt
G1 X137.540 Y138.630 E104.30968 ; skirt
G1 X136.290 Y139.010 E104.43052 ; skirt
G1 X135.000 Y139.140 E104.55044 ; skirt
G1 X65.000 Y139.140 E111.02480 ; skirt
G1 X63.710 Y139.010 E111.14472 ; skirt
G1 X62.460 Y138.630 E111.26556 ; skirt
G1 X61.310 Y138.020 E111.38596 ; skirt
G1 X60.310 Y137.190 E111.50616 ; skirt
G1 X59.480 Y136.190 E111.62636 ; skirt
G1 X58.870 Y135.040 E111.74676 ; skirt
G1 X58.490 Y133.790 E111.86760 ; skirt
G1 X58.360 Y132.500 E111.98752 ; skirt
G1 X58.360 Y67.500 E117.99943 ; skirt
G1 X58.490 Y66.210 E118.11934 ; skirt
G1 X58.870 Y64.960 E118.24018 ; skirt
G1 X59.480 Y63.810 E118.36058 ; skirt
G1 X60.249 Y62.883 E118.47197 ; skirt
G1 F1800.000 E117.47197 ; retract
G92 E0 ; reset extrusion distance
G1 X118.865 Y121.498 F7800.000 ; move to first perimeter point
G1 F1800.000 E1.00000 ; compensate retraction
G1 X119.277 Y121.135 F540.000 E1.05079 ; perimeter
G1 X119.607 Y120.925 E1.08698 ; perimeter
G1 X119.961 Y120.759 E1.12316 ; perimeter
G1 X120.488 Y120.605 E1.17394 ; perimeter
G1 X121.020 Y120.555 E1.22334 ; perimeter
G1 X121.265 Y120.563 E1.24599 ; perimeter
G1 X121.795 Y120.646 E1.29565 ; perimeter
G1 X122.326 Y120.838 E1.34787 ; perimeter
G1 X122.812 Y121.125 E1.40005 ; perimeter
G1 X123.235 Y121.498 E1.45224 ; perimeter
G1 X123.581 Y121.944 E1.50443 ; perimeter
G1 X123.837 Y122.446 E1.55660 ; perimeter
G1 X123.995 Y122.988 E1.60879 ; perimeter
G1 X124.048 Y123.550 E1.66098 ; perimeter
G1 X123.995 Y124.112 E1.71317 ; perimeter
G1 X123.841 Y124.639 E1.76396 ; perimeter
G1 X123.675 Y124.993 E1.80013 ; perimeter
G1 X123.465 Y125.323 E1.83633 ; perimeter
G1 X123.102 Y125.735 E1.88711 ; perimeter
G1 X122.656 Y126.081 E1.93930 ; perimeter
G1 X122.154 Y126.337 E1.99147 ; perimeter
G1 X121.612 Y126.495 E2.04366 ; perimeter
G1 X121.050 Y126.548 E2.09585 ; perimeter
G1 X120.488 Y126.495 E2.14804 ; perimeter
G1 X119.946 Y126.337 E2.20023 ; perimeter
G1 X119.444 Y126.081 E2.25240 ; perimeter
G1 X118.998 Y125.735 E2.30459 ; perimeter
G1 X118.635 Y125.323 E2.35537 ; perimeter
G1 X118.425 Y124.993 E2.39157 ; perimeter
G1 X118.259 Y124.639 E2.42774 ; perimeter
G1 X118.105 Y124.112 E2.47852 ; perimeter
G1 X118.052 Y123.550 E2.53072 ; perimeter
G1 X118.105 Y122.988 E2.58291 ; perimeter
G1 X118.263 Y122.446 E2.63510 ; perimeter
G1 X118.519 Y121.944 E2.68727 ; perimeter
G1 X118.806 Y121.573 E2.73064 ; perimeter
G1 X119.330 Y121.935 F7800.000 ; move to first perimeter point
G1 X119.659 Y121.645 F540.000 E2.77124 ; perimeter
G1 X119.914 Y121.483 E2.79910 ; perimeter
G1 X120.186 Y121.355 E2.82695 ; perimeter
G1 X120.608 Y121.233 E2.86756 ; perimeter
G1 X121.040 Y121.192 E2.90770 ; perimeter
G1 X121.205 Y121.197 E2.92298 ; perimeter
G1 X121.637 Y121.265 E2.96338 ; perimeter
G1 X122.055 Y121.415 E3.00446 ; perimeter
G1 X122.437 Y121.641 E3.04553 ; perimeter
G1 X122.770 Y121.935 E3.08660 ; perimeter
G1 X123.042 Y122.286 E3.12767 ; perimeter
G1 X123.243 Y122.681 E3.16874 ; perimeter
G1 X123.367 Y123.108 E3.20981 ; perimeter
G1 X123.409 Y123.550 E3.25089 ; perimeter
G1 X123.367 Y123.992 E3.29196 ; perimeter
G1 X123.245 Y124.414 E3.33256 ; perimeter
G1 X123.117 Y124.686 E3.36042 ; perimeter
G1 X122.955 Y124.941 E3.38828 ; perimeter
G1 X122.665 Y125.270 E3.42888 ; perimeter
G1 X122.314 Y125.542 E3.46995 ; perimeter
G1 X121.919 Y125.743 E3.51101 ; perimeter
G1 X121.492 Y125.867 E3.55209 ; perimeter
G1 X121.050 Y125.909 E3.59316 ; perimeter
G1 X120.608 Y125.867 E3.63424 ; perimeter
G1 X120.181 Y125.743 E3.67531 ; perimeter
G1 X119.786 Y125.542 E3.71637 ; perimeter
G1 X119.435 Y125.270 E3.75744 ; perimeter
G1 X119.145 Y124.941 E3.79805 ; perimeter
G1 X118.983 Y124.686 E3.82591 ; perimeter
G1 X118.855 Y124.414 E3.85376 ; perimeter
G1 X118.733 Y123.992 E3.89436 ; perimeter
G1 X118.691 Y123.550 E3.93544 ; perimeter
G1 X118.733 Y123.108 E3.97651 ; perimeter
G1 X118.857 Y122.681 E4.01759 ; perimeter
G1 X119.058 Y122.286 E4.05865 ; perimeter
G1 X119.272 Y122.010 E4.09090 ; perimeter
G1 X119.754 Y122.049 F7800.000 ; move inwards before travel
G1 F1800.000 E3.09090 ; retract
G92 E0 ; reset extrusion distance
G1 X76.012 Y78.624 F7800.000 ; move to first perimeter point
G1 F1800.000 E1.00000 ; compensate retraction
G1 X75.711 Y78.873 F540.000 E1.03618 ; perimeter
G1 X75.380 Y79.083 E1.07236 ; perimeter
G1 X74.876 Y79.301 E1.12316 ; perimeter
G1 X74.326 Y79.424 E1.17534 ; perimeter
G1 X73.762 Y79.442 E1.22753 ; perimeter
G1 X73.204 Y79.353 E1.27972 ; perimeter
G1 X72.674 Y79.162 E1.33190 ; perimeter
G1 X72.188 Y78.875 E1.38408 ; perimeter
G1 X71.776 Y78.512 E1.43487 ; perimeter
G1 X71.527 Y78.211 E1.47105 ; perimeter
G1 X71.317 Y77.880 E1.50723 ; perimeter
G1 X71.099 Y77.376 E1.55804 ; perimeter
G1 X70.976 Y76.826 E1.61021 ; perimeter
G1 X70.958 Y76.262 E1.66239 ; perimeter
G1 X71.047 Y75.704 E1.71459 ; perimeter
G1 X71.238 Y75.174 E1.76677 ; perimeter
G1 X71.525 Y74.688 E1.81894 ; perimeter
G1 X71.898 Y74.265 E1.87113 ; perimeter
G1 X72.344 Y73.919 E1.92332 ; perimeter
G1 X72.846 Y73.663 E1.97550 ; perimeter
G1 X73.388 Y73.505 E2.02769 ; perimeter
G1 X73.920 Y73.455 E2.07708 ; perimeter
G1 X74.165 Y73.463 E2.09974 ; perimeter
G1 X74.695 Y73.546 E2.14939 ; perimeter
G1 X75.226 Y73.738 E2.20161 ; perimeter
G1 X75.712 Y74.025 E2.25380 ; perimeter
G1 X76.124 Y74.388 E2.30459 ; perimeter
G1 X76.373 Y74.689 E2.34075 ; perimeter
G1 X76.581 Y75.017 E2.37664 ; perimeter
G1 X76.801 Y75.523 E2.42771 ; perimeter
G1 X76.924 Y76.074 E2.47993 ; perimeter
G1 X76.942 Y76.638 E2.53211 ; perimeter
G1 X76.853 Y77.196 E2.58431 ; perimeter
G1 X76.662 Y77.726 E2.63648 ; perimeter
G1 X76.375 Y78.212 E2.68866 ; perimeter
G1 X76.075 Y78.552 E2.73064 ; perimeter
G1 X75.568 Y78.166 F7800.000 ; move to first perimeter point
G1 X75.336 Y78.358 F540.000 E2.75849 ; perimeter
G1 X75.082 Y78.519 E2.78635 ; perimeter
G1 X74.679 Y78.694 E2.82696 ; perimeter
G1 X74.246 Y78.791 E2.86803 ; perimeter
G1 X73.802 Y78.805 E2.90910 ; perimeter
G1 X73.363 Y78.735 E2.95017 ; perimeter
G1 X72.945 Y78.585 E2.99124 ; perimeter
G1 X72.563 Y78.359 E3.03231 ; perimeter
G1 X72.234 Y78.068 E3.07291 ; perimeter
G1 X72.042 Y77.836 E3.10077 ; perimeter
G1 X71.881 Y77.582 E3.12863 ; perimeter
G1 X71.706 Y77.179 E3.16924 ; perimeter
G1 X71.609 Y76.746 E3.21031 ; perimeter
G1 X71.595 Y76.302 E3.25138 ; perimeter
G1 X71.665 Y75.863 E3.29245 ; perimeter
G1 X71.815 Y75.445 E3.33352 ; perimeter
G1 X72.041 Y75.063 E3.37458 ; perimeter
G1 X72.335 Y74.730 E3.41565 ; perimeter
G1 X72.686 Y74.458 E3.45673 ; perimeter
G1 X73.081 Y74.256 E3.49780 ; perimeter
G1 X73.508 Y74.133 E3.53886 ; perimeter
G1 X73.940 Y74.092 E3.57901 ; perimeter
G1 X74.105 Y74.097 E3.59429 ; perimeter
G1 X74.537 Y74.165 E3.63468 ; perimeter
G1 X74.955 Y74.315 E3.67577 ; perimeter
G1 X75.337 Y74.541 E3.71684 ; perimeter
G1 X75.666 Y74.832 E3.75745 ; perimeter
G1 X75.858 Y75.064 E3.78530 ; perimeter
G1 X76.018 Y75.315 E3.81288 ; perimeter
G1 X76.194 Y75.721 E3.85376 ; perimeter
G1 X76.291 Y76.154 E3.89484 ; perimeter
G1 X76.305 Y76.598 E3.93591 ; perimeter
G1 X76.235 Y77.037 E3.97698 ; perimeter
G1 X76.085 Y77.454 E4.01805 ; perimeter
G1 X75.859 Y77.837 E4.05912 ; perimeter
G1 X75.631 Y78.095 E4.09090 ; perimeter
G1 X75.281 Y78.076 F7800.000 ; move inwards before travel
G1 X118.076 Y76.826 ; move to first perimeter point
G1 X118.058 Y76.262 F540.000 E4.14308 ; perimeter
G1 X118.147 Y75.704 E4.19528 ; perimeter
G1 X118.338 Y75.174 E4.24745 ; perimeter
G1 X118.625 Y74.688 E4.29963 ; perimeter
G1 X118.998 Y74.265 E4.35182 ; perimeter
G1 X119.444 Y73.919 E4.40401 ; perimeter
G1 X119.946 Y73.663 E4.45619 ; perimeter
G1 X120.488 Y73.505 E4.50837 ; perimeter
G1 X121.020 Y73.455 E4.55777 ; perimeter
G1 X121.265 Y73.463 E4.58042 ; perimeter
G1 X121.795 Y73.546 E4.63007 ; perimeter
G1 X122.326 Y73.738 E4.68230 ; perimeter
G1 X122.812 Y74.025 E4.73449 ; perimeter
G1 X123.235 Y74.398 E4.78668 ; perimeter
G1 X123.572 Y74.832 E4.83746 ; perimeter
G1 X123.760 Y75.174 E4.87362 ; perimeter
G1 X123.903 Y75.535 E4.90951 ; perimeter
G1 X124.024 Y76.074 E4.96058 ; perimeter
G1 X124.042 Y76.638 E5.01280 ; perimeter
G1 X123.953 Y77.196 E5.06499 ; perimeter
G1 X123.762 Y77.726 E5.11717 ; perimeter
G1 X123.475 Y78.212 E5.16935 ; perimeter
G1 X123.112 Y78.624 E5.22014 ; perimeter
G1 X122.811 Y78.873 E5.25632 ; perimeter
G1 X122.480 Y79.083 E5.29250 ; perimeter
G1 X121.976 Y79.301 E5.34330 ; perimeter
G1 X121.426 Y79.424 E5.39548 ; perimeter
G1 X120.862 Y79.442 E5.44767 ; perimeter
G1 X120.304 Y79.353 E5.49986 ; perimeter
G1 X119.774 Y79.162 E5.55204 ; perimeter
G1 X119.288 Y78.875 E5.60422 ; perimeter
G1 X118.876 Y78.512 E5.65501 ; perimeter
G1 X118.627 Y78.211 E5.69119 ; perimeter
G1 X118.417 Y77.880 E5.72737 ; perimeter
G1 X118.199 Y77.376 E5.77817 ; perimeter
G1 X118.097 Y76.919 E5.82153 ; perimeter
G1 X118.709 Y76.746 F7800.000 ; move to first perimeter point
G1 X118.695 Y76.302 F540.000 E5.86260 ; perimeter
G1 X118.765 Y75.863 E5.90368 ; perimeter
G1 X118.915 Y75.445 E5.94475 ; perimeter
G1 X119.141 Y75.063 E5.98581 ; perimeter
G1 X119.435 Y74.730 E6.02688 ; perimeter
G1 X119.786 Y74.458 E6.06796 ; perimeter
G1 X120.181 Y74.256 E6.10902 ; perimeter
G1 X120.608 Y74.133 E6.15009 ; perimeter
G1 X121.040 Y74.092 E6.19024 ; perimeter
G1 X121.205 Y74.097 E6.20552 ; perimeter
G1 X121.637 Y74.165 E6.24591 ; perimeter
G1 X122.055 Y74.315 E6.28700 ; perimeter
G1 X122.437 Y74.541 E6.32807 ; perimeter
G1 X122.770 Y74.835 E6.36914 ; perimeter
G1 X123.039 Y75.182 E6.40974 ; perimeter
G1 X123.184 Y75.446 E6.43759 ; perimeter
G1 X123.294 Y75.723 E6.46518 ; perimeter
G1 X123.391 Y76.154 E6.50605 ; perimeter
G1 X123.405 Y76.598 E6.54713 ; perimeter
G1 X123.335 Y77.037 E6.58821 ; perimeter
