; generated by Slic3r 0.9.10b on 2014-02-05 at 12:20:14

; layer_height = 0.4
; perimeters = 3
; top_solid_layers = 3
; bottom_solid_layers = 3
; fill_density = 0.2
; perimeter_speed = 30
; infill_speed = 60
; travel_speed = 130
; nozzle_diameter = 0.5
; filament_diameter = 1.75
; extrusion_multiplier = 1.15
; perimeters extrusion width = 0.53mm
; infill extrusion width = 0.53mm
; solid infill extrusion width = 0.53mm
; top infill extrusion width = 0.53mm
; first layer extrusion width = 0.70mm

G21 ; set units to millimeters
M107
M104 S190 ; set temperature
G28 ; home all axes
G1 Z5 F5000 ; lift nozzle
M109 S190 ; wait for temperature to be reached
G90 ; use absolute coordinates
G92 E0
M82 ; use absolute distances for extrusion
G1 F1800.000 E-1.00000
G92 E0
G1 Z0.700 F7800.000
G1 X70.759 Y69.169
G1 F1800.000 E1.00000
G1 X73.079 Y67.129 F540.000 E1.33969
G1 X74.859 Y65.749 E1.58734
G1 X77.049 Y64.239 E1.87984
G1 X79.679 Y62.689 E2.21551
G1 X82.089 Y61.469 E2.51252
G1 X84.159 Y60.569 E2.76071
G1 X86.659 Y59.659 E3.05324
G1 X87.059 Y59.529 E3.09949
G1 X89.639 Y58.789 E3.39462
G1 X91.829 Y58.299 E3.64137
G1 X94.479 Y57.869 E3.93657
G1 X94.889 Y57.819 E3.98198
G1 X97.129 Y57.609 E4.22936
G1 X99.999 Y57.509 E4.54513
G1 X102.869 Y57.609 E4.86089
G1 X105.529 Y57.869 E5.15477
G1 X107.749 Y58.219 E5.40188
G1 X110.359 Y58.789 E5.69563
G1 X110.769 Y58.899 E5.74231
G1 X113.319 Y59.649 E6.03457
G1 X115.439 Y60.409 E6.28220
G1 X115.859 Y60.579 E6.33203
G1 X118.259 Y61.639 E6.62051
G1 X120.269 Y62.659 E6.86835
G1 X122.569 Y63.999 E7.16104
G1 X122.949 Y64.239 E7.21046
G1 X124.809 Y65.509 E7.45810
G1 X126.919 Y67.129 E7.75061
G1 X127.259 Y67.409 E7.79904
G1 X128.939 Y68.899 E8.04595
G1 X131.129 Y71.079 E8.38572
G1 X132.609 Y72.769 E8.63273
G1 X134.239 Y74.859 E8.92416
G1 X135.969 Y77.389 E9.26117
G1 X137.119 Y79.319 E9.50820
G1 X137.339 Y79.719 E9.55840
G1 X138.539 Y82.109 E9.85245
G1 X139.429 Y84.179 E10.10021
G1 X140.329 Y86.659 E10.39030
G1 X141.089 Y89.229 E10.68498
G1 X141.199 Y89.639 E10.73166
G1 X141.769 Y92.249 E11.02541
G1 X142.169 Y94.869 E11.31683
G1 X142.379 Y97.059 E11.55874
G1 X142.479 Y99.769 E11.85692
G1 X142.479 Y100.229 E11.90750
G1 X142.379 Y102.919 E12.20349
G1 X142.119 Y105.529 E12.49189
G1 X141.769 Y107.749 E12.73901
G1 X141.199 Y110.359 E13.03276
G1 X140.339 Y113.319 E13.37168
G1 X139.579 Y115.439 E13.61932
G1 X138.529 Y117.889 E13.91241
G1 X138.359 Y118.259 E13.95718
G1 X137.339 Y120.269 E14.20502
G1 X137.129 Y120.649 E14.25276
G1 X135.979 Y122.589 E14.50073
G1 X134.479 Y124.809 E14.79533
G1 X132.599 Y127.239 E15.13315
G1 X130.829 Y129.229 E15.42600
G1 X129.229 Y130.829 E15.67480
G1 X127.239 Y132.599 E15.96764
G1 X126.919 Y132.859 E16.01298
G1 X124.809 Y134.479 E16.30548
G1 X122.589 Y135.979 E16.60008
G1 X120.269 Y137.339 E16.89577
G1 X118.259 Y138.359 E17.14361
G1 X115.439 Y139.579 E17.48146
G1 X113.319 Y140.339 E17.72909
G1 X110.769 Y141.089 E18.02136
G1 X110.359 Y141.199 E18.06803
G1 X107.749 Y141.769 E18.36178
G1 X105.139 Y142.169 E18.65212
G1 X102.899 Y142.389 E18.89960
G1 X100.209 Y142.479 E19.19555
G1 X99.769 Y142.479 E19.24393
G1 X97.059 Y142.379 E19.54211
G1 X94.869 Y142.169 E19.78402
G1 X92.249 Y141.769 E20.07544
G1 X91.829 Y141.689 E20.12245
G1 X89.639 Y141.199 E20.36921
G1 X87.059 Y140.459 E20.66434
G1 X84.179 Y139.429 E21.00065
G1 X82.109 Y138.539 E21.24840
G1 X79.719 Y137.339 E21.54246
G1 X79.319 Y137.119 E21.59266
G1 X77.389 Y135.969 E21.83969
G1 X75.189 Y134.479 E22.13185
G1 X72.769 Y132.609 E22.46813
G1 X71.079 Y131.129 E22.71514
G1 X68.899 Y128.939 E23.05491
G1 X67.409 Y127.259 E23.30182
G1 X65.749 Y125.139 E23.59789
G1 X64.239 Y122.949 E23.89038
G1 X63.999 Y122.569 E23.93980
G1 X62.659 Y120.269 E24.23249
G1 X61.619 Y118.219 E24.48525
G1 X60.409 Y115.439 E24.81862
G1 X59.649 Y113.319 E25.06626
G1 X58.899 Y110.769 E25.35852
G1 X58.789 Y110.359 E25.40520
G1 X58.219 Y107.749 E25.69894
G1 X57.869 Y105.529 E25.94606
G1 X57.609 Y102.869 E26.23994
G1 X57.519 Y99.789 E26.57875
G1 X57.609 Y97.129 E26.87140
G1 X57.819 Y94.889 E27.11878
G1 X57.869 Y94.479 E27.16419
G1 X58.299 Y91.829 E27.45939
G1 X58.789 Y89.639 E27.70614
G1 X59.529 Y87.059 E28.00127
G1 X59.659 Y86.659 E28.04751
G1 X60.569 Y84.159 E28.34005
G1 X61.469 Y82.089 E28.58824
G1 X62.659 Y79.719 E28.87984
G1 X64.009 Y77.409 E29.17403
G1 X64.239 Y77.049 E29.22100
G1 X65.739 Y74.869 E29.51197
G1 X67.369 Y72.779 E29.80340
G1 X69.169 Y70.759 E30.10090
G1 X70.689 Y69.238 E30.33731
G1 F1800.000 E29.33731
G92 E0
G1 X81.109 Y76.796 F7800.000
G1 F1800.000 E1.00000
G1 X82.670 Y74.884 F540.000 E1.27138
G1 X84.643 Y73.401 E1.54279
G1 X86.914 Y72.434 E1.81418
G1 X89.350 Y72.038 E2.08557
G1 X91.810 Y72.237 E2.35697
G1 X94.152 Y73.018 E2.62837
G1 X96.238 Y74.337 E2.89976
G1 X97.948 Y76.117 E3.17116
G1 X99.182 Y78.255 E3.44256
G1 X99.868 Y80.626 E3.71395
G1 X99.968 Y83.092 E3.98535
G1 X99.474 Y85.510 E4.25675
G1 X98.416 Y87.740 E4.52815
G1 X96.855 Y89.652 E4.79954
G1 X94.882 Y91.135 E5.07094
G1 X92.611 Y92.102 E5.34233
G1 X90.175 Y92.498 E5.61373
G1 X87.715 Y92.300 E5.88512
G1 X85.373 Y91.518 E6.15653
G1 X83.287 Y90.199 E6.42792
G1 X81.577 Y88.419 E6.69931
G1 X80.343 Y86.281 E6.97071
G1 X79.657 Y83.911 E7.24210
G1 X79.557 Y81.444 E7.51350
G1 X80.051 Y79.026 E7.78490
G1 X81.067 Y76.885 E8.04547
G1 X81.668 Y77.150 F7800.000
G1 X83.129 Y75.361 F540.000 E8.29931
G1 X84.974 Y73.974 E8.55316
G1 X87.098 Y73.070 E8.80701
G1 X89.377 Y72.699 E9.06086
G1 X91.678 Y72.885 E9.31472
G1 X93.868 Y73.616 E9.56857
G1 X95.819 Y74.850 E9.82242
G1 X97.418 Y76.515 E10.07627
G1 X98.573 Y78.514 E10.33012
G1 X99.215 Y80.732 E10.58397
G1 X99.308 Y83.039 E10.83782
G1 X98.846 Y85.301 E11.09168
G1 X97.857 Y87.387 E11.34553
G1 X96.396 Y89.175 E11.59937
G1 X94.551 Y90.562 E11.85323
G1 X92.427 Y91.467 E12.10708
G1 X90.148 Y91.837 E12.36093
G1 X87.847 Y91.651 E12.61478
G1 X85.657 Y90.920 E12.86863
G1 X83.706 Y89.686 E13.12248
G1 X82.107 Y88.021 E13.37633
G1 X80.952 Y86.022 E13.63018
G1 X80.310 Y83.804 E13.88402
G1 X80.217 Y81.498 E14.13788
G1 X80.679 Y79.235 E14.39174
G1 X81.626 Y77.239 E14.63476
G1 X82.228 Y77.503 F7800.000
G1 X83.587 Y75.839 F378.000 E14.87105
G1 X85.305 Y74.548 E15.10736
G1 X87.282 Y73.705 E15.34367
G1 X89.404 Y73.361 E15.57997
G1 X91.546 Y73.534 E15.81628
G1 X93.584 Y74.214 E16.05258
G1 X95.401 Y75.363 E16.28889
G1 X96.889 Y76.913 E16.52519
G1 X97.964 Y78.774 E16.76150
G1 X98.562 Y80.838 E16.99780
G1 X98.648 Y82.985 E17.23411
G1 X98.218 Y85.091 E17.47042
G1 X97.297 Y87.033 E17.70673
G1 X95.938 Y88.697 E17.94303
G1 X94.220 Y89.988 E18.17933
G1 X92.243 Y90.831 E18.41564
G1 X90.121 Y91.176 E18.65195
G1 X87.979 Y91.003 E18.88825
G1 X85.941 Y90.322 E19.12456
G1 X84.124 Y89.174 E19.36086
G1 X82.636 Y87.624 E19.59716
G1 X81.561 Y85.762 E19.83347
G1 X80.963 Y83.698 E20.06977
G1 X80.877 Y81.551 E20.30608
G1 X81.307 Y79.445 E20.54239
G1 X82.186 Y77.593 E20.76786
G1 X82.883 Y77.556 F7800.000
G1 F1800.000 E19.76786
G92 E0
G1 X111.409 Y95.242 F7800.000
G1 F1800.000 E1.00000
G1 X112.811 Y93.211 F540.000 E1.27140
G1 X114.659 Y91.574 E1.54280
G1 X116.844 Y90.427 E1.81419
G1 X119.241 Y89.836 E2.08559
G1 X121.709 Y89.836 E2.35699
G1 X124.106 Y90.427 E2.62838
G1 X126.291 Y91.574 E2.89978
G1 X128.139 Y93.211 E3.17118
G1 X129.541 Y95.242 E3.44257
G1 X130.416 Y97.550 E3.71396
G1 X130.714 Y100.000 E3.98536
G1 X130.416 Y102.450 E4.25676
G1 X129.541 Y104.758 E4.52815
G1 X128.139 Y106.789 E4.79955
G1 X126.291 Y108.426 E5.07095
G1 X124.106 Y109.573 E5.34234
G1 X121.709 Y110.164 E5.61374
G1 X119.241 Y110.164 E5.88514
G1 X116.844 Y109.573 E6.15653
G1 X114.659 Y108.426 E6.42793
G1 X112.811 Y106.789 E6.69933
G1 X111.409 Y104.758 E6.97073
G1 X110.534 Y102.450 E7.24212
G1 X110.236 Y100.000 E7.51351
G1 X110.534 Y97.550 E7.78491
G1 X111.374 Y95.334 E8.04546
G1 X111.995 Y95.550 F7800.000
G1 X113.307 Y93.650 F540.000 E8.29932
G1 X115.035 Y92.119 E8.55317
G1 X117.079 Y91.046 E8.80702
G1 X119.321 Y90.493 E9.06087
G1 X121.629 Y90.493 E9.31472
G1 X123.871 Y91.046 E9.56857
G1 X125.915 Y92.119 E9.82242
G1 X127.643 Y93.650 E10.07628
G1 X128.955 Y95.550 E10.33013
G1 X129.773 Y97.708 E10.58397
G1 X130.052 Y100.000 E10.83783
G1 X129.773 Y102.292 E11.09168
G1 X128.955 Y104.450 E11.34552
G1 X127.643 Y106.350 E11.59938
G1 X125.915 Y107.881 E11.85323
G1 X123.871 Y108.954 E12.10708
G1 X121.629 Y109.507 E12.36093
G1 X119.321 Y109.507 E12.61478
G1 X117.079 Y108.954 E12.86863
G1 X115.035 Y107.881 E13.12248
G1 X113.307 Y106.350 E13.37634
G1 X111.995 Y104.450 E13.63019
G1 X111.177 Y102.292 E13.88403
G1 X110.898 Y100.000 E14.13789
G1 X111.177 Y97.708 E14.39174
G1 X111.960 Y95.642 E14.63475
G1 X112.581 Y95.857 F7800.000
G1 X113.802 Y94.088 F378.000 E14.87105
G1 X115.411 Y92.663 E15.10736
G1 X117.314 Y91.665 E15.34366
G1 X119.400 Y91.150 E15.57997
G1 X121.550 Y91.150 E15.81628
G1 X123.636 Y91.665 E16.05258
G1 X125.539 Y92.663 E16.28888
G1 X127.148 Y94.088 E16.52519
G1 X128.369 Y95.857 E16.76150
G1 X129.131 Y97.867 E16.99780
G1 X129.390 Y100.000 E17.23411
G1 X129.131 Y102.133 E17.47042
G1 X128.369 Y104.143 E17.70672
G1 X127.148 Y105.912 E17.94302
G1 X125.539 Y107.337 E18.17933
G1 X123.636 Y108.335 E18.41563
G1 X121.550 Y108.850 E18.65194
G1 X119.400 Y108.850 E18.88825
G1 X117.314 Y108.335 E19.12455
G1 X115.411 Y107.337 E19.36085
G1 X113.802 Y105.912 E19.59716
G1 X112.581 Y104.143 E19.83347
G1 X111.819 Y102.133 E20.06977
G1 X111.560 Y100.000 E20.30608
G1 X111.819 Y97.867 E20.54239
G1 X112.546 Y95.949 E20.76785
G1 X113.239 Y95.857 F7800.000
G1 F1800.000 E19.76785
G92 E0
G1 X105.958 Y100.000 F7800.000
G1 F1800.000 E1.00000
G1 X102.979 Y105.160 F540.000 E1.65517
G1 X97.021 Y105.160 E2.31034
G1 X94.042 Y100.000 E2.96551
G1 X97.021 Y94.840 E3.62068
G1 X102.979 Y94.840 E4.27584
G1 X105.909 Y99.915 E4.92018
G1 X105.200 Y100.000 F7800.000
G1 X102.600 Y104.503 F540.000 E5.49192
G1 X97.400 Y104.503 E6.06366
G1 X94.800 Y100.000 E6.63541
G1 X97.400 Y95.497 E7.20715
G1 X102.600 Y95.497 E7.77889
G1 X105.150 Y99.915 E8.33980
G1 X104.441 Y100.000 F7800.000
G1 X102.221 Y103.846 F540.000 E8.82811
G1 X97.779 Y103.846 E9.31643
G1 X95.559 Y100.000 E9.80475
G1 X97.779 Y96.154 E10.29306
G1 X102.221 Y96.154 E10.78138
G1 X104.392 Y99.915 E11.25886
G1 X103.824 Y100.225 F7800.000
G1 F1800.000 E10.25886
G92 E0
G1 X96.420 Y110.021 F7800.000
G1 F1800.000 E1.00000
G1 X96.855 Y110.348 F540.000 E1.05985
G1 X98.416 Y112.260 E1.33124
G1 X99.474 Y114.490 E1.60264
G1 X99.968 Y116.908 E1.87404
G1 X99.868 Y119.374 E2.14544
G1 X99.182 Y121.745 E2.41683
G1 X97.948 Y123.883 E2.68823
G1 X96.238 Y125.663 E2.95963
G1 X94.152 Y126.982 E3.23102
G1 X91.810 Y127.763 E3.50242
G1 X89.350 Y127.962 E3.77382
G1 X86.914 Y127.566 E4.04521
G1 X84.643 Y126.599 E4.31660
G1 X82.670 Y125.116 E4.58801
G1 X81.109 Y123.204 E4.85939
G1 X80.051 Y120.974 E5.13079
G1 X79.557 Y118.556 E5.40220
G1 X79.657 Y116.089 E5.67360
G1 X80.343 Y113.719 E5.94498
G1 X81.577 Y111.581 E6.21639
G1 X83.287 Y109.801 E6.48778
G1 X85.373 Y108.482 E6.75917
G1 X87.715 Y107.700 E7.03057
G1 X90.175 Y107.502 E7.30197
G1 X92.611 Y107.898 E7.57336
G1 X94.882 Y108.865 E7.84476
G1 X96.341 Y109.962 E8.04547
G1 X96.025 Y110.546 F7800.000
G1 X96.396 Y110.825 F540.000 E8.09655
G1 X97.857 Y112.613 E8.35039
G1 X98.846 Y114.699 E8.60424
G1 X99.308 Y116.961 E8.85810
G1 X99.215 Y119.268 E9.11196
G1 X98.573 Y121.486 E9.36580
G1 X97.418 Y123.485 E9.61966
G1 X95.819 Y125.150 E9.87351
G1 X93.868 Y126.384 E10.12736
G1 X91.678 Y127.115 E10.38121
G1 X89.377 Y127.301 E10.63506
G1 X87.098 Y126.930 E10.88891
G1 X84.974 Y126.026 E11.14276
G1 X83.129 Y124.639 E11.39661
G1 X81.668 Y122.850 E11.65045
G1 X80.679 Y120.765 E11.90431
G1 X80.217 Y118.502 E12.15817
G1 X80.310 Y116.196 E12.41202
G1 X80.952 Y113.978 E12.66586
G1 X82.107 Y111.979 E12.91972
G1 X83.706 Y110.314 E13.17357
G1 X85.657 Y109.080 E13.42741
G1 X87.847 Y108.349 E13.68127
G1 X90.148 Y108.163 E13.93512
G1 X92.427 Y108.533 E14.18897
G1 X94.551 Y109.438 E14.44282
G1 X95.946 Y110.487 E14.63476
G1 X95.630 Y111.071 F7800.000
G1 X95.938 Y111.303 F378.000 E14.67706
G1 X97.297 Y112.967 E14.91336
G1 X98.218 Y114.909 E15.14967
G1 X98.648 Y117.015 E15.38598
G1 X98.562 Y119.162 E15.62229
G1 X97.964 Y121.226 E15.85859
G1 X96.889 Y123.087 E16.09490
G1 X95.401 Y124.637 E16.33120
G1 X93.584 Y125.786 E16.56751
G1 X91.546 Y126.466 E16.80381
G1 X89.404 Y126.639 E17.04012
G1 X87.282 Y126.295 E17.27642
G1 X85.305 Y125.452 E17.51273
G1 X83.587 Y124.161 E17.74904
G1 X82.228 Y122.497 E17.98533
G1 X81.307 Y120.555 E18.22164
G1 X80.877 Y118.449 E18.45796
G1 X80.963 Y116.302 E18.69426
G1 X81.561 Y114.238 E18.93056
G1 X82.636 Y112.376 E19.16687
G1 X84.124 Y110.826 E19.40318
G1 X85.941 Y109.678 E19.63947
G1 X87.979 Y108.997 E19.87579
G1 X90.121 Y108.824 E20.11209
G1 X92.243 Y109.169 E20.34840
G1 X94.220 Y110.012 E20.58470
G1 X95.552 Y111.012 E20.76786
G1 X95.584 Y111.453 F7800.000
G1 F1800.000 E19.76786
G92 E0
G1 X87.415 Y131.787 F7800.000
G1 F1800.000 E1.00000
G1 X85.444 Y130.934 F540.000 E1.23615
G1 X83.530 Y129.959 E1.47231
G1 X81.681 Y128.866 E1.70847
G1 X79.905 Y127.658 E1.94462
G1 X78.208 Y126.342 E2.18078
G1 X76.597 Y124.922 E2.41693
G1 X75.078 Y123.403 E2.65309
G1 X73.658 Y121.792 E2.88924
G1 X72.342 Y120.095 E3.12540
G1 X71.134 Y118.319 E3.36155
G1 X70.041 Y116.470 E3.59772
G1 X69.066 Y114.556 E3.83386
G1 X68.213 Y112.585 E4.07002
G1 X67.486 Y110.565 E4.30617
G1 X66.886 Y108.502 E4.54233
G1 X66.418 Y106.406 E4.77848
G1 X66.082 Y104.285 E5.01464
G1 X65.880 Y102.147 E5.25079
G1 X65.812 Y100.000 E5.48695
G1 X65.880 Y97.853 E5.72310
G1 X66.082 Y95.715 E5.95926
G1 X66.418 Y93.594 E6.19541
G1 X66.886 Y91.498 E6.43156
G1 X67.486 Y89.435 E6.66772
G1 X68.213 Y87.415 E6.90387
G1 X69.066 Y85.444 E7.14003
G1 X70.041 Y83.530 E7.37618
G1 X71.134 Y81.681 E7.61234
G1 X72.342 Y79.905 E7.84849
G1 X73.658 Y78.208 E8.08465
G1 X75.078 Y76.597 E8.32080
G1 X76.597 Y75.078 E8.55696
G1 X78.208 Y73.658 E8.79311
G1 X79.905 Y72.342 E9.02926
G1 X81.681 Y71.134 E9.26542
G1 X83.530 Y70.041 E9.50158
G1 X85.444 Y69.066 E9.73773
G1 X87.415 Y68.213 E9.97389
G1 X89.435 Y67.486 E10.21005
G1 X91.498 Y66.886 E10.44620
G1 X93.594 Y66.418 E10.68235
G1 X95.715 Y66.082 E10.91851
G1 X97.853 Y65.880 E11.15466
G1 X100.000 Y65.812 E11.39081
G1 X102.147 Y65.880 E11.62697
G1 X104.285 Y66.082 E11.86313
G1 X106.406 Y66.418 E12.09928
G1 X108.502 Y66.886 E12.33543
G1 X110.565 Y67.486 E12.57159
G1 X112.585 Y68.213 E12.80774
G1 X114.556 Y69.066 E13.04390
G1 X116.470 Y70.041 E13.28005
G1 X118.319 Y71.134 E13.51621
G1 X120.095 Y72.342 E13.75237
G1 X121.792 Y73.658 E13.98852
G1 X123.403 Y75.078 E14.22467
G1 X124.922 Y76.597 E14.46083
G1 X126.342 Y78.208 E14.69698
G1 X127.658 Y79.905 E14.93314
G1 X128.866 Y81.681 E15.16929
G1 X129.959 Y83.530 E15.40545
G1 X130.934 Y85.444 E15.64161
G1 X131.787 Y87.415 E15.87776
G1 X132.514 Y89.435 E16.11392
G1 X133.114 Y91.498 E16.35007
G1 X133.582 Y93.594 E16.58623
G1 X133.918 Y95.715 E16.82238
G1 X134.120 Y97.853 E17.05853
G1 X134.188 Y100.000 E17.29469
G1 X134.120 Y102.147 E17.53085
G1 X133.918 Y104.285 E17.76700
G1 X133.582 Y106.406 E18.00315
G1 X133.114 Y108.502 E18.23931
G1 X132.514 Y110.565 E18.47546
G1 X131.787 Y112.585 E18.71161
G1 X130.934 Y114.556 E18.94777
G1 X129.959 Y116.470 E19.18393
G1 X128.866 Y118.319 E19.42009
G1 X127.658 Y120.095 E19.65624
G1 X126.342 Y121.792 E19.89239
G1 X124.922 Y123.403 E20.12854
G1 X123.403 Y124.922 E20.36470
G1 X121.792 Y126.342 E20.60085
G1 X120.095 Y127.658 E20.83701
G1 X118.319 Y128.866 E21.07317
G1 X116.470 Y129.959 E21.30933
G1 X114.556 Y130.934 E21.54547
G1 X112.585 Y131.787 E21.78164
G1 X110.565 Y132.514 E22.01778
G1 X108.502 Y133.114 E22.25395
G1 X106.406 Y133.582 E22.49010
G1 X104.285 Y133.918 E22.72624
G1 X102.147 Y134.120 E22.96242
G1 X100.000 Y134.188 E23.19855
G1 X97.853 Y134.120 E23.43472
G1 X95.715 Y133.918 E23.67087
G1 X93.594 Y133.582 E23.90702
G1 X91.498 Y133.114 E24.14318
G1 X89.435 Y132.514 E24.37933
G1 X87.507 Y131.820 E24.60465
G1 F1800.000 E23.60465
G92 E0
G1 X131.529 Y85.164 F7800.000
G1 F1800.000 E1.00000
G1 X132.398 Y87.173 F540.000 E1.24070
G1 X133.140 Y89.232 E1.48139
G1 X133.750 Y91.334 E1.72208
G1 X134.228 Y93.471 E1.96278
