; generated by Slic3r 0.9.10b on 2014-03-25 at 20:41:20

; layer_height = 0.4
; perimeters = 2
; top_solid_layers = 3
; bottom_solid_layers = 3
; fill_density = 0.2
; perimeter_speed = 30
; infill_speed = 60
; travel_speed = 130
; nozzle_diameter = 0.4
; filament_diameter = 1.75
; extrusion_multiplier = 1.0
; perimeters extrusion width = 0.42mm
; infill extrusion width = 0.42mm
; solid infill extrusion width = 0.42mm
; top infill extrusion width = 0.42mm
; first layer extrusion width = 0.70mm

G21 ; set units to millimeters
M107 ; disable fan
M190 S60 ; wait for bed temperature to be reached
M104 S175 ; set temperature
G28 ; home all axes
G1 Z5 F5000 ; lift nozzle
M109 S175 ; wait for temperature to be reached
G90 ; use absolute coordinates
G92 E0 ; reset extrusion distance
M82 ; use absolute distances for extrusion
G1 F1800.000 E-1.00000 ; retract
G92 E0 ; reset extrusion distance
G1 Z-0.250 F7800.000 ; move to next layer (0)
G1 X64.630 Y63.580 ; move to first skirt point
G1 F1800.000 E1.00000 ; compensate retraction
G1 X65.850 Y62.720 F540.000 E1.13806 ; skirt
G1 X67.200 Y62.090 E1.27585 ; skirt
G1 X68.640 Y61.710 E1.41359 ; skirt
G1 X70.120 Y61.580 E1.55101 ; skirt
G1 X129.870 Y61.580 E7.07734 ; skirt
G1 X131.350 Y61.710 E7.21475 ; skirt
G1 X132.790 Y62.090 E7.35250 ; skirt
G1 X134.140 Y62.720 E7.49029 ; skirt
G1 X135.360 Y63.580 E7.62835 ; skirt
G1 X136.410 Y64.630 E7.76569 ; skirt
G1 X137.270 Y65.850 E7.90375 ; skirt
G1 X137.900 Y67.200 E8.04154 ; skirt
G1 X138.280 Y68.640 E8.17928 ; skirt
G1 X138.410 Y70.120 E8.31670 ; skirt
G1 X138.410 Y129.870 E13.84303 ; skirt
G1 X138.280 Y131.350 E13.98044 ; skirt
G1 X137.900 Y132.790 E14.11819 ; skirt
G1 X137.270 Y134.140 E14.25598 ; skirt
G1 X136.410 Y135.360 E14.39404 ; skirt
G1 X135.360 Y136.410 E14.53138 ; skirt
G1 X134.140 Y137.270 E14.66943 ; skirt
G1 X132.790 Y137.900 E14.80722 ; skirt
G1 X131.350 Y138.280 E14.94497 ; skirt
G1 X129.870 Y138.410 E15.08238 ; skirt
G1 X70.120 Y138.410 E20.60872 ; skirt
G1 X68.640 Y138.280 E20.74613 ; skirt
G1 X67.200 Y137.900 E20.88388 ; skirt
G1 X65.850 Y137.270 E21.02167 ; skirt
G1 X64.630 Y136.410 E21.15973 ; skirt
G1 X63.580 Y135.360 E21.29707 ; skirt
G1 X62.720 Y134.140 E21.43512 ; skirt
G1 X62.090 Y132.790 E21.57291 ; skirt
G1 X61.710 Y131.350 E21.71066 ; skirt
G1 X61.580 Y129.870 E21.84807 ; skirt
G1 X61.580 Y70.120 E27.37441 ; skirt
G1 X61.710 Y68.640 E27.51182 ; skirt
G1 X62.090 Y67.200 E27.64957 ; skirt
G1 X62.720 Y65.850 E27.78736 ; skirt
G1 X63.580 Y64.630 E27.92541 ; skirt
G1 X64.563 Y63.647 E28.05394 ; skirt
G1 X65.040 Y64.060 F7800.000 ; move to first skirt point
G1 X66.170 Y63.270 F540.000 E28.18146 ; skirt
G1 X67.420 Y62.690 E28.30891 ; skirt
G1 X68.750 Y62.330 E28.43635 ; skirt
G1 X70.120 Y62.210 E28.56355 ; skirt
G1 X129.870 Y62.210 E34.08989 ; skirt
G1 X131.240 Y62.330 E34.21708 ; skirt
G1 X132.570 Y62.690 E34.34452 ; skirt
G1 X133.820 Y63.270 E34.47198 ; skirt
G1 X134.950 Y64.060 E34.59950 ; skirt
G1 X135.930 Y65.040 E34.72769 ; skirt
G1 X136.720 Y66.170 E34.85521 ; skirt
G1 X137.300 Y67.420 E34.98266 ; skirt
G1 X137.660 Y68.750 E35.11010 ; skirt
G1 X137.780 Y70.120 E35.23730 ; skirt
G1 X137.780 Y129.870 E40.76363 ; skirt
G1 X137.660 Y131.240 E40.89083 ; skirt
G1 X137.300 Y132.570 E41.01827 ; skirt
G1 X136.720 Y133.820 E41.14572 ; skirt
G1 X135.930 Y134.950 E41.27325 ; skirt
G1 X134.950 Y135.930 E41.40143 ; skirt
G1 X133.820 Y136.720 E41.52896 ; skirt
G1 X132.570 Y137.300 E41.65641 ; skirt
G1 X131.240 Y137.660 E41.78385 ; skirt
G1 X129.870 Y137.780 E41.91105 ; skirt
G1 X70.120 Y137.780 E47.43738 ; skirt
G1 X68.750 Y137.660 E47.56458 ; skirt
G1 X67.420 Y137.300 E47.69202 ; skirt
G1 X66.170 Y136.720 E47.81947 ; skirt
G1 X65.040 Y135.930 E47.94700 ; skirt
G1 X64.060 Y134.950 E48.07518 ; skirt
G1 X63.270 Y133.820 E48.20271 ; skirt
G1 X62.690 Y132.570 E48.33016 ; skirt
G1 X62.330 Y131.240 E48.45760 ; skirt
G1 X62.210 Y129.870 E48.58480 ; skirt
G1 X62.210 Y70.120 E54.11113 ; skirt
G1 X62.330 Y68.750 E54.23833 ; skirt
G1 X62.690 Y67.420 E54.36577 ; skirt
G1 X63.270 Y66.170 E54.49322 ; skirt
G1 X64.060 Y65.040 E54.62075 ; skirt
G1 X64.973 Y64.127 E54.74011 ; skirt
G1 X64.980 Y64.980 F7800.000 ; move to first skirt point
G1 X66.080 Y64.070 F540.000 E54.87215 ; skirt
G1 X67.340 Y63.400 E55.00414 ; skirt
G1 X68.700 Y62.990 E55.13552 ; skirt
G1 X70.120 Y62.850 E55.26750 ; skirt
G1 X129.870 Y62.850 E60.79383 ; skirt
G1 X131.290 Y62.990 E60.92581 ; skirt
G1 X132.650 Y63.400 E61.05719 ; skirt
G1 X133.910 Y64.070 E61.18918 ; skirt
G1 X135.010 Y64.980 E61.32122 ; skirt
G1 X135.920 Y66.080 E61.45326 ; skirt
G1 X136.590 Y67.340 E61.58525 ; skirt
G1 X137.000 Y68.700 E61.71663 ; skirt
G1 X137.140 Y70.120 E61.84860 ; skirt
G1 X137.140 Y129.870 E67.37494 ; skirt
G1 X137.000 Y131.290 E67.50691 ; skirt
G1 X136.590 Y132.650 E67.63829 ; skirt
G1 X135.920 Y133.910 E67.77028 ; skirt
G1 X135.010 Y135.010 E67.90232 ; skirt
G1 X133.910 Y135.920 E68.03437 ; skirt
G1 X132.650 Y136.590 E68.16636 ; skirt
G1 X131.290 Y137.000 E68.29774 ; skirt
G1 X129.870 Y137.140 E68.42971 ; skirt
G1 X70.120 Y137.140 E73.95604 ; skirt
G1 X68.700 Y137.000 E74.08802 ; skirt
G1 X67.340 Y136.590 E74.21940 ; skirt
G1 X66.080 Y135.920 E74.35139 ; skirt
G1 X64.980 Y135.010 E74.48343 ; skirt
G1 X64.070 Y133.910 E74.61547 ; skirt
G1 X63.400 Y132.650 E74.74746 ; skirt
G1 X62.990 Y131.290 E74.87884 ; skirt
G1 X62.850 Y129.870 E75.01081 ; skirt
G1 X62.850 Y70.120 E80.53715 ; skirt
G1 X62.990 Y68.700 E80.66912 ; skirt
G1 X63.400 Y67.340 E80.80050 ; skirt
G1 X64.070 Y66.080 E80.93249 ; skirt
G1 X64.919 Y65.053 E81.05572 ; skirt
G1 X65.430 Y65.430 F7800.000 ; move to first skirt point
G1 X66.430 Y64.600 F540.000 E81.17592 ; skirt
G1 X67.580 Y63.990 E81.29632 ; skirt
G1 X68.830 Y63.610 E81.41715 ; skirt
G1 X70.120 Y63.480 E81.53707 ; skirt
G1 X129.870 Y63.480 E87.06341 ; skirt
G1 X131.160 Y63.610 E87.18332 ; skirt
G1 X132.410 Y63.990 E87.30416 ; skirt
G1 X133.560 Y64.600 E87.42456 ; skirt
G1 X134.560 Y65.430 E87.54476 ; skirt
G1 X135.390 Y66.430 E87.66496 ; skirt
G1 X136.000 Y67.580 E87.78536 ; skirt
G1 X136.380 Y68.830 E87.90620 ; skirt
G1 X136.510 Y70.120 E88.02612 ; skirt
G1 X136.510 Y129.870 E93.55245 ; skirt
G1 X136.380 Y131.160 E93.67237 ; skirt
G1 X136.000 Y132.410 E93.79321 ; skirt
G1 X135.390 Y133.560 E93.91361 ; skirt
G1 X134.560 Y134.560 E94.03381 ; skirt
G1 X133.560 Y135.390 E94.15401 ; skirt
G1 X132.410 Y136.000 E94.27441 ; skirt
G1 X131.160 Y136.380 E94.39525 ; skirt
G1 X129.870 Y136.510 E94.51517 ; skirt
G1 X70.120 Y136.510 E100.04150 ; skirt
G1 X68.830 Y136.380 E100.16142 ; skirt
G1 X67.580 Y136.000 E100.28226 ; skirt
G1 X66.430 Y135.390 E100.40266 ; skirt
G1 X65.430 Y134.560 E100.52286 ; skirt
G1 X64.600 Y133.560 E100.64306 ; skirt
G1 X63.990 Y132.410 E100.76346 ; skirt
G1 X63.610 Y131.160 E100.88430 ; skirt
G1 X63.480 Y129.870 E101.00421 ; skirt
G1 X63.480 Y70.120 E106.53055 ; skirt
G1 X63.610 Y68.830 E106.65047 ; skirt
G1 X63.990 Y67.580 E106.77130 ; skirt
G1 X64.600 Y66.430 E106.89171 ; skirt
G1 X65.369 Y65.503 E107.00309 ; skirt
G1 F1800.000 E106.00309 ; retract
G92 E0 ; reset extrusion distance
G1 X71.077 Y128.923 F7800.000 ; move to first perimeter point
G1 F1800.000 E1.00000 ; compensate retraction
G1 X71.077 Y71.077 F540.000 E6.35017 ; perimeter
G1 X128.923 Y71.077 E11.70034 ; perimeter
G1 X128.923 Y128.923 E17.05051 ; perimeter
G1 X71.173 Y128.923 E22.39186 ; perimeter
G1 X70.442 Y129.558 F7800.000 ; move to first perimeter point
G1 X70.442 Y70.442 F378.000 E27.85961 ; perimeter
G1 X129.558 Y70.442 E33.32736 ; perimeter
G1 X129.558 Y129.558 E38.79511 ; perimeter
G1 X70.537 Y129.558 E44.25404 ; perimeter
G1 X70.760 Y129.008 F7800.000 ; move inwards before travel
G1 X71.593 Y128.462 ; move to first fill point
G1 X71.538 Y128.407 F1080.000 E44.26120 ; fill
G1 X71.538 Y127.505 E44.34504 ; fill
G1 X72.495 Y128.462 E44.47077 ; fill
G1 X73.398 Y128.462 E44.55461 ; fill
G1 X71.538 Y126.602 E44.79891 ; fill
G1 X71.538 Y125.699 E44.88276 ; fill
G1 X74.301 Y128.462 E45.24563 ; fill
G1 X75.203 Y128.462 E45.32947 ; fill
G1 X71.538 Y124.797 E45.81092 ; fill
G1 X71.538 Y123.894 E45.89476 ; fill
G1 X76.106 Y128.462 E46.49478 ; fill
G1 X77.009 Y128.462 E46.57862 ; fill
G1 X71.538 Y122.991 E47.29721 ; fill
G1 X71.538 Y122.089 E47.38105 ; fill
G1 X77.911 Y128.462 E48.21821 ; fill
G1 X78.814 Y128.462 E48.30205 ; fill
G1 X71.538 Y121.186 E49.25778 ; fill
G1 X71.538 Y120.283 E49.34162 ; fill
G1 X79.717 Y128.462 E50.41592 ; fill
G1 X80.619 Y128.462 E50.49977 ; fill
G1 X71.538 Y119.381 E51.69264 ; fill
G1 X71.538 Y118.478 E51.77648 ; fill
G1 X81.522 Y128.462 E53.08793 ; fill
G1 X82.425 Y128.462 E53.17177 ; fill
G1 X71.538 Y117.575 E54.60178 ; fill
G1 X71.538 Y116.672 E54.68563 ; fill
G1 X83.328 Y128.462 E56.23421 ; fill
G1 X84.230 Y128.462 E56.31805 ; fill
G1 X71.538 Y115.770 E57.98521 ; fill
G1 X71.538 Y114.867 E58.06905 ; fill
G1 X85.133 Y128.462 E59.85478 ; fill
G1 X86.036 Y128.462 E59.93863 ; fill
G1 X71.538 Y113.964 E61.84293 ; fill
G1 X71.538 Y113.062 E61.92677 ; fill
G1 X86.938 Y128.462 E63.94964 ; fill
G1 X87.841 Y128.462 E64.03348 ; fill
G1 X71.538 Y112.159 E66.17492 ; fill
G1 X71.538 Y111.256 E66.25877 ; fill
G1 X88.744 Y128.462 E68.51878 ; fill
G1 X89.646 Y128.462 E68.60262 ; fill
G1 X71.538 Y110.354 E70.98121 ; fill
G1 X71.538 Y109.451 E71.06505 ; fill
G1 X90.549 Y128.462 E73.56221 ; fill
G1 X91.452 Y128.462 E73.64605 ; fill
G1 X71.538 Y108.548 E76.26178 ; fill
G1 X71.538 Y107.646 E76.34562 ; fill
G1 X92.354 Y128.462 E79.07992 ; fill
G1 X93.257 Y128.462 E79.16376 ; fill
G1 X71.538 Y106.743 E82.01663 ; fill
G1 X71.538 Y105.840 E82.10047 ; fill
G1 X94.160 Y128.462 E85.07192 ; fill
G1 X95.062 Y128.462 E85.15576 ; fill
G1 X71.538 Y104.938 E88.24577 ; fill
G1 X71.538 Y104.035 E88.32961 ; fill
G1 X95.965 Y128.462 E91.53820 ; fill
G1 X96.868 Y128.462 E91.62204 ; fill
G1 X71.538 Y103.132 E94.94920 ; fill
G1 X71.538 Y102.229 E95.03304 ; fill
G1 X97.771 Y128.462 E98.47876 ; fill
G1 X98.673 Y128.462 E98.56261 ; fill
G1 X71.538 Y101.327 E102.12691 ; fill
G1 X71.538 Y100.424 E102.21075 ; fill
G1 X99.576 Y128.462 E105.89362 ; fill
G1 X100.479 Y128.462 E105.97746 ; fill
G1 X71.538 Y99.521 E109.77890 ; fill
G1 X71.538 Y98.619 E109.86274 ; fill
G1 X101.381 Y128.462 E113.78275 ; fill
G1 X102.284 Y128.462 E113.86660 ; fill
G1 X71.538 Y97.716 E117.90518 ; fill
G1 X71.538 Y96.813 E117.98902 ; fill
G1 X103.187 Y128.462 E122.14618 ; fill
G1 X104.089 Y128.462 E122.23002 ; fill
G1 X71.538 Y95.911 E126.50574 ; fill
G1 X71.538 Y95.008 E126.58959 ; fill
G1 X104.992 Y128.462 E130.98388 ; fill
G1 X105.895 Y128.462 E131.06773 ; fill
G1 X71.538 Y94.105 E135.58059 ; fill
G1 X71.538 Y93.203 E135.66444 ; fill
G1 X106.797 Y128.462 E140.29588 ; fill
G1 X107.700 Y128.462 E140.37972 ; fill
G1 X71.538 Y92.300 E145.12973 ; fill
G1 X71.538 Y91.397 E145.21357 ; fill
G1 X108.603 Y128.462 E150.08215 ; fill
G1 X109.506 Y128.462 E150.16600 ; fill
G1 X71.538 Y90.494 E155.15315 ; fill
G1 X71.538 Y89.592 E155.23699 ; fill
G1 X110.408 Y128.462 E160.34272 ; fill
G1 X111.311 Y128.462 E160.42656 ; fill
G1 X71.538 Y88.689 E165.65085 ; fill
G1 X71.538 Y87.786 E165.73470 ; fill
G1 X112.214 Y128.462 E171.07756 ; fill
G1 X113.116 Y128.462 E171.16141 ; fill
G1 X71.538 Y86.884 E176.62284 ; fill
G1 X71.538 Y85.981 E176.70669 ; fill
G1 X114.019 Y128.462 E182.28670 ; fill
G1 X114.922 Y128.462 E182.37054 ; fill
G1 X71.538 Y85.078 E188.06912 ; fill
G1 X71.538 Y84.176 E188.15296 ; fill
G1 X115.824 Y128.462 E193.97011 ; fill
G1 X116.727 Y128.462 E194.05396 ; fill
G1 X71.538 Y83.273 E199.98968 ; fill
G1 X71.538 Y82.370 E200.07352 ; fill
G1 X117.630 Y128.462 E206.12782 ; fill
G1 X118.532 Y128.462 E206.21166 ; fill
G1 X71.538 Y81.468 E212.38452 ; fill
G1 X71.538 Y80.565 E212.46837 ; fill
G1 X119.435 Y128.462 E218.75980 ; fill
G1 X120.338 Y128.462 E218.84365 ; fill
G1 X71.538 Y79.662 E225.25365 ; fill
G1 X71.538 Y78.759 E225.33750 ; fill
G1 X121.240 Y128.462 E231.86608 ; fill
G1 X122.143 Y128.462 E231.94992 ; fill
G1 X71.538 Y77.857 E238.59707 ; fill
G1 X71.538 Y76.954 E238.68091 ; fill
G1 X123.046 Y128.462 E245.44663 ; fill
G1 X123.949 Y128.462 E245.53048 ; fill
G1 X71.538 Y76.051 E252.41477 ; fill
G1 X71.538 Y75.149 E252.49861 ; fill
G1 X124.851 Y128.462 E259.50148 ; fill
G1 X125.754 Y128.462 E259.58532 ; fill
G1 X71.538 Y74.246 E266.70676 ; fill
G1 X71.538 Y73.343 E266.79060 ; fill
G1 X126.657 Y128.462 E274.03061 ; fill
G1 X127.559 Y128.462 E274.11445 ; fill
G1 X71.538 Y72.441 E281.47303 ; fill
G1 X71.538 Y71.538 E281.55686 ; fill
G1 X128.462 Y128.462 E289.03400 ; fill
G1 X128.462 Y127.559 E289.11784 ; fill
G1 X72.441 Y71.538 E296.47640 ; fill
G1 X73.343 Y71.538 E296.56024 ; fill
G1 X128.462 Y126.657 E303.80024 ; fill
G1 X128.462 Y125.754 E303.88408 ; fill
G1 X74.246 Y71.538 E311.00550 ; fill
G1 X75.149 Y71.538 E311.08934 ; fill
G1 X128.462 Y124.851 E318.09219 ; fill
G1 X128.462 Y123.948 E318.17603 ; fill
G1 X76.052 Y71.538 E325.06031 ; fill
G1 X76.954 Y71.538 E325.14415 ; fill
G1 X128.462 Y123.046 E331.90986 ; fill
G1 X128.462 Y122.143 E331.99370 ; fill
G1 X77.857 Y71.538 E338.64084 ; fill
G1 X78.760 Y71.538 E338.72468 ; fill
G1 X128.462 Y121.240 E345.25324 ; fill
G1 X128.462 Y120.338 E345.33709 ; fill
G1 X79.662 Y71.538 E351.74708 ; fill
G1 X80.565 Y71.538 E351.83092 ; fill
G1 X128.462 Y119.435 E358.12234 ; fill
G1 X128.462 Y118.532 E358.20618 ; fill
G1 X81.468 Y71.538 E364.37903 ; fill
G1 X82.370 Y71.538 E364.46288 ; fill
G1 X128.462 Y117.630 E370.51716 ; fill
G1 X128.462 Y116.727 E370.60100 ; fill
G1 X83.273 Y71.538 E376.53671 ; fill
G1 X84.176 Y71.538 E376.62055 ; fill
G1 X128.462 Y115.824 E382.43768 ; fill
G1 X128.462 Y114.922 E382.52153 ; fill
G1 X85.078 Y71.538 E388.22009 ; fill
G1 X85.981 Y71.538 E388.30393 ; fill
G1 X128.462 Y114.019 E393.88393 ; fill
G1 X128.462 Y113.116 E393.96777 ; fill
G1 X86.884 Y71.538 E399.42919 ; fill
G1 X87.787 Y71.538 E399.51304 ; fill
G1 X128.462 Y112.213 E404.85589 ; fill
G1 X128.462 Y111.311 E404.93973 ; fill
G1 X88.689 Y71.538 E410.16401 ; fill
G1 X89.592 Y71.538 E410.24785 ; fill
G1 X128.462 Y110.408 E415.35356 ; fill
G1 X128.462 Y109.505 E415.43740 ; fill
G1 X90.495 Y71.538 E420.42454 ; fill
G1 X91.397 Y71.538 E420.50838 ; fill
G1 X128.462 Y108.603 E425.37695 ; fill
G1 X128.462 Y107.700 E425.46079 ; fill
G1 X92.300 Y71.538 E430.21079 ; fill
G1 X93.203 Y71.538 E430.29463 ; fill
G1 X128.462 Y106.797 E434.92605 ; fill
G1 X128.462 Y105.895 E435.00989 ; fill
G1 X94.105 Y71.538 E439.52275 ; fill
G1 X95.008 Y71.538 E439.60659 ; fill
G1 X128.462 Y104.992 E444.00087 ; fill
G1 X128.462 Y104.089 E444.08471 ; fill
G1 X95.911 Y71.538 E448.36042 ; fill
G1 X96.813 Y71.538 E448.44426 ; fill
G1 X128.462 Y103.187 E452.60140 ; fill
G1 X128.462 Y102.284 E452.68525 ; fill
G1 X97.716 Y71.538 E456.72381 ; fill
G1 X98.619 Y71.538 E456.80766 ; fill
G1 X128.462 Y101.381 E460.72765 ; fill
G1 X128.462 Y100.479 E460.81149 ; fill
G1 X99.521 Y71.538 E464.61292 ; fill
G1 X100.424 Y71.538 E464.69676 ; fill
G1 X128.462 Y99.576 E468.37961 ; fill
G1 X128.462 Y98.673 E468.46346 ; fill
G1 X101.327 Y71.538 E472.02774 ; fill
G1 X102.230 Y71.538 E472.11158 ; fill
G1 X128.462 Y97.770 E475.55729 ; fill
G1 X128.462 Y96.868 E475.64113 ; fill
G1 X103.132 Y71.538 E478.96827 ; fill
G1 X104.035 Y71.538 E479.05212 ; fill
G1 X128.462 Y95.965 E482.26068 ; fill
G1 X128.462 Y95.062 E482.34453 ; fill
G1 X104.938 Y71.538 E485.43452 ; fill
G1 X105.840 Y71.538 E485.51837 ; fill
G1 X128.462 Y94.160 E488.48979 ; fill
G1 X128.462 Y93.257 E488.57363 ; fill
G1 X106.743 Y71.538 E491.42649 ; fill
G1 X107.646 Y71.538 E491.51033 ; fill
G1 X128.462 Y92.354 E494.24461 ; fill
G1 X128.462 Y91.452 E494.32846 ; fill
G1 X108.548 Y71.538 E496.94417 ; fill
G1 X109.451 Y71.538 E497.02801 ; fill
G1 X128.462 Y90.549 E499.52515 ; fill
G1 X128.462 Y89.646 E499.60899 ; fill
G1 X110.354 Y71.538 E501.98756 ; fill
G1 X111.256 Y71.538 E502.07141 ; fill
G1 X128.462 Y88.744 E504.33140 ; fill
G1 X128.462 Y87.841 E504.41525 ; fill
G1 X112.159 Y71.538 E506.55667 ; fill
G1 X113.062 Y71.538 E506.64052 ; fill
G1 X128.462 Y86.938 E508.66337 ; fill
