; generated by Slic3r 0.9.10b on 2014-03-27 at 00:16:15

; layer_height = 0.4
; perimeters = 2
; top_solid_layers = 3
; bottom_solid_layers = 3
; fill_density = 0.2
; perimeter_speed = 30
; infill_speed = 60
; travel_speed = 130
; nozzle_diameter = 0.4
; filament_diameter = 1.75
; extrusion_multiplier = 1.1
; perimeters extrusion width = 0.42mm
; infill extrusion width = 0.42mm
; solid infill extrusion width = 0.42mm
; top infill extrusion width = 0.42mm
; first layer extrusion width = 0.70mm

G21 ; set units to millimeters
M107 ; disable fan
M190 S60 ; wait for bed temperature to be reached
M104 S175 ; set temperature
G28 ; home all axes
G1 Z5 F5000 ; lift nozzle
M109 S175 ; wait for temperature to be reached
G90 ; use absolute coordinates
G92 E0 ; reset extrusion distance
M82 ; use absolute distances for extrusion
G1 F1800.000 E-1.00000 ; retract
G92 E0 ; reset extrusion distance
G1 Z-0.350 F7800.000 ; move to next layer (0)
G1 X78.681 Y78.901 ; move to first skirt point
G1 F1800.000 E1.00000 ; compensate retraction
G1 X79.711 Y77.901 F540.000 E1.14606 ; skirt
G1 X80.111 Y77.541 E1.20081 ; skirt
G1 X81.311 Y76.531 E1.36038 ; skirt
G1 X82.561 Y75.591 E1.51951 ; skirt
G1 X83.841 Y74.731 E1.67640 ; skirt
G1 X85.181 Y73.921 E1.83570 ; skirt
G1 X86.591 Y73.161 E1.99866 ; skirt
G1 X87.601 Y72.681 E2.11244 ; skirt
G1 X89.431 Y71.931 E2.31365 ; skirt
G1 X90.991 Y71.381 E2.48194 ; skirt
G1 X92.061 Y71.071 E2.59528 ; skirt
G1 X94.021 Y70.601 E2.80034 ; skirt
G1 X95.501 Y70.341 E2.95322 ; skirt
G1 X97.071 Y70.141 E3.11425 ; skirt
G1 X98.191 Y70.051 E3.22856 ; skirt
G1 X99.621 Y70.011 E3.37411 ; skirt
G1 X101.801 Y70.051 E3.59594 ; skirt
G1 X102.921 Y70.141 E3.71025 ; skirt
G1 X104.491 Y70.341 E3.87128 ; skirt
G1 X105.981 Y70.611 E4.02534 ; skirt
G1 X107.591 Y70.991 E4.19364 ; skirt
G1 X108.981 Y71.381 E4.34052 ; skirt
G1 X109.501 Y71.551 E4.39618 ; skirt
G1 X110.941 Y72.081 E4.55229 ; skirt
G1 X112.391 Y72.681 E4.71195 ; skirt
G1 X113.401 Y73.161 E4.82572 ; skirt
G1 X114.811 Y73.921 E4.98869 ; skirt
G1 X116.511 Y74.961 E5.19144 ; skirt
G1 X117.791 Y75.851 E5.35006 ; skirt
G1 X118.681 Y76.531 E5.46401 ; skirt
G1 X119.881 Y77.541 E5.62358 ; skirt
G1 X121.091 Y78.681 E5.79272 ; skirt
G1 X122.121 Y79.751 E5.94382 ; skirt
G1 X122.441 Y80.111 E5.99283 ; skirt
G1 X123.171 Y80.971 E6.10760 ; skirt
G1 X124.401 Y82.561 E6.31212 ; skirt
G1 X125.261 Y83.841 E6.46901 ; skirt
G1 X126.101 Y85.241 E6.63512 ; skirt
G1 X126.791 Y86.531 E6.78396 ; skirt
G1 X127.281 Y87.541 E6.89817 ; skirt
G1 X127.481 Y88.011 E6.95014 ; skirt
G1 X128.091 Y89.491 E7.11300 ; skirt
G1 X128.461 Y90.551 E7.22722 ; skirt
G1 X129.021 Y92.461 E7.42973 ; skirt
G1 X129.281 Y93.551 E7.54374 ; skirt
G1 X129.661 Y95.571 E7.75286 ; skirt
G1 X129.801 Y96.681 E7.86668 ; skirt
G1 X129.931 Y98.191 E8.02088 ; skirt
G1 X129.981 Y99.761 E8.18069 ; skirt
G1 X129.931 Y101.801 E8.38830 ; skirt
G1 X129.801 Y103.311 E8.54250 ; skirt
G1 X129.661 Y104.421 E8.65632 ; skirt
G1 X129.571 Y104.951 E8.71102 ; skirt
G1 X129.281 Y106.431 E8.86446 ; skirt
G1 X129.021 Y107.521 E8.97846 ; skirt
G1 X128.461 Y109.441 E9.18195 ; skirt
G1 X128.091 Y110.501 E9.29617 ; skirt
G1 X127.281 Y112.451 E9.51100 ; skirt
G1 X126.791 Y113.461 E9.62521 ; skirt
G1 X125.851 Y115.191 E9.82552 ; skirt
G1 X125.261 Y116.151 E9.94017 ; skirt
G1 X124.401 Y117.431 E10.09706 ; skirt
G1 X123.411 Y118.721 E10.26250 ; skirt
G1 X122.441 Y119.881 E10.41634 ; skirt
G1 X121.351 Y121.051 E10.57903 ; skirt
G1 X120.241 Y122.121 E10.73589 ; skirt
G1 X119.881 Y122.441 E10.78489 ; skirt
G1 X119.021 Y123.171 E10.89966 ; skirt
G1 X117.431 Y124.401 E11.10418 ; skirt
G1 X116.151 Y125.261 E11.26107 ; skirt
G1 X114.751 Y126.101 E11.42718 ; skirt
G1 X113.461 Y126.791 E11.57602 ; skirt
G1 X112.451 Y127.281 E11.69023 ; skirt
G1 X111.981 Y127.481 E11.74220 ; skirt
G1 X110.501 Y128.091 E11.90506 ; skirt
G1 X109.441 Y128.461 E12.01929 ; skirt
G1 X107.971 Y128.901 E12.17540 ; skirt
G1 X106.431 Y129.281 E12.33678 ; skirt
G1 X104.421 Y129.661 E12.54490 ; skirt
G1 X103.311 Y129.801 E12.65872 ; skirt
G1 X101.801 Y129.931 E12.81292 ; skirt
G1 X100.221 Y129.981 E12.97375 ; skirt
G1 X98.191 Y129.931 E13.18035 ; skirt
G1 X96.681 Y129.801 E13.33454 ; skirt
G1 X95.571 Y129.661 E13.44837 ; skirt
G1 X95.051 Y129.571 E13.50206 ; skirt
G1 X93.551 Y129.281 E13.65749 ; skirt
G1 X92.461 Y129.021 E13.77150 ; skirt
G1 X90.551 Y128.461 E13.97401 ; skirt
G1 X89.491 Y128.091 E14.08823 ; skirt
G1 X87.541 Y127.281 E14.30306 ; skirt
G1 X86.531 Y126.791 E14.41727 ; skirt
G1 X84.801 Y125.851 E14.61759 ; skirt
G1 X83.841 Y125.261 E14.73223 ; skirt
G1 X82.561 Y124.401 E14.88912 ; skirt
G1 X81.271 Y123.411 E15.05456 ; skirt
G1 X80.111 Y122.441 E15.20840 ; skirt
G1 X78.941 Y121.351 E15.37109 ; skirt
G1 X77.901 Y120.281 E15.52290 ; skirt
G1 X77.541 Y119.881 E15.57765 ; skirt
G1 X76.531 Y118.681 E15.73723 ; skirt
G1 X75.851 Y117.791 E15.85118 ; skirt
G1 X74.961 Y116.511 E16.00979 ; skirt
G1 X74.141 Y115.191 E16.16789 ; skirt
G1 X73.381 Y113.821 E16.32729 ; skirt
G1 X73.151 Y113.371 E16.37871 ; skirt
G1 X72.411 Y111.761 E16.55898 ; skirt
G1 X71.931 Y110.561 E16.69047 ; skirt
G1 X71.381 Y108.981 E16.86068 ; skirt
G1 X70.991 Y107.591 E17.00756 ; skirt
G1 X70.611 Y105.981 E17.17587 ; skirt
G1 X70.341 Y104.491 E17.32993 ; skirt
G1 X70.141 Y102.921 E17.49095 ; skirt
G1 X70.051 Y101.801 E17.60527 ; skirt
G1 X70.011 Y100.141 E17.77420 ; skirt
G1 X70.051 Y98.191 E17.97264 ; skirt
G1 X70.141 Y97.071 E18.08695 ; skirt
G1 X70.341 Y95.501 E18.24798 ; skirt
G1 X70.601 Y94.021 E18.40086 ; skirt
G1 X71.071 Y92.061 E18.60592 ; skirt
G1 X71.381 Y90.991 E18.71926 ; skirt
G1 X72.061 Y89.091 E18.92457 ; skirt
G1 X72.591 Y87.811 E19.06552 ; skirt
G1 X73.381 Y86.171 E19.25073 ; skirt
G1 X74.141 Y84.801 E19.41012 ; skirt
G1 X74.961 Y83.481 E19.56822 ; skirt
G1 X75.851 Y82.201 E19.72684 ; skirt
G1 X76.531 Y81.311 E19.84079 ; skirt
G1 X77.541 Y80.111 E20.00036 ; skirt
G1 X78.615 Y78.970 E20.15980 ; skirt
G1 X79.131 Y79.351 F7800.000 ; move to first skirt point
G1 X80.521 Y78.021 F540.000 E20.35553 ; skirt
G1 X81.381 Y77.291 E20.47030 ; skirt
G1 X82.921 Y76.121 E20.66707 ; skirt
G1 X84.171 Y75.271 E20.82086 ; skirt
G1 X85.481 Y74.481 E20.97650 ; skirt
G1 X86.471 Y73.941 E21.09123 ; skirt
G1 X88.251 Y73.091 E21.29192 ; skirt
G1 X89.291 Y72.661 E21.40641 ; skirt
G1 X90.701 Y72.151 E21.55896 ; skirt
G1 X91.171 Y72.001 E21.60916 ; skirt
G1 X92.541 Y71.611 E21.75408 ; skirt
G1 X94.131 Y71.231 E21.92040 ; skirt
G1 X95.581 Y70.971 E22.07028 ; skirt
G1 X96.691 Y70.821 E22.18423 ; skirt
G1 X98.701 Y70.661 E22.38938 ; skirt
G1 X99.631 Y70.641 E22.48402 ; skirt
G1 X101.261 Y70.661 E22.64987 ; skirt
G1 X103.301 Y70.821 E22.85805 ; skirt
G1 X104.411 Y70.971 E22.97201 ; skirt
G1 X105.861 Y71.231 E23.12189 ; skirt
G1 X107.721 Y71.681 E23.31658 ; skirt
G1 X108.801 Y71.991 E23.43090 ; skirt
G1 X110.701 Y72.661 E23.63587 ; skirt
G1 X111.741 Y73.091 E23.75037 ; skirt
G1 X113.521 Y73.941 E23.95106 ; skirt
G1 X114.861 Y74.681 E24.10679 ; skirt
G1 X115.821 Y75.271 E24.22144 ; skirt
G1 X117.071 Y76.121 E24.37523 ; skirt
G1 X118.611 Y77.291 E24.57200 ; skirt
G1 X119.471 Y78.021 E24.68677 ; skirt
G1 X120.641 Y79.131 E24.85085 ; skirt
G1 X121.961 Y80.521 E25.04587 ; skirt
G1 X122.691 Y81.381 E25.16064 ; skirt
G1 X123.871 Y82.921 E25.35803 ; skirt
G1 X124.721 Y84.171 E25.51182 ; skirt
G1 X125.311 Y85.131 E25.62646 ; skirt
G1 X126.071 Y86.531 E25.78853 ; skirt
G1 X126.901 Y88.251 E25.98283 ; skirt
G1 X127.491 Y89.701 E26.14210 ; skirt
G1 X127.971 Y91.101 E26.29268 ; skirt
G1 X128.291 Y92.171 E26.40630 ; skirt
G1 X128.741 Y94.061 E26.60397 ; skirt
G1 X128.951 Y95.171 E26.71890 ; skirt
G1 X129.201 Y97.121 E26.91892 ; skirt
G1 X129.291 Y98.241 E27.03323 ; skirt
G1 X129.341 Y99.781 E27.19000 ; skirt
G1 X129.291 Y101.751 E27.39049 ; skirt
G1 X129.201 Y102.871 E27.50481 ; skirt
G1 X128.951 Y104.831 E27.70583 ; skirt
G1 X128.741 Y105.931 E27.81977 ; skirt
G1 X128.291 Y107.791 E28.01446 ; skirt
G1 X127.861 Y109.231 E28.16736 ; skirt
G1 X127.331 Y110.701 E28.32634 ; skirt
G1 X126.901 Y111.741 E28.44084 ; skirt
G1 X126.071 Y113.461 E28.63514 ; skirt
G1 X125.311 Y114.861 E28.79721 ; skirt
G1 X124.721 Y115.821 E28.91185 ; skirt
G1 X123.871 Y117.071 E29.06565 ; skirt
G1 X122.691 Y118.611 E29.26303 ; skirt
G1 X121.961 Y119.471 E29.37780 ; skirt
G1 X120.891 Y120.611 E29.53687 ; skirt
G1 X119.471 Y121.961 E29.73621 ; skirt
G1 X118.611 Y122.691 E29.85098 ; skirt
G1 X117.071 Y123.871 E30.04836 ; skirt
G1 X115.821 Y124.721 E30.20216 ; skirt
G1 X114.861 Y125.311 E30.31680 ; skirt
G1 X113.461 Y126.071 E30.47887 ; skirt
G1 X111.741 Y126.901 E30.67317 ; skirt
G1 X110.291 Y127.491 E30.83244 ; skirt
G1 X109.231 Y127.861 E30.94666 ; skirt
G1 X107.791 Y128.291 E31.09956 ; skirt
G1 X105.931 Y128.741 E31.29426 ; skirt
G1 X104.831 Y128.951 E31.40819 ; skirt
G1 X102.871 Y129.201 E31.60922 ; skirt
G1 X101.751 Y129.291 E31.72354 ; skirt
G1 X100.201 Y129.341 E31.88132 ; skirt
G1 X98.241 Y129.291 E32.08079 ; skirt
G1 X97.121 Y129.201 E32.19511 ; skirt
G1 X95.171 Y128.951 E32.39512 ; skirt
G1 X94.061 Y128.741 E32.51006 ; skirt
G1 X92.171 Y128.291 E32.70772 ; skirt
G1 X90.761 Y127.861 E32.85770 ; skirt
G1 X89.291 Y127.331 E33.01668 ; skirt
G1 X88.251 Y126.901 E33.13118 ; skirt
G1 X86.531 Y126.071 E33.32548 ; skirt
G1 X85.131 Y125.311 E33.48755 ; skirt
G1 X84.171 Y124.721 E33.60219 ; skirt
G1 X82.921 Y123.871 E33.75598 ; skirt
G1 X81.381 Y122.691 E33.95337 ; skirt
G1 X80.521 Y121.961 E34.06814 ; skirt
G1 X79.381 Y120.891 E34.22721 ; skirt
G1 X78.021 Y119.471 E34.42725 ; skirt
G1 X77.291 Y118.611 E34.54202 ; skirt
G1 X76.361 Y117.401 E34.69728 ; skirt
G1 X75.491 Y116.151 E34.85223 ; skirt
G1 X74.681 Y114.861 E35.00720 ; skirt
G1 X73.941 Y113.521 E35.16294 ; skirt
G1 X73.001 Y111.521 E35.38778 ; skirt
G1 X72.531 Y110.351 E35.51606 ; skirt
G1 X71.991 Y108.801 E35.68305 ; skirt
G1 X71.681 Y107.721 E35.79737 ; skirt
G1 X71.231 Y105.861 E35.99206 ; skirt
G1 X70.971 Y104.411 E36.14194 ; skirt
G1 X70.821 Y103.301 E36.25590 ; skirt
G1 X70.661 Y101.261 E36.46408 ; skirt
G1 X70.641 Y100.131 E36.57907 ; skirt
G1 X70.661 Y98.731 E36.72152 ; skirt
G1 X70.821 Y96.691 E36.92970 ; skirt
G1 X70.971 Y95.581 E37.04366 ; skirt
G1 X71.231 Y94.131 E37.19354 ; skirt
G1 X71.611 Y92.541 E37.35986 ; skirt
G1 X72.001 Y91.171 E37.50478 ; skirt
G1 X72.151 Y90.701 E37.55498 ; skirt
G1 X72.651 Y89.331 E37.70335 ; skirt
G1 X73.171 Y88.081 E37.84109 ; skirt
G1 X73.941 Y86.471 E38.02266 ; skirt
G1 X74.681 Y85.131 E38.17840 ; skirt
G1 X75.271 Y84.171 E38.29305 ; skirt
G1 X76.121 Y82.921 E38.44684 ; skirt
G1 X77.291 Y81.381 E38.64361 ; skirt
G1 X78.021 Y80.521 E38.75837 ; skirt
G1 X79.065 Y79.420 E38.91276 ; skirt
G1 X79.591 Y79.791 F7800.000 ; move to first skirt point
G1 X80.931 Y78.511 F540.000 E39.10129 ; skirt
G1 X82.091 Y77.541 E39.25514 ; skirt
G1 X83.281 Y76.641 E39.40693 ; skirt
G1 X84.201 Y76.011 E39.52038 ; skirt
G1 X85.791 Y75.041 E39.70987 ; skirt
G1 X87.141 Y74.311 E39.86601 ; skirt
G1 X88.491 Y73.681 E40.01758 ; skirt
G1 X89.531 Y73.251 E40.13208 ; skirt
G1 X91.351 Y72.611 E40.32836 ; skirt
G1 X92.691 Y72.221 E40.47035 ; skirt
G1 X94.241 Y71.851 E40.63248 ; skirt
G1 X95.351 Y71.651 E40.74723 ; skirt
G1 X96.781 Y71.451 E40.89413 ; skirt
G1 X98.291 Y71.321 E41.04833 ; skirt
G1 X99.641 Y71.281 E41.18574 ; skirt
G1 X101.251 Y71.301 E41.34955 ; skirt
G1 X102.821 Y71.411 E41.50967 ; skirt
G1 X104.321 Y71.601 E41.66350 ; skirt
G1 X105.751 Y71.861 E41.81138 ; skirt
G1 X106.201 Y71.951 E41.85807 ; skirt
G1 X107.291 Y72.221 E41.97232 ; skirt
G1 X108.631 Y72.601 E42.11402 ; skirt
G1 X110.461 Y73.251 E42.31160 ; skirt
G1 X111.841 Y73.831 E42.46390 ; skirt
G1 X112.851 Y74.311 E42.57767 ; skirt
G1 X114.531 Y75.231 E42.77255 ; skirt
G1 X115.791 Y76.011 E42.92331 ; skirt
G1 X117.011 Y76.861 E43.07459 ; skirt
G1 X118.201 Y77.781 E43.22763 ; skirt
G1 X119.061 Y78.511 E43.34239 ; skirt
G1 X120.201 Y79.591 E43.50216 ; skirt
G1 X121.471 Y80.931 E43.68999 ; skirt
G1 X122.411 Y82.041 E43.83798 ; skirt
G1 X123.351 Y83.281 E43.99629 ; skirt
G1 X123.981 Y84.201 E44.10973 ; skirt
G1 X124.981 Y85.841 E44.30516 ; skirt
G1 X125.511 Y86.831 E44.41941 ; skirt
G1 X126.311 Y88.491 E44.60689 ; skirt
G1 X126.891 Y89.911 E44.76294 ; skirt
G1 X127.261 Y90.971 E44.87717 ; skirt
G1 X127.681 Y92.361 E45.02490 ; skirt
G1 X128.041 Y93.841 E45.17987 ; skirt
G1 X128.321 Y95.291 E45.33012 ; skirt
G1 X128.571 Y97.171 E45.52307 ; skirt
G1 X128.661 Y98.291 E45.63739 ; skirt
G1 X128.711 Y99.801 E45.79110 ; skirt
G1 X128.661 Y101.701 E45.98447 ; skirt
G1 X128.571 Y102.821 E46.09879 ; skirt
G1 X128.321 Y104.711 E46.29275 ; skirt
G1 X128.041 Y106.141 E46.44100 ; skirt
G1 X127.681 Y107.611 E46.59498 ; skirt
G1 X127.261 Y109.021 E46.74466 ; skirt
G1 X126.741 Y110.461 E46.90043 ; skirt
G1 X126.311 Y111.501 E47.01492 ; skirt
G1 X125.511 Y113.161 E47.20240 ; skirt
G1 X124.761 Y114.531 E47.36131 ; skirt
G1 X123.981 Y115.791 E47.51207 ; skirt
G1 X123.101 Y117.061 E47.66927 ; skirt
G1 X122.411 Y117.951 E47.78385 ; skirt
G1 X121.471 Y119.061 E47.93183 ; skirt
G1 X120.431 Y120.171 E48.08659 ; skirt
G1 X119.061 Y121.471 E48.27873 ; skirt
G1 X117.951 Y122.411 E48.42672 ; skirt
G1 X116.711 Y123.351 E48.58503 ; skirt
G1 X115.791 Y123.981 E48.69847 ; skirt
G1 X114.151 Y124.981 E48.89390 ; skirt
G1 X113.161 Y125.511 E49.00815 ; skirt
G1 X111.501 Y126.311 E49.19562 ; skirt
G1 X110.081 Y126.891 E49.35168 ; skirt
G1 X109.021 Y127.261 E49.46591 ; skirt
G1 X107.611 Y127.681 E49.61559 ; skirt
G1 X105.811 Y128.111 E49.80388 ; skirt
G1 X104.261 Y128.391 E49.96412 ; skirt
G1 X102.821 Y128.571 E50.11177 ; skirt
G1 X101.701 Y128.661 E50.22609 ; skirt
G1 X100.181 Y128.711 E50.38082 ; skirt
G1 X98.291 Y128.661 E50.57317 ; skirt
G1 X97.171 Y128.571 E50.68749 ; skirt
G1 X95.291 Y128.321 E50.88044 ; skirt
G1 X93.841 Y128.041 E51.03069 ; skirt
G1 X92.361 Y127.681 E51.18566 ; skirt
G1 X90.971 Y127.261 E51.33339 ; skirt
G1 X89.531 Y126.741 E51.48916 ; skirt
G1 X88.491 Y126.311 E51.60365 ; skirt
G1 X86.831 Y125.511 E51.79113 ; skirt
G1 X85.461 Y124.761 E51.95003 ; skirt
G1 X84.201 Y123.981 E52.10080 ; skirt
G1 X82.931 Y123.101 E52.25800 ; skirt
G1 X82.041 Y122.411 E52.37257 ; skirt
G1 X80.931 Y121.471 E52.52056 ; skirt
G1 X79.821 Y120.431 E52.67531 ; skirt
G1 X78.511 Y119.061 E52.86816 ; skirt
G1 X77.541 Y117.901 E53.02201 ; skirt
G1 X76.641 Y116.711 E53.17380 ; skirt
G1 X76.011 Y115.791 E53.28725 ; skirt
G1 X75.041 Y114.201 E53.47674 ; skirt
G1 X74.301 Y112.831 E53.63516 ; skirt
G1 X73.741 Y111.641 E53.76897 ; skirt
G1 X73.131 Y110.131 E53.93465 ; skirt
G1 X72.601 Y108.631 E54.09651 ; skirt
G1 X72.221 Y107.291 E54.23822 ; skirt
G1 X71.951 Y106.201 E54.35247 ; skirt
G1 X71.601 Y104.321 E54.54702 ; skirt
G1 X71.451 Y103.211 E54.66098 ; skirt
G1 X71.321 Y101.701 E54.81518 ; skirt
G1 X71.281 Y100.121 E54.97598 ; skirt
G1 X71.301 Y98.741 E55.11639 ; skirt
G1 X71.411 Y97.171 E55.27652 ; skirt
G1 X71.601 Y95.671 E55.43035 ; skirt
G1 X71.851 Y94.241 E55.57804 ; skirt
G1 X72.221 Y92.691 E55.74017 ; skirt
G1 X72.611 Y91.351 E55.88216 ; skirt
G1 X73.241 Y89.571 E56.07426 ; skirt
G1 X73.741 Y88.351 E56.20841 ; skirt
G1 X74.301 Y87.161 E56.34221 ; skirt
G1 X75.231 Y85.461 E56.53936 ; skirt
G1 X76.011 Y84.201 E56.69013 ; skirt
G1 X76.861 Y82.981 E56.84141 ; skirt
G1 X77.781 Y81.791 E56.99444 ; skirt
G1 X78.511 Y80.931 E57.10921 ; skirt
G1 X79.525 Y79.860 E57.25928 ; skirt
G1 X80.051 Y80.231 F7800.000 ; move to first skirt point
G1 X81.351 Y78.991 F540.000 E57.44206 ; skirt
G1 X82.471 Y78.051 E57.59082 ; skirt
G1 X83.641 Y77.171 E57.73977 ; skirt
G1 X84.561 Y76.541 E57.85321 ; skirt
G1 X86.091 Y75.591 E58.03644 ; skirt
G1 X87.081 Y75.051 E58.15117 ; skirt
G1 X88.731 Y74.271 E58.33686 ; skirt
G1 X90.071 Y73.721 E58.48422 ; skirt
G1 X91.131 Y73.341 E58.59879 ; skirt
G1 X92.841 Y72.841 E58.78005 ; skirt
G1 X94.351 Y72.481 E58.93798 ; skirt
G1 X95.751 Y72.231 E59.08267 ; skirt
G1 X96.861 Y72.081 E59.19663 ; skirt
G1 X98.341 Y71.961 E59.34770 ; skirt
G1 X99.801 Y71.911 E59.49633 ; skirt
G1 X101.651 Y71.961 E59.68461 ; skirt
G1 X103.131 Y72.081 E59.83568 ; skirt
