; generated by Slic3r 0.9.10b on 2014-03-25 at 17:11:40

; layer_height = 0.4
; perimeters = 2
; top_solid_layers = 3
; bottom_solid_layers = 3
; fill_density = 0.2
; perimeter_speed = 30
; infill_speed = 60
; travel_speed = 130
; nozzle_diameter = 0.4
; filament_diameter = 1.75
; extrusion_multiplier = 1.0
; perimeters extrusion width = 0.42mm
; infill extrusion width = 0.42mm
; solid infill extrusion width = 0.42mm
; top infill extrusion width = 0.42mm
; support material extrusion width = 0.42mm
; first layer extrusion width = 0.70mm

G21 ; set units to millimeters
M107 ; disable fan
M190 S60 ; wait for bed temperature to be reached
M104 S175 ; set temperature
G28 ; home all axes
G1 Z5 F5000 ; lift nozzle
M109 S175 ; wait for temperature to be reached
G90 ; use absolute coordinates
G92 E0 ; reset extrusion distance
M82 ; use absolute distances for extrusion
G1 F1800.000 E-1.00000 ; retract
G92 E0 ; reset extrusion distance
G1 Z-0.250 F7800.000 ; move to next layer (0)
G1 X60.300 Y85.500 ; move to first skirt point
G1 F1800.000 E1.00000 ; compensate retraction
G1 X79.590 Y72.780 F540.000 E3.13713 ; skirt
G1 X81.050 Y72.000 E3.29023 ; skirt
G1 X82.640 Y71.530 E3.44358 ; skirt
G1 X84.290 Y71.370 E3.59690 ; skirt
G1 X115.700 Y71.370 E6.50204 ; skirt
G1 X117.340 Y71.530 E6.65445 ; skirt
G1 X118.910 Y71.990 E6.80576 ; skirt
G1 X120.370 Y72.760 E6.95843 ; skirt
G1 X139.870 Y85.480 E9.11180 ; skirt
G1 X141.190 Y86.540 E9.26838 ; skirt
G1 X142.270 Y87.840 E9.42470 ; skirt
G1 X143.080 Y89.330 E9.58156 ; skirt
G1 X143.570 Y90.940 E9.73721 ; skirt
G1 X143.740 Y92.630 E9.89431 ; skirt
G1 X143.740 Y120.590 E12.48036 ; skirt
G1 X143.610 Y122.060 E12.61685 ; skirt
G1 X143.240 Y123.490 E12.75347 ; skirt
G1 X142.620 Y124.830 E12.89003 ; skirt
G1 X141.770 Y126.050 E13.02755 ; skirt
G1 X140.740 Y127.100 E13.16359 ; skirt
G1 X139.530 Y127.950 E13.30036 ; skirt
G1 X138.200 Y128.590 E13.43688 ; skirt
G1 X136.780 Y128.990 E13.57332 ; skirt
G1 X135.310 Y129.130 E13.70990 ; skirt
G1 X102.110 Y129.540 E16.78083 ; skirt
G1 X97.880 Y129.540 E17.17207 ; skirt
G1 X64.890 Y129.130 E20.22358 ; skirt
G1 X63.420 Y128.990 E20.36016 ; skirt
G1 X62.000 Y128.590 E20.49661 ; skirt
G1 X60.670 Y127.950 E20.63312 ; skirt
G1 X59.460 Y127.100 E20.76989 ; skirt
G1 X58.430 Y126.040 E20.90659 ; skirt
G1 X57.580 Y124.830 E21.04336 ; skirt
G1 X56.960 Y123.490 E21.17992 ; skirt
G1 X56.590 Y122.060 E21.31654 ; skirt
G1 X56.460 Y120.590 E21.45303 ; skirt
G1 X56.460 Y92.630 E24.03908 ; skirt
G1 X56.620 Y90.950 E24.19517 ; skirt
G1 X57.120 Y89.340 E24.35109 ; skirt
G1 X57.910 Y87.860 E24.50626 ; skirt
G1 X58.990 Y86.560 E24.66258 ; skirt
G1 X60.226 Y85.560 E24.80962 ; skirt
G1 X60.650 Y86.030 F7800.000 ; move to first skirt point
G1 X79.940 Y73.310 F540.000 E26.94675 ; skirt
G1 X81.290 Y72.590 E27.08826 ; skirt
G1 X82.760 Y72.150 E27.23018 ; skirt
G1 X84.290 Y72.000 E27.37237 ; skirt
G1 X115.700 Y72.000 E30.27751 ; skirt
G1 X117.210 Y72.150 E30.41786 ; skirt
G1 X118.670 Y72.580 E30.55863 ; skirt
G1 X120.020 Y73.290 E30.69971 ; skirt
G1 X139.520 Y86.010 E32.85308 ; skirt
G1 X140.740 Y86.990 E32.99781 ; skirt
G1 X141.750 Y88.190 E33.14288 ; skirt
G1 X142.490 Y89.570 E33.28771 ; skirt
G1 X142.950 Y91.070 E33.43283 ; skirt
G1 X143.110 Y92.630 E33.57787 ; skirt
G1 X143.110 Y120.590 E36.16392 ; skirt
G1 X142.960 Y122.120 E36.30610 ; skirt
G1 X142.510 Y123.590 E36.44829 ; skirt
G1 X141.790 Y124.950 E36.59062 ; skirt
G1 X140.830 Y126.150 E36.73276 ; skirt
G1 X139.640 Y127.130 E36.87534 ; skirt
G1 X138.290 Y127.870 E37.01773 ; skirt
G1 X136.830 Y128.330 E37.15931 ; skirt
G1 X135.300 Y128.500 E37.30169 ; skirt
G1 X102.100 Y128.910 E40.37263 ; skirt
G1 X97.890 Y128.910 E40.76202 ; skirt
G1 X64.900 Y128.500 E43.81353 ; skirt
G1 X63.370 Y128.330 E43.95591 ; skirt
G1 X61.910 Y127.870 E44.09749 ; skirt
G1 X60.560 Y127.130 E44.23988 ; skirt
G1 X59.370 Y126.150 E44.38246 ; skirt
G1 X58.410 Y124.950 E44.52460 ; skirt
G1 X57.690 Y123.590 E44.66693 ; skirt
G1 X57.240 Y122.120 E44.80912 ; skirt
G1 X57.090 Y120.590 E44.95131 ; skirt
G1 X57.090 Y92.630 E47.53735 ; skirt
G1 X57.250 Y91.080 E47.68148 ; skirt
G1 X57.700 Y89.590 E47.82544 ; skirt
G1 X58.440 Y88.210 E47.97027 ; skirt
G1 X59.440 Y87.010 E48.11474 ; skirt
G1 X60.576 Y86.090 E48.24994 ; skirt
G1 X61.000 Y86.560 F7800.000 ; move to first skirt point
G1 X80.290 Y73.840 F540.000 E50.38707 ; skirt
G1 X81.530 Y73.180 E50.51699 ; skirt
G1 X82.890 Y72.780 E50.64810 ; skirt
G1 X84.290 Y72.640 E50.77824 ; skirt
G1 X115.700 Y72.640 E53.68338 ; skirt
G1 X117.090 Y72.770 E53.81250 ; skirt
G1 X118.430 Y73.170 E53.94184 ; skirt
G1 X119.670 Y73.820 E54.07133 ; skirt
G1 X139.170 Y86.540 E56.22470 ; skirt
G1 X140.300 Y87.440 E56.35832 ; skirt
G1 X141.220 Y88.550 E56.49166 ; skirt
G1 X141.910 Y89.820 E56.62534 ; skirt
G1 X142.330 Y91.200 E56.75876 ; skirt
G1 X142.470 Y92.630 E56.89165 ; skirt
G1 X142.470 Y120.590 E59.47770 ; skirt
G1 X142.330 Y122.000 E59.60875 ; skirt
G1 X141.930 Y123.350 E59.73898 ; skirt
G1 X141.260 Y124.600 E59.87016 ; skirt
G1 X140.370 Y125.700 E60.00103 ; skirt
G1 X139.290 Y126.600 E60.13105 ; skirt
G1 X138.040 Y127.280 E60.26267 ; skirt
G1 X136.700 Y127.710 E60.39283 ; skirt
G1 X135.290 Y127.860 E60.52398 ; skirt
G1 X102.090 Y128.270 E63.59491 ; skirt
G1 X97.900 Y128.270 E63.98245 ; skirt
G1 X64.910 Y127.860 E67.03396 ; skirt
G1 X63.500 Y127.710 E67.16511 ; skirt
G1 X62.150 Y127.280 E67.29615 ; skirt
G1 X60.910 Y126.600 E67.42696 ; skirt
G1 X59.830 Y125.700 E67.55698 ; skirt
G1 X58.940 Y124.600 E67.68785 ; skirt
G1 X58.270 Y123.350 E67.81903 ; skirt
G1 X57.870 Y122.000 E67.94926 ; skirt
G1 X57.730 Y120.590 E68.08031 ; skirt
G1 X57.730 Y92.630 E70.66636 ; skirt
G1 X57.870 Y91.200 E70.79925 ; skirt
G1 X58.290 Y89.830 E70.93179 ; skirt
G1 X58.970 Y88.570 E71.06421 ; skirt
G1 X59.880 Y87.460 E71.19697 ; skirt
G1 X60.926 Y86.620 E71.32104 ; skirt
G1 X61.350 Y87.090 F7800.000 ; move to first skirt point
G1 X80.640 Y74.370 F540.000 E73.45817 ; skirt
G1 X81.780 Y73.770 E73.57732 ; skirt
G1 X83.010 Y73.400 E73.69612 ; skirt
G1 X84.290 Y73.270 E73.81512 ; skirt
G1 X115.700 Y73.270 E76.72026 ; skirt
G1 X116.970 Y73.400 E76.83833 ; skirt
G1 X118.190 Y73.760 E76.95598 ; skirt
G1 X119.330 Y74.350 E77.07471 ; skirt
G1 X138.830 Y87.070 E79.22808 ; skirt
G1 X139.850 Y87.900 E79.34970 ; skirt
G1 X140.690 Y88.910 E79.47121 ; skirt
G1 X141.320 Y90.060 E79.59249 ; skirt
G1 X141.710 Y91.320 E79.71448 ; skirt
G1 X141.840 Y92.630 E79.83624 ; skirt
G1 X141.840 Y120.590 E82.42228 ; skirt
G1 X141.710 Y121.870 E82.54128 ; skirt
G1 X141.340 Y123.110 E82.66097 ; skirt
G1 X140.730 Y124.250 E82.78055 ; skirt
G1 X139.920 Y125.250 E82.89958 ; skirt
G1 X138.930 Y126.080 E83.01907 ; skirt
G1 X137.800 Y126.700 E83.13828 ; skirt
G1 X136.560 Y127.080 E83.25823 ; skirt
G1 X135.280 Y127.230 E83.37743 ; skirt
G1 X102.080 Y127.640 E86.44837 ; skirt
G1 X97.910 Y127.640 E86.83405 ; skirt
G1 X64.920 Y127.230 E89.88557 ; skirt
G1 X63.630 Y127.080 E90.00568 ; skirt
G1 X62.400 Y126.700 E90.12475 ; skirt
G1 X61.270 Y126.080 E90.24397 ; skirt
G1 X60.280 Y125.250 E90.36345 ; skirt
G1 X59.470 Y124.250 E90.48248 ; skirt
G1 X58.860 Y123.110 E90.60207 ; skirt
G1 X58.490 Y121.870 E90.72175 ; skirt
G1 X58.360 Y120.590 E90.84075 ; skirt
G1 X58.360 Y92.630 E93.42680 ; skirt
G1 X58.490 Y91.330 E93.54763 ; skirt
G1 X58.880 Y90.080 E93.66874 ; skirt
G1 X59.500 Y88.920 E93.79040 ; skirt
G1 X60.330 Y87.920 E93.91060 ; skirt
G1 X61.276 Y87.150 E94.02341 ; skirt
G1 F1800.000 E93.02341 ; retract
G92 E0 ; reset extrusion distance
G1 X65.000 Y97.717 F7800.000 ; move to first support material point
G1 F1800.000 E1.00000 ; compensate retraction
G1 X97.370 Y97.717 F1080.000 E3.99392 ; support material
G1 X97.370 Y96.446 E4.11150 ; support material
G1 X65.000 Y96.446 E7.10541 ; support material
G1 X65.000 Y95.175 E7.22299 ; support material
G1 X97.370 Y95.175 E10.21691 ; support material
G1 X97.370 Y93.904 E10.33449 ; support material
G1 X65.000 Y93.904 E13.32841 ; support material
G1 X65.000 Y92.632 E13.44598 ; support material
G1 X97.370 Y92.632 E16.43990 ; support material
G1 X102.630 Y92.632 F7800.000 ; move to first support material point
G1 X135.206 Y92.632 F1080.000 E19.45285 ; support material
G1 X135.206 Y93.904 E19.57043 ; support material
G1 X102.630 Y93.904 E22.58337 ; support material
G1 X102.630 Y95.175 E22.70095 ; support material
G1 X135.206 Y95.175 E25.71389 ; support material
G1 X135.206 Y96.446 E25.83147 ; support material
G1 X102.630 Y96.446 E28.84442 ; support material
G1 X102.630 Y97.717 E28.96200 ; support material
G1 X135.206 Y97.717 E31.97494 ; support material
G1 X134.304 Y98.989 E32.11909 ; support material
G1 X65.696 Y98.989 E38.46474 ; support material
G1 F1800.000 E37.46474 ; retract
G92 E0 ; reset extrusion distance
G1 X84.294 Y91.361 F7800.000 ; move to first support material point
G1 F1800.000 E1.00000 ; compensate retraction
G1 X115.706 Y91.361 F1080.000 E3.90527 ; support material
G1 X115.706 Y90.090 E4.02285 ; support material
G1 X84.294 Y90.090 E6.92813 ; support material
G1 X84.294 Y88.819 E7.04571 ; support material
G1 X115.706 Y88.819 E9.95098 ; support material
G1 X115.706 Y87.547 E10.06856 ; support material
G1 X84.294 Y87.547 E12.97383 ; support material
G1 X84.294 Y86.276 E13.09141 ; support material
G1 X115.706 Y86.276 E15.99669 ; support material
G1 X115.706 Y85.005 E16.11426 ; support material
G1 X84.294 Y85.005 E19.01954 ; support material
G1 X84.294 Y83.734 E19.13712 ; support material
G1 X115.706 Y83.734 E22.04239 ; support material
G1 X115.706 Y82.462 E22.15997 ; support material
G1 X84.294 Y82.462 E25.06525 ; support material
G1 X84.294 Y81.191 E25.18282 ; support material
G1 X115.706 Y81.191 E28.08810 ; support material
G1 X115.706 Y79.920 E28.20568 ; support material
G1 X84.294 Y79.920 E31.11095 ; support material
G1 F1800.000 E30.11095 ; retract
G92 E0 ; reset extrusion distance
G1 X89.794 Y100.260 F7800.000 ; move to first support material point
G1 F1800.000 E1.00000 ; compensate retraction
G1 X110.206 Y100.260 F1080.000 E2.88787 ; support material
G1 X110.206 Y101.531 E3.00545 ; support material
G1 X89.794 Y101.531 E4.89333 ; support material
G1 X89.794 Y102.802 E5.01091 ; support material
G1 X110.206 Y102.802 E6.89878 ; support material
G1 X110.206 Y104.074 E7.01636 ; support material
G1 X89.794 Y104.074 E8.90423 ; support material
G1 X89.794 Y105.345 E9.02181 ; support material
G1 X98.849 Y105.345 E9.85925 ; support material
G1 X97.833 Y106.616 E10.00973 ; support material
G1 X89.794 Y106.616 E10.75326 ; support material
G1 X89.794 Y107.887 E10.87084 ; support material
G1 X97.796 Y107.887 E11.61093 ; support material
G1 X98.665 Y109.158 E11.75334 ; support material
G1 X89.794 Y109.158 E12.57378 ; support material
G1 X89.794 Y110.430 E12.69136 ; support material
G1 X110.206 Y110.430 E14.57924 ; support material
G1 X110.206 Y109.158 E14.69682 ; support material
G1 X101.335 Y109.158 E15.51726 ; support material
G1 X102.204 Y107.887 E15.65967 ; support material
G1 X110.206 Y107.887 E16.39976 ; support material
G1 X110.206 Y106.616 E16.51734 ; support material
G1 X102.167 Y106.616 E17.26087 ; support material
G1 X101.151 Y105.345 E17.41135 ; support material
G1 X110.206 Y105.345 E18.24879 ; support material
G1 F1800.000 E17.24879 ; retract
G92 E0 ; reset extrusion distance
G1 X110.206 Y111.701 F7800.000 ; move to first support material point
G1 F1800.000 E1.00000 ; compensate retraction
G1 X89.794 Y111.701 F1080.000 E2.88787 ; support material
G1 F1800.000 E1.88787 ; retract
G92 E0 ; reset extrusion distance
G1 X97.370 Y115.515 F7800.000 ; move to first support material point
G1 F1800.000 E1.00000 ; compensate retraction
G1 X65.000 Y115.515 F1080.000 E3.99392 ; support material
G1 X65.000 Y116.786 E4.11150 ; support material
G1 X97.370 Y116.786 E7.10541 ; support material
G1 X97.370 Y118.057 E7.22299 ; support material
G1 X65.000 Y118.057 E10.21691 ; support material
G1 X65.000 Y119.328 E10.33449 ; support material
G1 X97.370 Y119.328 E13.32841 ; support material
G1 X97.370 Y120.600 E13.44598 ; support material
G1 X65.000 Y120.600 E16.43990 ; support material
G1 F1800.000 E15.43990 ; retract
G92 E0 ; reset extrusion distance
G1 X99.420 Y114.243 F7800.000 ; move to first support material point
G1 F1800.000 E1.00000 ; compensate retraction
G1 X65.464 Y114.243 F1080.000 E4.14065 ; support material
G1 X66.735 Y112.972 E4.30693 ; support material
G1 X133.265 Y112.972 E10.46034 ; support material
G1 X134.536 Y114.243 E10.62662 ; support material
G1 X100.580 Y114.243 E13.76727 ; support material
G1 F1800.000 E12.76727 ; retract
G92 E0 ; reset extrusion distance
G1 X102.630 Y115.515 F7800.000 ; move to first support material point
G1 F1800.000 E1.00000 ; compensate retraction
G1 X135.206 Y115.515 F1080.000 E4.01295 ; support material
G1 X135.206 Y116.786 E4.13052 ; support material
G1 X102.630 Y116.786 E7.14347 ; support material
G1 X102.630 Y118.057 E7.26105 ; support material
G1 X135.206 Y118.057 E10.27399 ; support material
G1 X135.206 Y119.328 E10.39157 ; support material
G1 X102.630 Y119.328 E13.40452 ; support material
G1 X102.630 Y120.600 E13.52209 ; support material
G1 X135.206 Y120.600 E16.53504 ; support material
G1 F1800.000 E15.53504 ; retract
G92 E0 ; reset extrusion distance
G1 X98.953 Y115.874 F7800.000 ; move to first perimeter point
G1 F1800.000 E1.00000 ; compensate retraction
G1 X100.000 Y115.782 F540.000 E1.09719 ; perimeter
G1 X101.047 Y115.874 E1.19438 ; perimeter
G1 X101.047 Y120.047 E1.58034 ; perimeter
G1 X98.953 Y120.047 E1.77398 ; perimeter
G1 X98.953 Y115.969 E2.15112 ; perimeter
G1 X98.318 Y115.291 F7800.000 ; move to first perimeter point
G1 X100.000 Y115.144 F540.000 E2.30733 ; perimeter
G1 X101.682 Y115.291 E2.46353 ; perimeter
G1 X101.682 Y120.682 E2.96215 ; perimeter
G1 X98.318 Y120.682 E3.27337 ; perimeter
G1 X98.318 Y115.387 E3.76317 ; perimeter
G1 X98.886 Y115.576 F7800.000 ; move inwards before travel
G1 F1800.000 E2.76317 ; retract
G92 E0 ; reset extrusion distance
G1 X98.953 Y92.953 F7800.000 ; move to first perimeter point
G1 F1800.000 E1.00000 ; compensate retraction
G1 X101.047 Y92.953 F540.000 E1.19364 ; perimeter
G1 X101.047 Y97.126 E1.57960 ; perimeter
G1 X100.000 Y97.218 E1.67679 ; perimeter
G1 X98.953 Y97.126 E1.77398 ; perimeter
G1 X98.953 Y93.049 E2.15112 ; perimeter
G1 X98.318 Y92.318 F7800.000 ; move to first perimeter point
G1 X101.682 Y92.318 F540.000 E2.46234 ; perimeter
G1 X101.682 Y97.709 E2.96096 ; perimeter
G1 X100.000 Y97.856 E3.11716 ; perimeter
G1 X98.318 Y97.709 E3.27337 ; perimeter
G1 X98.318 Y92.413 E3.76317 ; perimeter
G1 X98.868 Y92.636 F7800.000 ; move inwards before travel
G1 F1800.000 E2.76317 ; retract
G92 E0 ; reset extrusion distance
G1 X100.487 Y116.287 F7800.000 ; move to first fill point
G1 F1800.000 E1.00000 ; compensate retraction
G1 X100.586 Y116.386 F1080.000 E1.01294 ; fill
G1 X100.586 Y117.286 E1.09628 ; fill
G1 X99.581 Y116.281 E1.22786 ; fill
G1 X99.414 Y117.014 E1.29744 ; fill
G1 X100.586 Y118.186 E1.45095 ; fill
G1 X100.586 Y119.086 E1.53428 ; fill
G1 X99.414 Y117.914 E1.68779 ; fill
G1 X99.414 Y118.814 E1.77113 ; fill
G1 X100.186 Y119.586 E1.87226 ; fill
G1 F1800.000 E0.87226 ; retract
G92 E0 ; reset extrusion distance
G1 X99.841 Y96.742 F7800.000 ; move to first fill point
G1 F1800.000 E1.00000 ; compensate retraction
G1 X99.414 Y96.315 F1080.000 E1.05583 ; fill
G1 X99.414 Y95.415 E1.13907 ; fill
G1 X100.586 Y96.587 E1.29240 ; fill
G1 X100.586 Y95.687 E1.37564 ; fill
G1 X99.414 Y94.515 E1.52897 ; fill
G1 X99.414 Y93.615 E1.61221 ; fill
G1 X100.586 Y94.787 E1.76554 ; fill
G1 X100.586 Y93.887 E1.84877 ; fill
G1 X100.113 Y93.414 E1.91064 ; fill
M106 S650 ; enable fan
M104 S170 ; set temperature
G1 F1800.000 E0.91064 ; retract
G92 E0 ; reset extrusion distance
G1 Z0.150 F7800.000 ; move to next layer (1)
G1 X107.500 Y91.790 ; move to first support material contact area point
G1 F1800.000 E1.00000 ; compensate retraction
G1 X107.500 Y98.253 F2474.028 E1.44680 ; support material contact area
G1 F1800.000 E0.44680 ; retract
