; generated by Slic3r 0.9.10b on 2014-01-20 at 21:59:56

; layer_height = 0.4
; perimeters = 5
; top_solid_layers = 3
; bottom_solid_layers = 3
; fill_density = 0.4
; perimeter_speed = 30
; infill_speed = 60
; travel_speed = 130
; nozzle_diameter = 0.5
; filament_diameter = 1.75
; extrusion_multiplier = 1.02
; perimeters extrusion width = 0.53mm
; infill extrusion width = 0.53mm
; solid infill extrusion width = 0.53mm
; top infill extrusion width = 0.53mm
; first layer extrusion width = 0.80mm

G21 ; set units to millimeters
M107
M104 S190 ; set temperature
G28 ; home all axes
G1 Z5 F5000 ; lift nozzle
M109 S190 ; wait for temperature to be reached
G90 ; use absolute coordinates
G92 E0
M82 ; use absolute distances for extrusion
G1 F1800.000 E-1.00000
G92 E0
G1 Z0.050 F7800.000
G1 X68.831 Y41.252
G1 F1800.000 E1.00000
G1 X69.171 Y40.732 F540.000 E1.07752
G1 X69.531 Y40.232 E1.15440
G1 X70.371 Y39.322 E1.30894
G1 X71.111 Y38.652 E1.43350
G1 X71.601 Y38.272 E1.51087
G1 X72.081 Y37.932 E1.58427
G1 X72.591 Y37.632 E1.65810
G1 X73.141 Y37.342 E1.73569
G1 X73.681 Y37.092 E1.80994
G1 X74.251 Y36.882 E1.88574
G1 X74.851 Y36.692 E1.96427
G1 X75.861 Y36.452 E2.09381
G1 X76.451 Y36.362 E2.16828
G1 X77.471 Y36.282 E2.29595
G1 X107.061 Y36.282 E5.98821
G1 X122.191 Y36.432 E7.87623
G1 X123.081 Y36.472 E7.98740
G1 X123.661 Y36.532 E8.06016
G1 X124.241 Y36.632 E8.13360
G1 X124.861 Y36.772 E8.21291
G1 X125.441 Y36.932 E8.28799
G1 X126.011 Y37.142 E8.36379
G1 X126.601 Y37.392 E8.44374
G1 X127.511 Y37.862 E8.57154
G1 X128.061 Y38.202 E8.65223
G1 X128.581 Y38.562 E8.73115
G1 X129.071 Y38.962 E8.81007
G1 X129.541 Y39.392 E8.88956
G1 X130.301 Y40.222 E9.02999
G1 X130.691 Y40.722 E9.10911
G1 X131.301 Y41.642 E9.24685
G1 X131.611 Y42.212 E9.32782
G1 X131.871 Y42.762 E9.40373
G1 X132.091 Y43.332 E9.47997
G1 X132.291 Y43.942 E9.56007
G1 X132.541 Y44.982 E9.69354
G1 X132.641 Y45.612 E9.77314
G1 X132.731 Y46.642 E9.90215
G1 X133.231 Y145.282 E22.21068
G1 X133.201 Y145.942 E22.29312
G1 X133.011 Y147.972 E22.54753
G1 X132.931 Y148.552 E22.62059
G1 X132.801 Y149.122 E22.69354
G1 X132.261 Y151.092 E22.94842
G1 X132.081 Y151.652 E23.02182
G1 X131.851 Y152.192 E23.09506
G1 X130.981 Y154.032 E23.34903
G1 X130.701 Y154.552 E23.42272
G1 X130.381 Y155.052 E23.49680
G1 X129.201 Y156.712 E23.75093
G1 X128.471 Y157.572 E23.89169
G1 X127.031 Y159.012 E24.14580
G1 X126.581 Y159.422 E24.22177
G1 X126.101 Y159.792 E24.29739
G1 X124.421 Y160.952 E24.55214
G1 X123.431 Y161.522 E24.69468
G1 X121.581 Y162.382 E24.94925
G1 X120.491 Y162.772 E25.09371
G1 X118.521 Y163.302 E25.34826
G1 X117.931 Y163.432 E25.42365
G1 X117.331 Y163.512 E25.49918
G1 X115.301 Y163.682 E25.75337
G1 X114.741 Y163.712 E25.82335
G1 X85.241 Y163.712 E29.50438
G1 X84.681 Y163.682 E29.57436
G1 X82.651 Y163.512 E29.82855
G1 X82.051 Y163.432 E29.90408
G1 X81.461 Y163.302 E29.97947
G1 X79.491 Y162.772 E30.23403
G1 X78.931 Y162.602 E30.30705
G1 X78.391 Y162.372 E30.38029
G1 X76.551 Y161.512 E30.63373
G1 X75.571 Y160.952 E30.77457
G1 X73.891 Y159.792 E31.02932
G1 X73.411 Y159.422 E31.10494
G1 X72.961 Y159.012 E31.18090
G1 X71.521 Y157.572 E31.43502
G1 X70.791 Y156.712 E31.57578
G1 X69.611 Y155.052 E31.82991
G1 X69.291 Y154.552 E31.90399
G1 X69.011 Y154.032 E31.97768
G1 X68.141 Y152.192 E32.23165
G1 X67.911 Y151.652 E32.30489
G1 X67.731 Y151.092 E32.37829
G1 X67.191 Y149.122 E32.63317
G1 X67.061 Y148.552 E32.70612
G1 X66.981 Y147.972 E32.77918
G1 X66.791 Y145.942 E33.03359
G1 X66.761 Y145.282 E33.11603
G1 X67.261 Y46.702 E45.41707
G1 X67.341 Y45.572 E45.55843
G1 X67.411 Y44.972 E45.63380
G1 X67.541 Y44.372 E45.71041
G1 X67.701 Y43.772 E45.78789
G1 X68.081 Y42.712 E45.92840
G1 X68.341 Y42.142 E46.00658
G1 X68.777 Y41.348 E46.11958
G1 F1800.000 E45.11958
G92 E0
G1 X108.197 Y148.965 F7800.000
G1 F1800.000 E1.00000
G1 X108.544 Y148.838 F540.000 E1.04610
G1 X108.908 Y148.774 E1.09218
G1 X109.277 Y148.774 E1.13827
G1 X109.688 Y148.855 E1.19048
G1 X109.988 Y148.965 E1.23039
G1 X110.308 Y149.149 E1.27647
G1 X110.591 Y149.387 E1.32257
G1 X110.829 Y149.670 E1.36867
G1 X111.013 Y149.990 E1.41476
G1 X111.140 Y150.337 E1.46086
G1 X111.204 Y150.701 E1.50695
G1 X111.204 Y151.070 E1.55305
G1 X111.123 Y151.480 E1.60525
G1 X111.013 Y151.781 E1.64515
G1 X110.829 Y152.101 E1.69125
G1 X110.591 Y152.384 E1.73734
G1 X110.308 Y152.621 E1.78343
G1 X109.988 Y152.806 E1.82953
G1 X109.641 Y152.932 E1.87563
G1 X109.277 Y152.996 E1.92172
G1 X108.908 Y152.996 E1.96781
G1 X108.544 Y152.932 E2.01391
G1 X108.197 Y152.806 E2.06000
G1 X107.877 Y152.621 E2.10609
G1 X107.594 Y152.384 E2.15219
G1 X107.357 Y152.101 E2.19829
G1 X107.172 Y151.781 E2.24438
G1 X107.046 Y151.434 E2.29047
G1 X106.982 Y151.070 E2.33657
G1 X106.982 Y150.701 E2.38266
G1 X107.046 Y150.337 E2.42876
G1 X107.172 Y149.990 E2.47486
G1 X107.357 Y149.670 E2.52095
G1 X107.594 Y149.387 E2.56704
G1 X107.877 Y149.149 E2.61313
G1 X108.102 Y149.020 E2.64547
G1 X108.494 Y149.185 F7800.000
G1 F1800.000 E1.64547
G92 E0
G1 X118.671 Y140.787 F7800.000
G1 F1800.000 E1.00000
G1 X118.486 Y140.467 F540.000 E1.04610
G1 X118.360 Y140.120 E1.09219
G1 X118.295 Y139.756 E1.13828
G1 X118.304 Y139.338 E1.19049
G1 X118.360 Y139.023 E1.23039
G1 X118.486 Y138.676 E1.27649
G1 X118.671 Y138.356 E1.32258
G1 X118.908 Y138.073 E1.36868
G1 X119.191 Y137.836 E1.41476
G1 X119.511 Y137.651 E1.46087
G1 X119.858 Y137.525 E1.50696
G1 X120.222 Y137.460 E1.55305
G1 X120.640 Y137.469 E1.60525
G1 X120.955 Y137.525 E1.64517
G1 X121.302 Y137.651 E1.69125
G1 X121.622 Y137.836 E1.73735
G1 X121.905 Y138.073 E1.78344
G1 X122.142 Y138.356 E1.82954
G1 X122.327 Y138.676 E1.87563
G1 X122.454 Y139.023 E1.92173
G1 X122.518 Y139.387 E1.96782
G1 X122.509 Y139.805 E2.02002
G1 X122.454 Y140.120 E2.05993
G1 X122.327 Y140.467 E2.10602
G1 X122.142 Y140.787 E2.15212
G1 X121.905 Y141.070 E2.19821
G1 X121.622 Y141.308 E2.24431
G1 X121.302 Y141.492 E2.29040
G1 X120.955 Y141.619 E2.33649
G1 X120.591 Y141.683 E2.38259
G1 X120.222 Y141.683 E2.42868
G1 X119.858 Y141.619 E2.47478
G1 X119.511 Y141.492 E2.52087
G1 X119.191 Y141.308 E2.56697
G1 X118.908 Y141.070 E2.61306
G1 X118.741 Y140.872 E2.64538
G1 X118.836 Y140.457 F7800.000
G1 F1800.000 E1.64538
G92 E0
G1 X122.291 Y136.371 F7800.000
G1 F1800.000 E1.00000
G1 X121.034 Y135.441 F540.000 E1.19507
G1 X119.691 Y134.699 E1.38664
G1 X118.261 Y134.140 E1.57821
G1 X116.743 Y133.767 E1.77327
G1 X116.573 Y133.704 E1.79581
G1 X116.411 Y133.572 E1.82185
G1 X116.349 Y133.488 E1.83491
G1 X116.272 Y133.295 E1.86093
G1 X116.259 Y133.191 E1.87399
G1 X116.285 Y132.984 E1.90002
G1 X116.324 Y132.887 E1.91308
G1 X116.437 Y132.730 E1.93717
G1 X121.307 Y128.040 E2.78083
G1 X121.469 Y127.931 E2.80516
G1 X121.673 Y127.878 E2.83144
G1 X121.882 Y127.897 E2.85773
G1 X122.074 Y127.985 E2.88403
G1 X122.225 Y128.132 E2.91032
G1 X122.318 Y128.321 E2.93661
G1 X122.668 Y131.180 E3.29607
G1 X123.283 Y135.814 E3.87936
G1 X123.275 Y136.008 E3.90359
G1 X123.244 Y136.110 E3.91689
G1 X123.196 Y136.206 E3.93019
G1 X123.056 Y136.365 E3.95669
G1 X122.870 Y136.468 E3.98321
G1 X122.767 Y136.493 E3.99651
G1 X122.554 Y136.491 E4.02300
G1 X122.384 Y136.430 E4.04555
G1 X122.323 Y135.636 F7800.000
G1 F1800.000 E3.04555
G92 E0
G1 X107.436 Y48.874 F7800.000
G1 F1800.000 E1.00000
G1 X107.067 Y48.874 F540.000 E1.04610
G1 X106.703 Y48.810 E1.09219
G1 X106.356 Y48.683 E1.13828
G1 X106.036 Y48.499 E1.18438
G1 X105.753 Y48.261 E1.23047
G1 X105.515 Y47.978 E1.27656
G1 X105.331 Y47.658 E1.32266
G1 X105.204 Y47.311 E1.36875
G1 X105.140 Y46.948 E1.41485
G1 X105.148 Y46.536 E1.46615
G1 X105.204 Y46.214 E1.50697
G1 X105.331 Y45.867 E1.55306
G1 X105.515 Y45.547 E1.59915
G1 X105.753 Y45.264 E1.64525
G1 X106.036 Y45.027 E1.69134
G1 X106.356 Y44.842 E1.73744
G1 X106.703 Y44.716 E1.78353
G1 X107.067 Y44.652 E1.82963
G1 X107.436 Y44.652 E1.87572
G1 X107.800 Y44.716 E1.92182
G1 X108.147 Y44.842 E1.96791
G1 X108.467 Y45.027 E2.01401
G1 X108.777 Y45.297 E2.06531
G1 X108.987 Y45.547 E2.10612
G1 X109.172 Y45.867 E2.15221
G1 X109.298 Y46.214 E2.19831
G1 X109.362 Y46.578 E2.24440
G1 X109.362 Y46.948 E2.29050
G1 X109.298 Y47.311 E2.33659
G1 X109.172 Y47.658 E2.38269
G1 X108.987 Y47.978 E2.42878
G1 X108.750 Y48.261 E2.47487
G1 X108.467 Y48.499 E2.52097
G1 X108.147 Y48.683 E2.56706
G1 X107.800 Y48.810 E2.61316
G1 X107.545 Y48.855 E2.64549
G1 X107.233 Y48.565 F7800.000
G1 F1800.000 E1.64549
G92 E0
G1 X120.139 Y47.106 F7800.000
G1 F1800.000 E1.00000
G1 X120.139 Y46.737 F540.000 E1.04609
G1 X120.203 Y46.373 E1.09219
G1 X120.329 Y46.026 E1.13828
G1 X120.514 Y45.706 E1.18438
G1 X120.751 Y45.423 E1.23047
G1 X121.034 Y45.186 E1.27657
G1 X121.354 Y45.001 E1.32266
G1 X121.701 Y44.875 E1.36876
G1 X122.065 Y44.811 E1.41485
G1 X122.434 Y44.811 E1.46094
G1 X122.798 Y44.875 E1.50704
G1 X123.145 Y45.001 E1.55313
G1 X123.465 Y45.186 E1.59923
G1 X123.748 Y45.423 E1.64532
G1 X124.007 Y45.743 E1.69663
G1 X124.170 Y46.026 E1.73744
G1 X124.297 Y46.373 E1.78353
G1 X124.361 Y46.737 E1.82963
G1 X124.361 Y47.106 E1.87572
G1 X124.297 Y47.470 E1.92182
G1 X124.170 Y47.817 E1.96791
G1 X123.986 Y48.137 E2.01400
G1 X123.748 Y48.420 E2.06010
G1 X123.429 Y48.679 E2.11140
G1 X123.145 Y48.842 E2.15222
G1 X122.798 Y48.969 E2.19831
G1 X122.434 Y49.033 E2.24440
G1 X122.065 Y49.033 E2.29050
G1 X121.701 Y48.969 E2.33660
G1 X121.354 Y48.842 E2.38269
G1 X121.034 Y48.658 E2.42878
G1 X120.751 Y48.420 E2.47488
G1 X120.514 Y48.137 E2.52097
G1 X120.329 Y47.817 E2.56707
G1 X120.203 Y47.470 E2.61316
G1 X120.158 Y47.215 E2.64549
G1 X120.447 Y46.903 F7800.000
G1 F1800.000 E1.64549
G92 E0
G1 X115.645 Y59.308 F7800.000
G1 F1800.000 E1.00000
G1 X115.965 Y59.492 F540.000 E1.04609
G1 X116.248 Y59.730 E1.09219
G1 X116.486 Y60.013 E1.13828
G1 X116.670 Y60.333 E1.18436
G1 X116.797 Y60.680 E1.23047
G1 X116.861 Y61.044 E1.27657
G1 X116.861 Y61.413 E1.32266
G1 X116.797 Y61.777 E1.36875
G1 X116.670 Y62.124 E1.41485
G1 X116.486 Y62.444 E1.46094
G1 X116.248 Y62.727 E1.50704
G1 X115.965 Y62.964 E1.55313
G1 X115.683 Y63.127 E1.59382
G1 X115.298 Y63.275 E1.64525
G1 X114.934 Y63.340 E1.69134
G1 X114.565 Y63.340 E1.73744
G1 X114.201 Y63.275 E1.78353
G1 X113.854 Y63.149 E1.82964
G1 X113.534 Y62.964 E1.87572
G1 X113.251 Y62.727 E1.92181
G1 X113.014 Y62.444 E1.96791
G1 X112.829 Y62.124 E2.01400
G1 X112.703 Y61.777 E2.06010
G1 X112.638 Y61.413 E2.10619
G1 X112.638 Y61.044 E2.15229
G1 X112.703 Y60.680 E2.19838
G1 X112.829 Y60.333 E2.24447
G1 X113.014 Y60.013 E2.29057
G1 X113.251 Y59.730 E2.33666
G1 X113.534 Y59.492 E2.38276
G1 X113.854 Y59.308 E2.42885
G1 X114.201 Y59.181 E2.47495
G1 X114.565 Y59.117 E2.52104
G1 X114.934 Y59.117 E2.56714
G1 X115.298 Y59.181 E2.61323
G1 X115.542 Y59.270 E2.64556
G1 X115.667 Y59.677 F7800.000
G1 F1800.000 E1.64556
G92 E0
G1 X109.026 Y68.214 F7800.000
G1 F1800.000 E1.00000
G1 X113.429 Y72.605 F540.000 E1.77591
G1 X113.533 Y72.751 E1.79827
G1 X113.571 Y72.840 E1.81039
G1 X113.601 Y73.032 E1.83455
G1 X113.571 Y73.223 E1.85872
G1 X113.533 Y73.313 E1.87084
G1 X113.429 Y73.458 E1.89320
G1 X109.637 Y77.250 E2.56239
G1 X109.425 Y77.360 E2.59211
G1 X109.224 Y77.386 E2.61736
G1 X109.026 Y77.346 E2.64261
G1 X108.851 Y77.244 E2.66786
G1 X108.719 Y77.091 E2.69310
G1 X108.673 Y77.000 E2.70577
G1 X108.631 Y76.820 E2.72883
G1 X108.054 Y68.755 E3.73784
G1 X108.073 Y68.559 E3.76234
G1 X108.110 Y68.458 E3.77579
G1 X108.165 Y68.365 E3.78925
G1 X108.317 Y68.213 E3.81605
G1 X108.410 Y68.159 E3.82951
G1 X108.618 Y68.104 E3.85632
G1 X108.726 Y68.104 E3.86977
G1 X108.931 Y68.159 E3.89627
G1 X108.942 Y68.944 F7800.000
G1 X109.779 Y67.167
G1 X109.709 Y67.087 F540.000 E3.90950
G1 X109.619 Y66.900 E3.93539
G1 X109.599 Y66.798 E3.94837
G1 X109.611 Y66.591 E3.97425
G1 X109.642 Y66.491 E3.98724
G1 X109.753 Y66.316 E4.01312
G1 X109.915 Y66.187 E4.03900
G1 X110.111 Y66.118 E4.06488
G1 X113.514 Y66.111 E4.48957
G1 X113.691 Y66.140 E4.51194
G1 X113.863 Y66.228 E4.53610
G1 X113.937 Y66.291 E4.54822
G1 X114.051 Y66.447 E4.57238
G1 X114.088 Y66.537 E4.58450
G1 X114.117 Y66.714 E4.60686
G1 X114.117 Y70.185 E5.03995
G1 X113.984 Y70.400 E5.07155
G1 X113.829 Y70.538 E5.09743
G1 X113.637 Y70.617 E5.12331
G1 X113.534 Y70.632 E5.13630
G1 X113.328 Y70.609 E5.16217
G1 X113.141 Y70.519 E5.18806
G1 X109.857 Y67.245 E5.76672
G1 X109.811 Y67.066 F7800.000
G1 F1800.000 E4.76672
G92 E0
G1 X115.382 Y66.714 F7800.000
G1 F1800.000 E1.00000
G1 X115.411 Y66.537 F540.000 E1.02237
G1 X115.448 Y66.447 E1.03448
G1 X115.562 Y66.291 E1.05864
G1 X115.719 Y66.177 E1.08280
G1 X115.808 Y66.140 E1.09493
G1 X115.985 Y66.111 E1.11729
G1 X119.389 Y66.118 E1.54198
G1 X119.584 Y66.187 E1.56786
G1 X119.747 Y66.316 E1.59374
G1 X119.857 Y66.491 E1.61962
G1 X119.903 Y66.694 E1.64550
G1 X119.880 Y66.900 E1.67138
G1 X119.843 Y66.997 E1.68437
G1 X119.733 Y67.154 E1.70832
G1 X116.478 Y70.417 E2.28343
G1 X116.268 Y70.572 E2.31589
G1 X116.069 Y70.629 E2.34177
G1 X115.862 Y70.617 E2.36765
G1 X115.670 Y70.538 E2.39353
G1 X115.516 Y70.400 E2.41941
G1 X115.458 Y70.313 E2.43240
G1 X115.389 Y70.117 E2.45828
G1 X115.382 Y66.824 E2.86920
G1 X115.546 Y66.642 F7800.000
G1 F1800.000 E1.86920
G92 E0
G1 X120.403 Y68.273 F7800.000
G1 F1800.000 E1.00000
G1 X120.566 Y68.160 F540.000 E1.02480
G1 X120.774 Y68.104 E1.05162
G1 X120.988 Y68.122 E1.07843
G1 X121.089 Y68.159 E1.09188
G1 X121.265 Y68.282 E1.11868
G1 X121.335 Y68.365 E1.13214
G1 X121.426 Y68.559 E1.15895
G1 X121.445 Y68.754 E1.18343
G1 X120.868 Y76.821 E2.19248
G1 X120.826 Y77.000 E2.21551
G1 X120.781 Y77.091 E2.22818
G1 X120.648 Y77.244 E2.25343
G1 X120.473 Y77.346 E2.27868
G1 X120.275 Y77.386 E2.30393
G1 X120.074 Y77.360 E2.32917
G1 X119.980 Y77.323 E2.34184
G1 X119.827 Y77.215 E2.36520
G1 X116.097 Y73.490 E3.02291
G1 X115.966 Y73.313 E3.05044
G1 X115.906 Y73.128 E3.07460
G1 X115.898 Y73.032 E3.08672
G1 X115.929 Y72.840 E3.11088
G1 X115.966 Y72.751 E3.12300
G1 X116.070 Y72.605 E3.14536
G1 X120.325 Y68.351 E3.89610
G1 X120.587 Y68.347 F7800.000
G1 F1800.000 E2.89610
G92 E0
G1 X120.069 Y80.681 F7800.000
G1 F1800.000 E1.00000
G1 X120.274 Y80.731 F540.000 E1.02635
G1 X120.450 Y80.848 E1.05269
G1 X120.576 Y81.017 E1.07904
G1 X120.616 Y81.115 E1.09226
G1 X120.642 Y81.307 E1.11639
G1 X120.419 Y88.213 E1.97864
G1 X120.347 Y88.406 E2.00430
G1 X120.217 Y88.565 E2.02996
G1 X120.042 Y88.673 E2.05563
G1 X119.841 Y88.717 E2.08129
G1 X119.636 Y88.692 E2.10695
G1 X119.540 Y88.655 E2.11982
G1 X119.384 Y88.546 E2.14357
G1 X116.115 Y85.284 E2.71989
G1 X115.966 Y85.086 E2.75076
G1 X115.906 Y84.902 E2.77492
G1 X115.898 Y84.805 E2.78704
G1 X115.929 Y84.614 E2.81120
G1 X115.966 Y84.524 E2.82332
G1 X116.070 Y84.379 E2.84568
G1 X119.599 Y80.850 E3.46833
G1 X119.759 Y80.739 E3.49271
G1 X119.958 Y80.683 E3.51852
G1 X120.155 Y80.873 F7800.000
G1 X119.160 Y79.500
G1 X116.358 Y82.292 F540.000 E4.01214
G1 X116.171 Y82.382 E4.03802
G1 X116.069 Y82.403 E4.05100
G1 X115.862 Y82.391 E4.07688
G1 X115.670 Y82.312 E4.10277
G1 X115.516 Y82.173 E4.12865
G1 X115.415 Y81.992 E4.15453
G1 X115.382 Y81.803 E4.17848
G1 X115.382 Y76.034 E4.89836
G1 X115.415 Y75.845 E4.92231
G1 X115.458 Y75.750 E4.93530
G1 X115.587 Y75.588 E4.96117
G1 X115.763 Y75.477 E4.98706
G1 X115.965 Y75.431 E5.01294
G1 X116.171 Y75.454 E5.03882
G1 X116.358 Y75.544 E5.06470
G1 X119.317 Y78.493 E5.58594
G1 X119.430 Y78.657 E5.61078
G1 X119.467 Y78.758 E5.62425
G1 X119.486 Y78.972 E5.65108
G1 X119.430 Y79.180 E5.67791
G1 X119.376 Y79.274 E5.69138
G1 X119.238 Y79.422 E5.71667
G1 X118.448 Y79.315 F7800.000
G1 F1800.000 E4.71667
G92 E0
G1 X114.117 Y77.277 F7800.000
G1 F1800.000 E1.00000
G1 X114.117 Y82.203 F540.000 E1.61466
G1 X113.973 Y82.203 E1.63264
G1 X113.829 Y82.312 E1.65518
G1 X113.637 Y82.391 E1.68106
G1 X113.430 Y82.403 E1.70694
G1 X113.231 Y82.345 E1.73282
G1 X113.074 Y82.235 E1.75677
G1 X110.182 Y79.344 E2.26701
G1 X110.069 Y79.180 E2.29184
G1 X110.032 Y79.079 E2.30531
G1 X110.014 Y78.864 E2.33214
G1 X110.069 Y78.657 E2.35897
G1 X110.182 Y78.493 E2.38381
G1 X113.109 Y75.566 E2.90030
G1 X113.231 Y75.492 E2.91812
G1 X113.430 Y75.434 E2.94400
G1 X113.637 Y75.446 E2.96988
G1 X113.737 Y75.477 E2.98287
G1 X113.912 Y75.588 E3.00875
G1 X114.042 Y75.750 E3.03463
G1 X114.084 Y75.845 E3.04762
