; generated by Slic3r 0.9.10b on 2014-01-20 at 22:34:49

; layer_height = 0.4
; perimeters = 5
; top_solid_layers = 3
; bottom_solid_layers = 3
; fill_density = 0.4
; perimeter_speed = 30
; infill_speed = 60
; travel_speed = 130
; nozzle_diameter = 0.5
; filament_diameter = 1.75
; extrusion_multiplier = 0.98
; perimeters extrusion width = 0.53mm
; infill extrusion width = 0.53mm
; solid infill extrusion width = 0.53mm
; top infill extrusion width = 0.53mm
; first layer extrusion width = 0.70mm

G21 ; set units to millimeters
M107
M104 S195 ; set temperature
G28 ; home all axes
G1 Z5 F5000 ; lift nozzle
M109 S195 ; wait for temperature to be reached
G90 ; use absolute coordinates
G92 E0
M82 ; use absolute distances for extrusion
G1 F1800.000 E-1.00000
G92 E0
G1 Z-0.050 F7800.000
G1 X68.901 Y41.302
G1 F1800.000 E1.00000
G1 X69.241 Y40.782 F540.000 E1.05822
G1 X69.601 Y40.282 E1.11595
G1 X70.001 Y39.822 E1.17307
G1 X70.431 Y39.372 E1.23139
G1 X71.161 Y38.712 E1.32360
G1 X72.121 Y37.992 E1.43604
G1 X73.181 Y37.412 E1.54926
G1 X73.711 Y37.162 E1.60417
G1 X74.271 Y36.952 E1.66021
G1 X74.871 Y36.762 E1.71919
G1 X75.881 Y36.532 E1.81625
G1 X76.471 Y36.442 E1.87217
G1 X77.471 Y36.362 E1.96617
G1 X107.061 Y36.362 E4.73880
G1 X122.191 Y36.512 E6.15657
G1 X123.071 Y36.552 E6.23911
G1 X123.651 Y36.602 E6.29366
G1 X124.851 Y36.852 E6.40851
G1 X125.931 Y37.192 E6.51461
G1 X126.511 Y37.432 E6.57342
G1 X127.491 Y37.932 E6.67651
G1 X128.051 Y38.282 E6.73839
G1 X128.551 Y38.632 E6.79558
G1 X129.011 Y39.022 E6.85209
G1 X129.481 Y39.452 E6.91178
G1 X130.241 Y40.272 E7.01654
G1 X130.631 Y40.772 E7.07596
G1 X131.231 Y41.682 E7.17809
G1 X131.541 Y42.252 E7.23889
G1 X131.811 Y42.812 E7.29714
G1 X132.031 Y43.392 E7.35527
G1 X132.221 Y43.982 E7.41335
G1 X132.441 Y44.912 E7.50290
G1 X132.551 Y45.562 E7.56467
G1 X132.651 Y46.642 E7.66630
G1 X133.151 Y145.282 E16.90912
G1 X133.121 Y145.932 E16.97009
G1 X132.931 Y147.962 E17.16114
G1 X132.851 Y148.532 E17.21507
G1 X132.721 Y149.102 E17.26985
G1 X132.181 Y151.072 E17.46126
G1 X132.001 Y151.622 E17.51548
G1 X131.781 Y152.162 E17.57012
G1 X130.911 Y154.002 E17.76083
G1 X130.631 Y154.512 E17.81535
G1 X130.321 Y155.012 E17.87047
G1 X129.141 Y156.672 E18.06131
G1 X128.421 Y157.522 E18.16569
G1 X126.981 Y158.962 E18.35651
G1 X126.531 Y159.362 E18.41292
G1 X126.051 Y159.732 E18.46971
G1 X124.371 Y160.892 E18.66101
G1 X123.401 Y161.452 E18.76596
G1 X121.551 Y162.312 E18.95712
G1 X120.471 Y162.702 E19.06472
G1 X118.501 Y163.232 E19.25587
G1 X117.921 Y163.362 E19.31157
G1 X117.331 Y163.432 E19.36724
G1 X115.301 Y163.602 E19.55812
G1 X114.741 Y163.632 E19.61067
G1 X85.241 Y163.632 E22.37486
G1 X84.681 Y163.602 E22.42741
G1 X82.651 Y163.432 E22.61828
G1 X82.061 Y163.362 E22.67396
G1 X81.481 Y163.232 E22.72965
G1 X79.511 Y162.702 E22.92081
G1 X78.961 Y162.522 E22.97503
G1 X78.421 Y162.302 E23.02967
G1 X76.581 Y161.442 E23.21998
G1 X75.621 Y160.892 E23.32365
G1 X73.941 Y159.732 E23.51495
G1 X73.461 Y159.362 E23.57174
G1 X73.011 Y158.962 E23.62815
G1 X71.571 Y157.522 E23.81897
G1 X70.851 Y156.672 E23.92335
G1 X69.671 Y155.012 E24.11419
G1 X69.361 Y154.512 E24.16932
G1 X69.081 Y154.002 E24.22383
G1 X68.211 Y152.162 E24.41454
G1 X67.991 Y151.622 E24.46918
G1 X67.811 Y151.072 E24.52341
G1 X67.271 Y149.102 E24.71481
G1 X67.141 Y148.532 E24.76959
G1 X67.061 Y147.962 E24.82352
G1 X66.871 Y145.932 E25.01457
G1 X66.841 Y145.282 E25.07554
G1 X67.341 Y46.702 E34.31274
G1 X67.411 Y45.572 E34.41883
G1 X67.491 Y44.982 E34.47462
G1 X67.621 Y44.392 E34.53123
G1 X67.781 Y43.792 E34.58941
G1 X68.151 Y42.752 E34.69285
G1 X68.411 Y42.182 E34.75155
G1 X68.853 Y41.388 E34.83669
G1 F1800.000 E33.83669
G92 E0
G1 X108.214 Y149.000 F7800.000
G1 F1800.000 E1.00000
G1 X108.555 Y148.876 F540.000 E1.03397
G1 X108.912 Y148.813 E1.06794
G1 X109.274 Y148.813 E1.10191
G1 X109.672 Y148.891 E1.13994
G1 X109.972 Y149.000 E1.16979
G1 X110.286 Y149.182 E1.20376
G1 X110.563 Y149.415 E1.23773
G1 X110.796 Y149.692 E1.27170
G1 X110.978 Y150.006 E1.30567
G1 X111.102 Y150.347 E1.33964
G1 X111.165 Y150.704 E1.37361
G1 X111.165 Y151.067 E1.40758
G1 X111.087 Y151.465 E1.44562
G1 X110.978 Y151.764 E1.47546
G1 X110.796 Y152.078 E1.50944
G1 X110.563 Y152.356 E1.54341
G1 X110.286 Y152.589 E1.57738
G1 X109.972 Y152.770 E1.61134
G1 X109.631 Y152.894 E1.64531
G1 X109.274 Y152.957 E1.67928
G1 X108.912 Y152.957 E1.71325
G1 X108.513 Y152.879 E1.75129
G1 X108.214 Y152.770 E1.78114
G1 X107.900 Y152.589 E1.81510
G1 X107.622 Y152.356 E1.84908
G1 X107.389 Y152.078 E1.88305
G1 X107.208 Y151.764 E1.91702
G1 X107.084 Y151.424 E1.95099
G1 X107.021 Y151.067 E1.98496
G1 X107.021 Y150.704 E2.01892
G1 X107.084 Y150.347 E2.05290
G1 X107.208 Y150.006 E2.08686
G1 X107.389 Y149.692 E2.12084
G1 X107.622 Y149.415 E2.15481
G1 X107.900 Y149.182 E2.18878
G1 X108.128 Y149.050 E2.21351
G1 X108.505 Y149.217 F7800.000
G1 F1800.000 E1.21351
G92 E0
G1 X118.703 Y140.764 F7800.000
G1 F1800.000 E1.00000
G1 X118.522 Y140.451 F540.000 E1.03397
G1 X118.398 Y140.110 E1.06794
G1 X118.335 Y139.753 E1.10191
G1 X118.342 Y139.347 E1.13994
G1 X118.398 Y139.033 E1.16979
G1 X118.522 Y138.693 E1.20376
G1 X118.703 Y138.379 E1.23773
G1 X118.936 Y138.101 E1.27170
G1 X119.214 Y137.868 E1.30566
G1 X119.528 Y137.687 E1.33964
G1 X119.868 Y137.563 E1.37361
G1 X120.225 Y137.500 E1.40758
G1 X120.631 Y137.507 E1.44562
G1 X120.945 Y137.563 E1.47546
G1 X121.285 Y137.687 E1.50943
G1 X121.599 Y137.868 E1.54340
G1 X121.877 Y138.101 E1.57737
G1 X122.110 Y138.379 E1.61134
G1 X122.291 Y138.693 E1.64531
G1 X122.415 Y139.033 E1.67928
G1 X122.478 Y139.390 E1.71325
G1 X122.471 Y139.796 E1.75129
G1 X122.415 Y140.110 E1.78113
G1 X122.291 Y140.451 E1.81511
G1 X122.110 Y140.765 E1.84908
G1 X121.877 Y141.042 E1.88305
G1 X121.599 Y141.275 E1.91702
G1 X121.285 Y141.457 E1.95099
G1 X120.945 Y141.581 E1.98496
G1 X120.588 Y141.643 E2.01892
G1 X120.225 Y141.643 E2.05290
G1 X119.868 Y141.580 E2.08687
G1 X119.528 Y141.456 E2.12083
G1 X119.214 Y141.275 E2.15480
G1 X118.936 Y141.042 E2.18878
G1 X118.766 Y140.840 E2.21351
G1 X118.866 Y140.441 F7800.000
G1 F1800.000 E1.21351
G92 E0
G1 X122.314 Y136.339 F7800.000
G1 F1800.000 E1.00000
G1 X121.056 Y135.408 F540.000 E1.14669
G1 X119.707 Y134.663 E1.29104
G1 X118.273 Y134.102 E1.43537
G1 X116.752 Y133.729 E1.58209
G1 X116.593 Y133.670 E1.59803
G1 X116.441 Y133.546 E1.61633
G1 X116.383 Y133.468 E1.62551
G1 X116.310 Y133.286 E1.64381
G1 X116.298 Y133.189 E1.65299
G1 X116.323 Y132.995 E1.67129
G1 X116.359 Y132.904 E1.68048
G1 X116.466 Y132.758 E1.69748
G1 X121.333 Y128.069 E2.33069
G1 X121.485 Y127.967 E2.34786
G1 X121.676 Y127.918 E2.36634
G1 X121.872 Y127.935 E2.38483
G1 X122.052 Y128.017 E2.40332
G1 X122.193 Y128.155 E2.42180
G1 X122.244 Y128.240 E2.43108
G1 X122.297 Y128.415 E2.44818
G1 X122.629 Y131.185 E2.70966
G1 X123.243 Y135.816 E3.14737
G1 X123.236 Y136.000 E3.16464
G1 X123.207 Y136.096 E3.17400
G1 X123.163 Y136.185 E3.18335
G1 X123.031 Y136.334 E3.20198
G1 X122.857 Y136.430 E3.22062
G1 X122.760 Y136.455 E3.22997
G1 X122.562 Y136.452 E3.24861
G1 X122.397 Y136.392 E3.26502
G1 X122.343 Y135.683 F7800.000
G1 F1800.000 E2.26502
G92 E0
G1 X107.433 Y48.835 F7800.000
G1 F1800.000 E1.00000
G1 X107.070 Y48.835 F540.000 E1.03397
G1 X106.713 Y48.772 E1.06794
G1 X106.340 Y48.629 E1.10539
G1 X106.058 Y48.467 E1.13583
G1 X105.781 Y48.233 E1.16980
G1 X105.548 Y47.956 E1.20377
G1 X105.366 Y47.642 E1.23774
G1 X105.242 Y47.301 E1.27171
G1 X105.179 Y46.944 E1.30568
G1 X105.186 Y46.545 E1.34312
G1 X105.242 Y46.225 E1.37357
G1 X105.366 Y45.884 E1.40754
G1 X105.548 Y45.570 E1.44151
G1 X105.781 Y45.292 E1.47548
G1 X106.058 Y45.059 E1.50945
G1 X106.372 Y44.878 E1.54342
G1 X106.713 Y44.754 E1.57739
G1 X107.070 Y44.691 E1.61136
G1 X107.433 Y44.691 E1.64532
G1 X107.790 Y44.754 E1.67930
G1 X108.130 Y44.878 E1.71327
G1 X108.473 Y45.083 E1.75071
G1 X108.722 Y45.292 E1.78116
G1 X108.955 Y45.570 E1.81513
G1 X109.136 Y45.884 E1.84910
G1 X109.260 Y46.225 E1.88307
G1 X109.323 Y46.582 E1.91704
G1 X109.323 Y46.944 E1.95101
G1 X109.260 Y47.301 E1.98498
G1 X109.136 Y47.642 E2.01895
G1 X108.955 Y47.956 E2.05291
G1 X108.722 Y48.233 E2.08689
G1 X108.444 Y48.467 E2.12086
G1 X108.130 Y48.648 E2.15483
G1 X107.790 Y48.772 E2.18880
G1 X107.530 Y48.818 E2.21353
G1 X107.233 Y48.532 F7800.000
G1 F1800.000 E1.21353
G92 E0
G1 X120.178 Y47.103 F7800.000
G1 F1800.000 E1.00000
G1 X120.184 Y46.703 F540.000 E1.03744
G1 X120.241 Y46.383 E1.06789
G1 X120.365 Y46.043 E1.10186
G1 X120.546 Y45.729 E1.13583
G1 X120.779 Y45.451 E1.16980
G1 X121.057 Y45.218 E1.20377
G1 X121.371 Y45.037 E1.23774
G1 X121.711 Y44.913 E1.27171
G1 X122.068 Y44.850 E1.30568
G1 X122.431 Y44.850 E1.33965
G1 X122.788 Y44.913 E1.37362
G1 X123.129 Y45.037 E1.40759
G1 X123.471 Y45.242 E1.44503
G1 X123.720 Y45.451 E1.47548
G1 X123.953 Y45.729 E1.50945
G1 X124.135 Y46.043 E1.54342
G1 X124.259 Y46.383 E1.57739
G1 X124.322 Y46.740 E1.61136
G1 X124.322 Y47.103 E1.64533
G1 X124.259 Y47.460 E1.67930
G1 X124.135 Y47.801 E1.71327
G1 X123.953 Y48.115 E1.74724
G1 X123.720 Y48.392 E1.78121
G1 X123.443 Y48.625 E1.81518
G1 X123.129 Y48.807 E1.84914
G1 X122.788 Y48.931 E1.88312
G1 X122.431 Y48.994 E1.91709
G1 X122.068 Y48.994 E1.95106
G1 X121.711 Y48.931 E1.98503
G1 X121.371 Y48.807 E2.01900
G1 X121.057 Y48.625 E2.05297
G1 X120.779 Y48.392 E2.08694
G1 X120.546 Y48.115 E2.12090
G1 X120.365 Y47.801 E2.15488
G1 X120.241 Y47.460 E2.18885
G1 X120.195 Y47.200 E2.21358
G1 X120.514 Y46.887 F7800.000
G1 F1800.000 E1.21358
G92 E0
G1 X115.629 Y59.343 F7800.000
G1 F1800.000 E1.00000
G1 X115.943 Y59.525 F540.000 E1.03397
G1 X116.220 Y59.758 E1.06794
G1 X116.453 Y60.036 E1.10191
G1 X116.635 Y60.349 E1.13588
G1 X116.759 Y60.690 E1.16985
G1 X116.822 Y61.047 E1.20382
G1 X116.822 Y61.410 E1.23779
G1 X116.759 Y61.767 E1.27176
G1 X116.635 Y62.107 E1.30573
G1 X116.453 Y62.421 E1.33970
G1 X116.220 Y62.699 E1.37367
G1 X115.943 Y62.932 E1.40764
G1 X115.629 Y63.113 E1.44161
G1 X115.288 Y63.237 E1.47558
G1 X114.931 Y63.300 E1.50955
G1 X114.568 Y63.300 E1.54352
G1 X114.211 Y63.237 E1.57749
G1 X113.871 Y63.113 E1.61146
G1 X113.557 Y62.932 E1.64543
G1 X113.279 Y62.699 E1.67940
G1 X113.046 Y62.421 E1.71337
G1 X112.865 Y62.107 E1.74734
G1 X112.741 Y61.767 E1.78131
G1 X112.678 Y61.410 E1.81527
G1 X112.678 Y61.047 E1.84924
G1 X112.741 Y60.690 E1.88321
G1 X112.865 Y60.349 E1.91718
G1 X113.046 Y60.036 E1.95115
G1 X113.279 Y59.758 E1.98512
G1 X113.557 Y59.525 E2.01909
G1 X113.871 Y59.343 E2.05306
G1 X114.211 Y59.219 E2.08703
G1 X114.568 Y59.157 E2.12100
G1 X114.931 Y59.157 E2.15497
G1 X115.288 Y59.219 E2.18894
G1 X115.536 Y59.310 E2.21368
G1 X115.650 Y59.705 F7800.000
G1 F1800.000 E1.21368
G92 E0
G1 X109.004 Y68.246 F7800.000
G1 F1800.000 E1.00000
G1 X113.400 Y72.632 F540.000 E1.58187
G1 X113.498 Y72.768 E1.59765
G1 X113.533 Y72.852 E1.60617
G1 X113.561 Y73.032 E1.62316
G1 X113.533 Y73.211 E1.64015
G1 X113.498 Y73.295 E1.64867
G1 X113.400 Y73.431 E1.66445
G1 X109.646 Y77.186 E2.16193
G1 X109.502 Y77.287 E2.17842
G1 X109.414 Y77.322 E2.18733
G1 X109.226 Y77.346 E2.20508
G1 X109.040 Y77.309 E2.22283
G1 X108.877 Y77.213 E2.24058
G1 X108.752 Y77.070 E2.25833
G1 X108.709 Y76.985 E2.26724
G1 X108.670 Y76.816 E2.28352
G1 X108.093 Y68.753 E3.04095
G1 X108.111 Y68.570 E3.05826
G1 X108.146 Y68.475 E3.06772
G1 X108.197 Y68.387 E3.07718
G1 X108.339 Y68.245 E3.09602
G1 X108.427 Y68.195 E3.10548
G1 X108.621 Y68.143 E3.12434
G1 X108.821 Y68.161 E3.14318
G1 X108.918 Y68.197 E3.15287
G1 X108.909 Y68.896 F7800.000
G1 X109.795 Y67.128
G1 X109.692 Y66.980 F540.000 E3.16977
G1 X109.638 Y66.793 E3.18797
G1 X109.649 Y66.599 E3.20617
G1 X109.679 Y66.507 E3.21530
G1 X109.723 Y66.420 E3.22443
G1 X109.853 Y66.275 E3.24262
G1 X110.023 Y66.181 E3.26082
G1 X110.117 Y66.157 E3.26996
G1 X113.513 Y66.150 E3.58810
G1 X113.679 Y66.177 E3.60389
G1 X113.840 Y66.260 E3.62088
G1 X113.909 Y66.319 E3.62940
G1 X114.016 Y66.465 E3.64639
G1 X114.051 Y66.549 E3.65491
G1 X114.078 Y66.716 E3.67069
G1 X114.078 Y70.028 E3.98104
G1 X114.047 Y70.205 E3.99794
G1 X113.953 Y70.375 E4.01614
G1 X113.808 Y70.505 E4.03434
G1 X113.629 Y70.579 E4.05253
G1 X113.532 Y70.593 E4.06167
G1 X113.339 Y70.571 E4.07986
G1 X113.164 Y70.487 E4.09806
G1 X109.865 Y67.197 E4.53457
G1 X109.862 Y66.960 F7800.000
G1 F1800.000 E3.53457
G92 E0
G1 X115.421 Y66.716 F7800.000
G1 F1800.000 E1.00000
G1 X115.448 Y66.549 F540.000 E1.01578
G1 X115.483 Y66.465 E1.02430
G1 X115.590 Y66.319 E1.04129
G1 X115.737 Y66.212 E1.05828
G1 X115.821 Y66.177 E1.06680
G1 X115.987 Y66.150 E1.08258
G1 X119.382 Y66.157 E1.40073
G1 X119.565 Y66.221 E1.41893
G1 X119.717 Y66.342 E1.43713
G1 X119.821 Y66.507 E1.45533
G1 X119.864 Y66.696 E1.47353
G1 X119.842 Y66.889 E1.49172
G1 X119.807 Y66.980 E1.50085
G1 X119.704 Y67.128 E1.51776
G1 X116.399 Y70.433 E1.95570
G1 X116.251 Y70.536 E1.97261
G1 X116.160 Y70.571 E1.98174
G1 X115.967 Y70.593 E1.99993
G1 X115.778 Y70.549 E2.01813
G1 X115.613 Y70.446 E2.03633
G1 X115.492 Y70.294 E2.05452
G1 X115.428 Y70.111 E2.07272
G1 X115.421 Y66.814 E2.38164
G1 X115.575 Y66.648 F7800.000
G1 F1800.000 E1.38164
G92 E0
G1 X120.429 Y68.302 F7800.000
G1 F1800.000 E1.00000
G1 X120.583 Y68.195 F540.000 E1.01751
G1 X120.777 Y68.143 E1.03636
G1 X120.978 Y68.161 E1.05521
G1 X121.073 Y68.195 E1.06467
G1 X121.238 Y68.310 E1.08352
G1 X121.303 Y68.387 E1.09297
G1 X121.388 Y68.570 E1.11183
G1 X121.406 Y68.754 E1.12917
G1 X120.829 Y76.816 E1.88652
G1 X120.790 Y76.985 E1.90284
G1 X120.747 Y77.070 E1.91174
G1 X120.623 Y77.213 E1.92950
G1 X120.459 Y77.309 E1.94725
G1 X120.273 Y77.346 E1.96500
G1 X120.086 Y77.322 E1.98276
G1 X119.997 Y77.287 E1.99166
G1 X119.853 Y77.186 E2.00815
G1 X116.099 Y73.432 E2.50562
G1 X116.001 Y73.295 E2.52141
G1 X115.966 Y73.211 E2.52993
G1 X115.938 Y73.032 E2.54692
G1 X115.966 Y72.852 E2.56391
G1 X116.001 Y72.768 E2.57243
G1 X116.099 Y72.632 E2.58821
G1 X120.360 Y68.371 E3.15276
G1 X120.603 Y68.371 F7800.000
G1 F1800.000 E2.15276
G92 E0
G1 X120.066 Y80.720 F7800.000
G1 F1800.000 E1.00000
G1 X120.258 Y80.767 F540.000 E1.01853
G1 X120.423 Y80.877 E1.03705
G1 X120.541 Y81.035 E1.05558
G1 X120.578 Y81.127 E1.06487
G1 X120.603 Y81.307 E1.08191
G1 X120.388 Y88.131 E1.72169
G1 X120.354 Y88.299 E1.73772
G1 X120.313 Y88.387 E1.74677
G1 X120.191 Y88.535 E1.76481
G1 X120.027 Y88.636 E1.78285
G1 X119.839 Y88.677 E1.80090
G1 X119.648 Y88.655 E1.81894
G1 X119.557 Y88.620 E1.82799
G1 X119.411 Y88.517 E1.84475
G1 X116.099 Y85.205 E2.28361
G1 X116.001 Y85.068 E2.29939
G1 X115.966 Y84.984 E2.30791
G1 X115.938 Y84.805 E2.32491
G1 X115.966 Y84.626 E2.34190
G1 X116.001 Y84.542 E2.35042
G1 X116.099 Y84.405 E2.36620
G1 X119.625 Y80.879 E2.83346
G1 X119.776 Y80.774 E2.85067
G1 X119.967 Y80.721 E2.86925
G1 X120.147 Y80.900 F7800.000
G1 X119.135 Y79.471
G1 X116.335 Y82.260 F540.000 E3.23957
G1 X116.160 Y82.345 E3.25777
G1 X116.065 Y82.364 E3.26690
G1 X115.871 Y82.353 E3.28509
G1 X115.691 Y82.278 E3.30330
G1 X115.546 Y82.149 E3.32150
G1 X115.452 Y81.979 E3.33969
G1 X115.421 Y81.801 E3.35659
G1 X115.421 Y76.035 E3.89686
G1 X115.452 Y75.858 E3.91376
G1 X115.492 Y75.769 E3.92290
G1 X115.613 Y75.617 E3.94109
G1 X115.778 Y75.514 E3.95929
G1 X115.967 Y75.470 E3.97749
G1 X116.160 Y75.492 E3.99568
G1 X116.335 Y75.577 E4.01388
G1 X119.288 Y78.519 E4.40452
G1 X119.394 Y78.673 E4.42205
G1 X119.429 Y78.768 E4.43152
G1 X119.446 Y78.969 E4.45038
G1 X119.394 Y79.163 E4.46925
G1 X119.344 Y79.251 E4.47872
G1 X119.204 Y79.401 E4.49791
G1 X118.499 Y79.305 F7800.000
G1 F1800.000 E3.49791
G92 E0
G1 X114.078 Y77.281 F7800.000
G1 F1800.000 E1.00000
G1 X114.071 Y81.885 F540.000 E1.43136
G1 X114.007 Y82.068 E1.44956
G1 X113.886 Y82.220 E1.46776
G1 X113.808 Y82.278 E1.47689
G1 X113.629 Y82.353 E1.49509
G1 X113.435 Y82.364 E1.51328
G1 X113.248 Y82.310 E1.53148
G1 X113.100 Y82.206 E1.54838
G1 X110.211 Y79.317 E1.93122
G1 X110.105 Y79.163 E1.94874
G1 X110.071 Y79.068 E1.95821
G1 X110.053 Y78.868 E1.97708
G1 X110.105 Y78.673 E1.99595
G1 X110.211 Y78.519 E2.01347
G1 X113.100 Y75.630 E2.39631
G1 X113.248 Y75.527 E2.41321
G1 X113.435 Y75.473 E2.43141
G1 X113.629 Y75.484 E2.44960
G1 X113.722 Y75.514 E2.45874
G1 X113.886 Y75.617 E2.47693
