; generated by Slic3r 0.9.10b on 2014-03-29 at 23:05:36

; layer_height = 0.2
; perimeters = 2
; top_solid_layers = 5
; bottom_solid_layers = 5
; fill_density = 0.24
; perimeter_speed = 30
; infill_speed = 60
; travel_speed = 130
; nozzle_diameter = 0.3
; filament_diameter = 1.75
; extrusion_multiplier = 1.1
; perimeters extrusion width = 0.37mm
; infill extrusion width = 0.37mm
; solid infill extrusion width = 0.37mm
; top infill extrusion width = 0.37mm
; support material extrusion width = 0.37mm
; first layer extrusion width = 0.40mm

G21 ; set units to millimeters
M107 ; disable fan
M190 S60 ; wait for bed temperature to be reached
M104 S175 ; set temperature
G28 X Y ; home all axes
G1 Z5 F5000 ; lift nozzle
M109 S175 ; wait for temperature to be reached
G90 ; use absolute coordinates
G92 E0 ; reset extrusion distance
M82 ; use absolute distances for extrusion
G1 F1800.000 E-1.00000 ; retract
G92 E0 ; reset extrusion distance
G1 Z0.800 F7800.000 ; move to next layer (0)
G1 X58.980 Y76.930 ; move to first skirt point
G1 F1800.000 E1.00000 ; compensate retraction
G1 X60.410 Y75.960 F540.000 E1.05983 ; skirt
G1 X62.070 Y74.960 E1.12692 ; skirt
G1 X63.510 Y74.200 E1.18330 ; skirt
G1 X64.170 Y73.900 E1.20840 ; skirt
G1 X66.000 Y73.150 E1.27688 ; skirt
G1 X66.820 Y72.860 E1.30699 ; skirt
G1 X69.530 Y72.100 E1.40444 ; skirt
G1 X70.540 Y71.900 E1.44009 ; skirt
G1 X71.560 Y71.830 E1.47549 ; skirt
G1 X128.430 Y71.830 E3.44451 ; skirt
G1 X129.450 Y71.900 E3.47991 ; skirt
G1 X130.460 Y72.100 E3.51556 ; skirt
G1 X133.170 Y72.860 E3.61301 ; skirt
G1 X133.990 Y73.150 E3.64312 ; skirt
G1 X135.820 Y73.900 E3.71160 ; skirt
G1 X136.480 Y74.200 E3.73670 ; skirt
G1 X137.920 Y74.960 E3.79308 ; skirt
G1 X138.340 Y75.200 E3.80983 ; skirt
G1 X139.580 Y75.960 E3.86018 ; skirt
G1 X141.010 Y76.930 E3.92001 ; skirt
G1 X141.600 Y77.380 E3.94570 ; skirt
G1 X143.440 Y78.950 E4.02944 ; skirt
G1 X144.580 Y80.050 E4.08429 ; skirt
G1 X145.010 Y80.520 E4.10635 ; skirt
G1 X146.410 Y82.160 E4.18101 ; skirt
G1 X147.030 Y82.920 E4.21497 ; skirt
G1 X147.620 Y83.750 E4.25023 ; skirt
G1 X149.010 Y86.020 E4.34238 ; skirt
G1 X149.650 Y87.200 E4.38886 ; skirt
G1 X149.910 Y87.750 E4.40993 ; skirt
G1 X150.280 Y88.610 E4.44234 ; skirt
G1 X150.900 Y90.130 E4.49918 ; skirt
G1 X151.280 Y91.170 E4.53751 ; skirt
G1 X151.520 Y91.990 E4.56710 ; skirt
G1 X152.250 Y95.090 E4.67736 ; skirt
G1 X152.410 Y96.160 E4.71482 ; skirt
G1 X152.650 Y99.190 E4.82006 ; skirt
G1 X152.670 Y99.980 E4.84742 ; skirt
G1 X152.630 Y101.130 E4.88726 ; skirt
G1 X152.450 Y103.400 E4.96610 ; skirt
G1 X152.310 Y104.550 E5.00621 ; skirt
G1 X152.160 Y105.340 E5.03406 ; skirt
G1 X151.400 Y108.440 E5.14457 ; skirt
G1 X151.060 Y109.470 E5.18212 ; skirt
G1 X149.770 Y112.570 E5.29838 ; skirt
G1 X149.290 Y113.510 E5.33492 ; skirt
G1 X147.840 Y115.880 E5.43112 ; skirt
G1 X147.200 Y116.840 E5.47106 ; skirt
G1 X146.670 Y117.530 E5.50119 ; skirt
G1 X144.730 Y119.800 E5.60457 ; skirt
G1 X143.960 Y120.580 E5.64252 ; skirt
G1 X142.040 Y122.240 E5.73040 ; skirt
G1 X141.130 Y122.990 E5.77123 ; skirt
G1 X140.280 Y123.600 E5.80745 ; skirt
G1 X137.830 Y125.100 E5.90692 ; skirt
G1 X136.910 Y125.580 E5.94284 ; skirt
G1 X134.880 Y126.470 E6.01959 ; skirt
G1 X132.910 Y127.230 E6.09270 ; skirt
G1 X131.730 Y127.580 E6.13531 ; skirt
G1 X128.060 Y128.340 E6.26507 ; skirt
G1 X127.310 Y128.460 E6.29137 ; skirt
G1 X126.540 Y128.490 E6.31805 ; skirt
G1 X73.450 Y128.490 E8.15620 ; skirt
G1 X72.680 Y128.460 E8.18288 ; skirt
G1 X71.930 Y128.340 E8.20918 ; skirt
G1 X68.260 Y127.580 E8.33894 ; skirt
G1 X67.080 Y127.230 E8.38156 ; skirt
G1 X65.110 Y126.470 E8.45467 ; skirt
G1 X63.080 Y125.580 E8.53141 ; skirt
G1 X62.170 Y125.110 E8.56687 ; skirt
G1 X59.700 Y123.590 E8.66729 ; skirt
G1 X58.860 Y122.990 E8.70303 ; skirt
G1 X57.950 Y122.240 E8.74386 ; skirt
G1 X56.030 Y120.580 E8.83173 ; skirt
G1 X55.260 Y119.800 E8.86968 ; skirt
G1 X53.320 Y117.530 E8.97307 ; skirt
G1 X52.790 Y116.840 E9.00319 ; skirt
G1 X52.110 Y115.810 E9.04593 ; skirt
G1 X50.720 Y113.540 E9.13808 ; skirt
G1 X50.220 Y112.570 E9.17587 ; skirt
G1 X48.930 Y109.470 E9.29212 ; skirt
G1 X48.590 Y108.440 E9.32968 ; skirt
G1 X47.830 Y105.340 E9.44019 ; skirt
G1 X47.680 Y104.550 E9.46803 ; skirt
G1 X47.580 Y103.790 E9.49457 ; skirt
G1 X47.520 Y103.110 E9.51821 ; skirt
G1 X47.490 Y102.350 E9.54454 ; skirt
G1 X47.500 Y97.410 E9.71558 ; skirt
G1 X47.580 Y96.160 E9.75895 ; skirt
G1 X47.740 Y95.090 E9.79641 ; skirt
G1 X48.470 Y91.990 E9.90667 ; skirt
G1 X48.710 Y91.170 E9.93626 ; skirt
G1 X48.980 Y90.420 E9.96385 ; skirt
G1 X49.710 Y88.610 E10.03143 ; skirt
G1 X50.080 Y87.750 E10.06384 ; skirt
G1 X50.340 Y87.200 E10.08491 ; skirt
G1 X50.740 Y86.440 E10.11464 ; skirt
G1 X52.370 Y83.750 E10.22354 ; skirt
G1 X52.960 Y82.920 E10.25880 ; skirt
G1 X53.690 Y82.030 E10.29865 ; skirt
G1 X54.980 Y80.520 E10.36742 ; skirt
G1 X55.410 Y80.050 E10.38947 ; skirt
G1 X56.550 Y78.950 E10.44432 ; skirt
G1 X58.390 Y77.380 E10.52807 ; skirt
G1 X58.935 Y76.964 E10.55179 ; skirt
G1 X59.200 Y77.240 F7800.000 ; move to first skirt point
G1 X60.310 Y76.480 F540.000 E10.59837 ; skirt
G1 X62.250 Y75.300 E10.67699 ; skirt
G1 X63.690 Y74.540 E10.73336 ; skirt
G1 X64.310 Y74.250 E10.75706 ; skirt
G1 X66.140 Y73.500 E10.82554 ; skirt
G1 X66.920 Y73.230 E10.85412 ; skirt
G1 X69.630 Y72.470 E10.95157 ; skirt
G1 X70.590 Y72.270 E10.98552 ; skirt
G1 X71.560 Y72.200 E11.01919 ; skirt
G1 X128.430 Y72.200 E12.98822 ; skirt
G1 X129.400 Y72.270 E13.02189 ; skirt
G1 X130.360 Y72.470 E13.05584 ; skirt
G1 X133.070 Y73.230 E13.15329 ; skirt
G1 X133.850 Y73.500 E13.18187 ; skirt
G1 X135.680 Y74.250 E13.25034 ; skirt
G1 X136.300 Y74.540 E13.27404 ; skirt
G1 X137.740 Y75.300 E13.33042 ; skirt
G1 X139.380 Y76.290 E13.39674 ; skirt
G1 X140.790 Y77.240 E13.45561 ; skirt
G1 X141.360 Y77.670 E13.48033 ; skirt
G1 X142.250 Y78.420 E13.52063 ; skirt
G1 X143.540 Y79.560 E13.58023 ; skirt
G1 X144.310 Y80.320 E13.61769 ; skirt
G1 X144.730 Y80.770 E13.63900 ; skirt
G1 X146.020 Y82.280 E13.70776 ; skirt
G1 X146.740 Y83.160 E13.74713 ; skirt
G1 X147.300 Y83.940 E13.78038 ; skirt
G1 X148.690 Y86.210 E13.87254 ; skirt
G1 X149.310 Y87.380 E13.91838 ; skirt
G1 X149.560 Y87.900 E13.93836 ; skirt
G1 X149.930 Y88.750 E13.97046 ; skirt
G1 X150.550 Y90.270 E14.02729 ; skirt
G1 X150.920 Y91.300 E14.06519 ; skirt
G1 X151.150 Y92.080 E14.09334 ; skirt
G1 X151.880 Y95.170 E14.20327 ; skirt
G1 X152.030 Y96.190 E14.23897 ; skirt
G1 X152.270 Y99.220 E14.34421 ; skirt
G1 X152.290 Y99.970 E14.37018 ; skirt
G1 X152.250 Y101.100 E14.40933 ; skirt
G1 X152.070 Y103.370 E14.48817 ; skirt
G1 X151.930 Y104.500 E14.52760 ; skirt
G1 X151.790 Y105.250 E14.55401 ; skirt
G1 X151.230 Y107.590 E14.63732 ; skirt
G1 X151.040 Y108.340 E14.66411 ; skirt
G1 X150.710 Y109.320 E14.69991 ; skirt
G1 X149.790 Y111.570 E14.78407 ; skirt
G1 X149.420 Y112.420 E14.81617 ; skirt
G1 X148.960 Y113.310 E14.85086 ; skirt
G1 X147.990 Y114.930 E14.91623 ; skirt
G1 X147.400 Y115.870 E14.95466 ; skirt
G1 X146.890 Y116.630 E14.98635 ; skirt
G1 X146.380 Y117.290 E15.01523 ; skirt
G1 X144.440 Y119.560 E15.11861 ; skirt
G1 X143.710 Y120.290 E15.15436 ; skirt
G1 X141.800 Y121.950 E15.24197 ; skirt
G1 X140.890 Y122.700 E15.28280 ; skirt
G1 X140.080 Y123.270 E15.31710 ; skirt
G1 X137.630 Y124.780 E15.41674 ; skirt
G1 X136.760 Y125.240 E15.45081 ; skirt
G1 X134.750 Y126.120 E15.52678 ; skirt
G1 X132.780 Y126.880 E15.59989 ; skirt
G1 X131.660 Y127.210 E15.64032 ; skirt
G1 X127.990 Y127.970 E15.77008 ; skirt
G1 X127.270 Y128.080 E15.79530 ; skirt
G1 X126.540 Y128.120 E15.82061 ; skirt
G1 X73.450 Y128.120 E17.65876 ; skirt
G1 X72.720 Y128.080 E17.68407 ; skirt
G1 X72.000 Y127.970 E17.70929 ; skirt
G1 X68.330 Y127.210 E17.83906 ; skirt
G1 X67.210 Y126.880 E17.87948 ; skirt
G1 X65.240 Y126.120 E17.95259 ; skirt
G1 X63.230 Y125.240 E18.02856 ; skirt
G1 X62.370 Y124.790 E18.06217 ; skirt
G1 X59.900 Y123.270 E18.16258 ; skirt
G1 X59.100 Y122.700 E18.19659 ; skirt
G1 X58.190 Y121.950 E18.23742 ; skirt
G1 X56.280 Y120.290 E18.32504 ; skirt
G1 X55.550 Y119.560 E18.36078 ; skirt
G1 X53.610 Y117.290 E18.46417 ; skirt
G1 X53.100 Y116.630 E18.49305 ; skirt
G1 X52.430 Y115.620 E18.53501 ; skirt
G1 X51.040 Y113.350 E18.62717 ; skirt
G1 X50.570 Y112.420 E18.66325 ; skirt
G1 X50.200 Y111.570 E18.69535 ; skirt
G1 X49.280 Y109.320 E18.77951 ; skirt
G1 X48.950 Y108.340 E18.81531 ; skirt
G1 X48.200 Y105.250 E18.92540 ; skirt
G1 X48.060 Y104.500 E18.95182 ; skirt
G1 X47.960 Y103.740 E18.97836 ; skirt
G1 X47.900 Y103.090 E19.00096 ; skirt
G1 X47.860 Y102.050 E19.03700 ; skirt
G1 X47.870 Y97.420 E19.19730 ; skirt
G1 X47.960 Y96.190 E19.24000 ; skirt
G1 X48.110 Y95.170 E19.27570 ; skirt
G1 X48.840 Y92.080 E19.38563 ; skirt
G1 X49.070 Y91.300 E19.41378 ; skirt
G1 X49.440 Y90.270 E19.45168 ; skirt
G1 X50.060 Y88.750 E19.50851 ; skirt
G1 X50.430 Y87.900 E19.54061 ; skirt
G1 X50.680 Y87.380 E19.56059 ; skirt
G1 X51.080 Y86.620 E19.59032 ; skirt
G1 X51.300 Y86.210 E19.60643 ; skirt
G1 X52.690 Y83.940 E19.69859 ; skirt
G1 X53.250 Y83.160 E19.73184 ; skirt
G1 X53.970 Y82.280 E19.77121 ; skirt
G1 X55.260 Y80.770 E19.83997 ; skirt
G1 X55.680 Y80.320 E19.86128 ; skirt
G1 X56.450 Y79.560 E19.89874 ; skirt
G1 X56.800 Y79.240 E19.91516 ; skirt
G1 X58.630 Y77.670 E19.99864 ; skirt
G1 X59.155 Y77.274 E20.02140 ; skirt
G1 X59.410 Y77.550 F7800.000 ; move to first skirt point
G1 X60.520 Y76.790 F540.000 E20.06797 ; skirt
G1 X62.430 Y75.630 E20.14535 ; skirt
G1 X63.870 Y74.870 E20.20172 ; skirt
G1 X64.460 Y74.600 E20.22419 ; skirt
G1 X66.290 Y73.850 E20.29266 ; skirt
G1 X67.030 Y73.590 E20.31982 ; skirt
G1 X69.740 Y72.830 E20.41727 ; skirt
G1 X70.640 Y72.650 E20.44905 ; skirt
G1 X71.560 Y72.580 E20.48099 ; skirt
G1 X128.430 Y72.580 E22.45002 ; skirt
G1 X129.350 Y72.650 E22.48196 ; skirt
G1 X130.250 Y72.830 E22.51374 ; skirt
G1 X132.960 Y73.590 E22.61119 ; skirt
G1 X133.700 Y73.850 E22.63835 ; skirt
G1 X135.530 Y74.600 E22.70682 ; skirt
G1 X136.120 Y74.870 E22.72929 ; skirt
G1 X137.560 Y75.630 E22.78566 ; skirt
G1 X137.940 Y75.850 E22.80086 ; skirt
G1 X139.470 Y76.790 E22.86304 ; skirt
G1 X140.580 Y77.550 E22.90961 ; skirt
G1 X141.110 Y77.960 E22.93281 ; skirt
G1 X142.950 Y79.530 E23.01656 ; skirt
G1 X143.280 Y79.830 E23.03200 ; skirt
G1 X144.050 Y80.590 E23.06946 ; skirt
G1 X144.440 Y81.010 E23.08931 ; skirt
G1 X145.730 Y82.520 E23.15807 ; skirt
G1 X146.450 Y83.400 E23.19743 ; skirt
G1 X146.970 Y84.140 E23.22875 ; skirt
G1 X148.360 Y86.410 E23.32091 ; skirt
G1 X148.980 Y87.550 E23.36584 ; skirt
G1 X149.220 Y88.050 E23.38504 ; skirt
G1 X149.540 Y88.800 E23.41327 ; skirt
G1 X150.200 Y90.420 E23.47384 ; skirt
G1 X150.570 Y91.430 E23.51108 ; skirt
G1 X150.790 Y92.160 E23.53748 ; skirt
G1 X151.510 Y95.260 E23.64767 ; skirt
G1 X151.660 Y96.220 E23.68131 ; skirt
G1 X151.900 Y99.250 E23.78655 ; skirt
G1 X151.910 Y99.960 E23.81113 ; skirt
G1 X151.880 Y101.070 E23.84958 ; skirt
G1 X151.700 Y103.340 E23.92842 ; skirt
G1 X151.560 Y104.450 E23.96716 ; skirt
G1 X151.430 Y105.160 E23.99215 ; skirt
G1 X150.880 Y107.430 E24.07302 ; skirt
G1 X150.670 Y108.250 E24.10232 ; skirt
G1 X150.360 Y109.180 E24.13626 ; skirt
G1 X149.080 Y112.270 E24.25207 ; skirt
G1 X148.640 Y113.120 E24.28521 ; skirt
G1 X147.200 Y115.480 E24.38093 ; skirt
G1 X146.570 Y116.420 E24.42011 ; skirt
G1 X146.100 Y117.040 E24.44704 ; skirt
G1 X144.160 Y119.310 E24.55043 ; skirt
G1 X143.470 Y120.010 E24.58446 ; skirt
G1 X141.650 Y121.580 E24.66768 ; skirt
G1 X140.650 Y122.400 E24.71246 ; skirt
G1 X139.880 Y122.950 E24.74522 ; skirt
G1 X137.430 Y124.460 E24.84486 ; skirt
G1 X136.610 Y124.890 E24.87692 ; skirt
G1 X134.910 Y125.640 E24.94125 ; skirt
G1 X132.640 Y126.520 E25.02555 ; skirt
G1 X131.580 Y126.840 E25.06389 ; skirt
G1 X127.910 Y127.600 E25.19365 ; skirt
G1 X127.230 Y127.700 E25.21745 ; skirt
G1 X126.540 Y127.740 E25.24138 ; skirt
G1 X73.450 Y127.740 E27.07953 ; skirt
G1 X72.760 Y127.700 E27.10346 ; skirt
G1 X72.080 Y127.600 E27.12725 ; skirt
G1 X68.410 Y126.840 E27.25702 ; skirt
G1 X67.350 Y126.520 E27.29535 ; skirt
G1 X65.080 Y125.640 E27.37965 ; skirt
G1 X63.380 Y124.890 E27.44398 ; skirt
G1 X62.570 Y124.460 E27.47573 ; skirt
G1 X60.100 Y122.940 E27.57615 ; skirt
G1 X59.340 Y122.400 E27.60843 ; skirt
G1 X58.340 Y121.580 E27.65320 ; skirt
G1 X56.520 Y120.010 E27.73642 ; skirt
G1 X55.830 Y119.310 E27.77045 ; skirt
G1 X53.890 Y117.040 E27.87384 ; skirt
G1 X53.420 Y116.420 E27.90078 ; skirt
G1 X52.910 Y115.660 E27.93247 ; skirt
G1 X51.370 Y113.150 E28.03443 ; skirt
G1 X50.910 Y112.270 E28.06881 ; skirt
G1 X49.630 Y109.180 E28.18461 ; skirt
G1 X49.320 Y108.250 E28.21855 ; skirt
G1 X48.560 Y105.160 E28.32872 ; skirt
G1 X48.430 Y104.450 E28.35371 ; skirt
G1 X48.330 Y103.690 E28.38026 ; skirt
G1 X48.280 Y103.080 E28.40145 ; skirt
G1 X48.240 Y102.050 E28.43714 ; skirt
G1 X48.250 Y97.420 E28.59744 ; skirt
G1 X48.330 Y96.220 E28.63908 ; skirt
G1 X48.480 Y95.260 E28.67272 ; skirt
G1 X49.200 Y92.160 E28.78291 ; skirt
G1 X49.420 Y91.430 E28.80931 ; skirt
G1 X49.790 Y90.420 E28.84655 ; skirt
G1 X50.770 Y88.050 E28.93535 ; skirt
G1 X51.410 Y86.790 E28.98428 ; skirt
G1 X53.020 Y84.140 E29.09164 ; skirt
G1 X53.540 Y83.400 E29.12295 ; skirt
G1 X54.260 Y82.520 E29.16232 ; skirt
G1 X55.550 Y81.010 E29.23108 ; skirt
G1 X55.940 Y80.590 E29.25092 ; skirt
G1 X56.710 Y79.830 E29.28838 ; skirt
G1 X57.040 Y79.530 E29.30382 ; skirt
G1 X58.880 Y77.960 E29.38757 ; skirt
G1 X59.365 Y77.585 E29.40880 ; skirt
G1 X59.630 Y77.870 F7800.000 ; move to first skirt point
G1 X61.010 Y76.930 F540.000 E29.46662 ; skirt
G1 X62.250 Y76.170 E29.51697 ; skirt
G1 X64.040 Y75.210 E29.58730 ; skirt
G1 X64.600 Y74.950 E29.60867 ; skirt
G1 X66.430 Y74.200 E29.67715 ; skirt
G1 X67.130 Y73.960 E29.70277 ; skirt
G1 X69.840 Y73.200 E29.80022 ; skirt
G1 X70.690 Y73.020 E29.83030 ; skirt
G1 X71.560 Y72.960 E29.86050 ; skirt
G1 X128.430 Y72.960 E31.82952 ; skirt
G1 X129.300 Y73.020 E31.85972 ; skirt
G1 X130.150 Y73.200 E31.88980 ; skirt
G1 X132.860 Y73.960 E31.98725 ; skirt
G1 X133.560 Y74.200 E32.01287 ; skirt
G1 X135.390 Y74.950 E32.08134 ; skirt
G1 X135.950 Y75.210 E32.10272 ; skirt
G1 X137.390 Y75.970 E32.15910 ; skirt
G1 X138.980 Y76.930 E32.22340 ; skirt
G1 X140.360 Y77.870 E32.28122 ; skirt
G1 X140.870 Y78.250 E32.30324 ; skirt
G1 X142.700 Y79.810 E32.38649 ; skirt
G1 X143.780 Y80.860 E32.43865 ; skirt
G1 X144.150 Y81.260 E32.45751 ; skirt
G1 X145.440 Y82.770 E32.52627 ; skirt
G1 X146.150 Y83.640 E32.56515 ; skirt
G1 X146.650 Y84.340 E32.59494 ; skirt
G1 X148.040 Y86.610 E32.68710 ; skirt
G1 X148.640 Y87.730 E32.73109 ; skirt
G1 X148.870 Y88.200 E32.74921 ; skirt
G1 X149.850 Y90.560 E32.83768 ; skirt
G1 X150.210 Y91.560 E32.87448 ; skirt
G1 X150.420 Y92.250 E32.89945 ; skirt
G1 X151.140 Y95.340 E33.00930 ; skirt
G1 X151.280 Y96.250 E33.04118 ; skirt
G1 X151.520 Y99.280 E33.14642 ; skirt
G1 X151.540 Y99.950 E33.16963 ; skirt
G1 X151.500 Y101.040 E33.20739 ; skirt
G1 X151.320 Y103.310 E33.28623 ; skirt
G1 X151.180 Y104.400 E33.32428 ; skirt
G1 X151.060 Y105.070 E33.34785 ; skirt
G1 X150.510 Y107.340 E33.42872 ; skirt
G1 X150.300 Y108.160 E33.45803 ; skirt
G1 X150.010 Y109.030 E33.48978 ; skirt
G1 X148.730 Y112.120 E33.60558 ; skirt
G1 X148.320 Y112.920 E33.63670 ; skirt
G1 X147.400 Y114.440 E33.69822 ; skirt
G1 X146.770 Y115.440 E33.73914 ; skirt
G1 X146.260 Y116.200 E33.77083 ; skirt
G1 X145.810 Y116.790 E33.79652 ; skirt
G1 X143.870 Y119.060 E33.89991 ; skirt
G1 X143.220 Y119.720 E33.93198 ; skirt
G1 X141.320 Y121.360 E34.01888 ; skirt
G1 X140.410 Y122.110 E34.05971 ; skirt
G1 X139.680 Y122.630 E34.09074 ; skirt
G1 X137.230 Y124.140 E34.19039 ; skirt
G1 X136.450 Y124.550 E34.22090 ; skirt
G1 X134.480 Y125.410 E34.29532 ; skirt
G1 X132.510 Y126.170 E34.36843 ; skirt
G1 X131.500 Y126.470 E34.40491 ; skirt
G1 X127.830 Y127.230 E34.53467 ; skirt
G1 X127.190 Y127.330 E34.55710 ; skirt
G1 X126.540 Y127.360 E34.57963 ; skirt
G1 X73.450 Y127.360 E36.41778 ; skirt
G1 X72.800 Y127.330 E36.44031 ; skirt
G1 X72.160 Y127.230 E36.46274 ; skirt
G1 X68.490 Y126.470 E36.59250 ; skirt
G1 X67.480 Y126.170 E36.62898 ; skirt
