; generated by Slic3r 0.9.10b on 2014-03-25 at 15:36:28

; layer_height = 0.4
; perimeters = 2
; top_solid_layers = 3
; bottom_solid_layers = 3
; fill_density = 0.2
; perimeter_speed = 30
; infill_speed = 60
; travel_speed = 130
; nozzle_diameter = 0.4
; filament_diameter = 1.75
; extrusion_multiplier = 1.07
; perimeters extrusion width = 0.42mm
; infill extrusion width = 0.42mm
; solid infill extrusion width = 0.42mm
; top infill extrusion width = 0.42mm
; first layer extrusion width = 0.70mm

G21 ; set units to millimeters
M107 ; disable fan
M190 S60 ; wait for bed temperature to be reached
M104 S175 ; set temperature
G28 ; home all axes
G1 Z5 F5000 ; lift nozzle
M109 S175 ; wait for temperature to be reached
G90 ; use absolute coordinates
G92 E0 ; reset extrusion distance
M82 ; use absolute distances for extrusion
G1 F1800.000 E-1.00000 ; retract
G92 E0 ; reset extrusion distance
G1 Z-0.150 F7800.000 ; move to next layer (0)
G1 X91.450 Y86.510 ; move to first skirt point
G1 F1800.000 E1.00000 ; compensate retraction
G1 X92.500 Y85.460 F540.000 E1.14696 ; skirt
G1 X93.720 Y84.600 E1.29468 ; skirt
G1 X95.070 Y83.970 E1.44211 ; skirt
G1 X96.510 Y83.590 E1.58950 ; skirt
G1 X97.990 Y83.460 E1.73653 ; skirt
G1 X102.000 Y83.460 E2.13338 ; skirt
G1 X103.480 Y83.590 E2.28042 ; skirt
G1 X104.920 Y83.970 E2.42780 ; skirt
G1 X106.270 Y84.600 E2.57524 ; skirt
G1 X107.490 Y85.460 E2.72296 ; skirt
G1 X108.540 Y86.510 E2.86992 ; skirt
G1 X109.400 Y87.730 E3.01764 ; skirt
G1 X110.030 Y89.080 E3.16507 ; skirt
G1 X110.410 Y90.520 E3.31246 ; skirt
G1 X110.540 Y92.000 E3.45949 ; skirt
G1 X110.540 Y121.000 E6.32949 ; skirt
G1 X110.410 Y122.480 E6.47652 ; skirt
G1 X110.030 Y123.920 E6.62391 ; skirt
G1 X109.400 Y125.270 E6.77134 ; skirt
G1 X108.540 Y126.490 E6.91906 ; skirt
G1 X107.490 Y127.540 E7.06602 ; skirt
G1 X106.270 Y128.400 E7.21374 ; skirt
G1 X104.920 Y129.030 E7.36118 ; skirt
G1 X103.480 Y129.410 E7.50856 ; skirt
G1 X102.000 Y129.540 E7.65560 ; skirt
G1 X97.990 Y129.540 E8.05245 ; skirt
G1 X96.510 Y129.410 E8.19948 ; skirt
G1 X95.070 Y129.030 E8.34687 ; skirt
G1 X93.720 Y128.400 E8.49430 ; skirt
G1 X92.500 Y127.540 E8.64202 ; skirt
G1 X91.450 Y126.490 E8.78898 ; skirt
G1 X90.590 Y125.270 E8.93670 ; skirt
G1 X89.960 Y123.920 E9.08414 ; skirt
G1 X89.580 Y122.480 E9.23152 ; skirt
G1 X89.450 Y121.000 E9.37856 ; skirt
G1 X89.450 Y92.000 E12.24855 ; skirt
G1 X89.580 Y90.520 E12.39558 ; skirt
G1 X89.960 Y89.080 E12.54297 ; skirt
G1 X90.590 Y87.730 E12.69041 ; skirt
G1 X91.395 Y86.588 E12.82869 ; skirt
G1 X91.930 Y86.920 F7800.000 ; move to first skirt point
G1 X92.910 Y85.940 F540.000 E12.96585 ; skirt
G1 X94.040 Y85.150 E13.10230 ; skirt
G1 X95.290 Y84.570 E13.23868 ; skirt
G1 X96.620 Y84.210 E13.37504 ; skirt
G1 X97.990 Y84.090 E13.51114 ; skirt
G1 X102.000 Y84.090 E13.90799 ; skirt
G1 X103.370 Y84.210 E14.04409 ; skirt
G1 X104.700 Y84.570 E14.18045 ; skirt
G1 X105.950 Y85.150 E14.31683 ; skirt
G1 X107.080 Y85.940 E14.45328 ; skirt
G1 X108.060 Y86.920 E14.59044 ; skirt
G1 X108.850 Y88.050 E14.72689 ; skirt
G1 X109.430 Y89.300 E14.86326 ; skirt
G1 X109.790 Y90.630 E14.99962 ; skirt
G1 X109.910 Y92.000 E15.13572 ; skirt
G1 X109.910 Y121.000 E18.00572 ; skirt
G1 X109.790 Y122.370 E18.14182 ; skirt
G1 X109.430 Y123.700 E18.27818 ; skirt
G1 X108.850 Y124.950 E18.41455 ; skirt
G1 X108.060 Y126.080 E18.55100 ; skirt
G1 X107.080 Y127.060 E18.68816 ; skirt
G1 X105.950 Y127.850 E18.82461 ; skirt
G1 X104.700 Y128.430 E18.96099 ; skirt
G1 X103.370 Y128.790 E19.09735 ; skirt
G1 X102.000 Y128.910 E19.23345 ; skirt
G1 X97.990 Y128.910 E19.63030 ; skirt
G1 X96.620 Y128.790 E19.76640 ; skirt
G1 X95.290 Y128.430 E19.90276 ; skirt
G1 X94.040 Y127.850 E20.03914 ; skirt
G1 X92.910 Y127.060 E20.17559 ; skirt
G1 X91.930 Y126.080 E20.31275 ; skirt
G1 X91.140 Y124.950 E20.44920 ; skirt
G1 X90.560 Y123.700 E20.58557 ; skirt
G1 X90.200 Y122.370 E20.72193 ; skirt
G1 X90.080 Y121.000 E20.85803 ; skirt
G1 X90.080 Y92.000 E23.72803 ; skirt
G1 X90.200 Y90.630 E23.86413 ; skirt
G1 X90.560 Y89.300 E24.00049 ; skirt
G1 X91.140 Y88.050 E24.13686 ; skirt
G1 X91.875 Y86.998 E24.26388 ; skirt
G1 X91.940 Y87.960 F7800.000 ; move to first skirt point
G1 X92.850 Y86.860 F540.000 E24.40516 ; skirt
G1 X93.950 Y85.950 E24.54645 ; skirt
G1 X95.210 Y85.280 E24.68768 ; skirt
G1 X96.570 Y84.870 E24.82825 ; skirt
G1 X97.990 Y84.730 E24.96947 ; skirt
G1 X102.000 Y84.730 E25.36632 ; skirt
G1 X103.420 Y84.870 E25.50753 ; skirt
G1 X104.780 Y85.280 E25.64811 ; skirt
G1 X106.040 Y85.950 E25.78933 ; skirt
G1 X107.140 Y86.860 E25.93062 ; skirt
G1 X108.050 Y87.960 E26.07190 ; skirt
G1 X108.720 Y89.220 E26.21313 ; skirt
G1 X109.130 Y90.580 E26.35371 ; skirt
G1 X109.270 Y92.000 E26.49492 ; skirt
G1 X109.270 Y121.000 E29.36492 ; skirt
G1 X109.130 Y122.420 E29.50613 ; skirt
G1 X108.720 Y123.780 E29.64670 ; skirt
G1 X108.050 Y125.040 E29.78793 ; skirt
G1 X107.140 Y126.140 E29.92922 ; skirt
G1 X106.040 Y127.050 E30.07050 ; skirt
G1 X104.780 Y127.720 E30.21173 ; skirt
G1 X103.420 Y128.130 E30.35231 ; skirt
G1 X102.000 Y128.270 E30.49352 ; skirt
G1 X97.990 Y128.270 E30.89037 ; skirt
G1 X96.570 Y128.130 E31.03158 ; skirt
G1 X95.210 Y127.720 E31.17216 ; skirt
G1 X93.950 Y127.050 E31.31339 ; skirt
G1 X92.850 Y126.140 E31.45467 ; skirt
G1 X91.940 Y125.040 E31.59596 ; skirt
G1 X91.270 Y123.780 E31.73719 ; skirt
G1 X90.860 Y122.420 E31.87777 ; skirt
G1 X90.720 Y121.000 E32.01898 ; skirt
G1 X90.720 Y92.000 E34.88897 ; skirt
G1 X90.860 Y90.580 E35.03018 ; skirt
G1 X91.270 Y89.220 E35.17076 ; skirt
G1 X91.895 Y88.044 E35.30255 ; skirt
G1 X92.470 Y88.310 F7800.000 ; move to first skirt point
G1 X93.300 Y87.310 F540.000 E35.43117 ; skirt
G1 X94.300 Y86.480 E35.55978 ; skirt
G1 X95.450 Y85.870 E35.68861 ; skirt
G1 X96.700 Y85.490 E35.81791 ; skirt
G1 X97.990 Y85.360 E35.94622 ; skirt
G1 X102.000 Y85.360 E36.34307 ; skirt
G1 X103.290 Y85.490 E36.47138 ; skirt
G1 X104.540 Y85.870 E36.60068 ; skirt
G1 X105.690 Y86.480 E36.72951 ; skirt
G1 X106.690 Y87.310 E36.85812 ; skirt
G1 X107.520 Y88.310 E36.98673 ; skirt
G1 X108.130 Y89.460 E37.11556 ; skirt
G1 X108.510 Y90.710 E37.24486 ; skirt
G1 X108.640 Y92.000 E37.37317 ; skirt
G1 X108.640 Y121.000 E40.24317 ; skirt
G1 X108.510 Y122.290 E40.37148 ; skirt
G1 X108.130 Y123.540 E40.50077 ; skirt
G1 X107.520 Y124.690 E40.62960 ; skirt
G1 X106.690 Y125.690 E40.75822 ; skirt
G1 X105.690 Y126.520 E40.88683 ; skirt
G1 X104.540 Y127.130 E41.01566 ; skirt
G1 X103.290 Y127.510 E41.14496 ; skirt
G1 X102.000 Y127.640 E41.27327 ; skirt
G1 X97.990 Y127.640 E41.67012 ; skirt
G1 X96.700 Y127.510 E41.79843 ; skirt
G1 X95.450 Y127.130 E41.92773 ; skirt
G1 X94.300 Y126.520 E42.05656 ; skirt
G1 X93.300 Y125.690 E42.18517 ; skirt
G1 X92.470 Y124.690 E42.31378 ; skirt
G1 X91.860 Y123.540 E42.44261 ; skirt
G1 X91.480 Y122.290 E42.57191 ; skirt
G1 X91.350 Y121.000 E42.70022 ; skirt
G1 X91.350 Y92.000 E45.57022 ; skirt
G1 X91.480 Y90.710 E45.69853 ; skirt
G1 X91.860 Y89.460 E45.82783 ; skirt
G1 X92.425 Y88.394 E45.94722 ; skirt
G1 F1800.000 E44.94722 ; retract
G92 E0 ; reset extrusion distance
G1 X98.953 Y120.047 F7800.000 ; move to first perimeter point
G1 F1800.000 E1.00000 ; compensate retraction
G1 X98.953 Y115.874 F540.000 E1.41297 ; perimeter
G1 X100.000 Y115.782 E1.51697 ; perimeter
G1 X101.047 Y115.874 E1.62096 ; perimeter
G1 X101.047 Y120.047 E2.03394 ; perimeter
G1 X99.049 Y120.047 E2.23170 ; perimeter
G1 X98.318 Y120.682 F7800.000 ; move to first perimeter point
G1 X98.318 Y115.291 F540.000 E2.76522 ; perimeter
G1 X100.000 Y115.144 E2.93236 ; perimeter
G1 X101.682 Y115.291 E3.09950 ; perimeter
G1 X101.682 Y120.682 E3.63302 ; perimeter
G1 X98.413 Y120.682 E3.95659 ; perimeter
G1 X98.635 Y120.132 F7800.000 ; move inwards before travel
G1 F1800.000 E2.95659 ; retract
G92 E0 ; reset extrusion distance
G1 X98.953 Y92.953 F7800.000 ; move to first perimeter point
G1 F1800.000 E1.00000 ; compensate retraction
G1 X101.047 Y92.953 F540.000 E1.20720 ; perimeter
G1 X101.047 Y97.126 E1.62017 ; perimeter
G1 X100.000 Y97.218 E1.72417 ; perimeter
G1 X98.953 Y97.126 E1.82816 ; perimeter
G1 X98.953 Y93.049 E2.23170 ; perimeter
G1 X98.318 Y92.318 F7800.000 ; move to first perimeter point
G1 X101.682 Y92.318 F540.000 E2.56471 ; perimeter
G1 X101.682 Y97.709 E3.09823 ; perimeter
G1 X100.000 Y97.856 E3.26537 ; perimeter
G1 X98.318 Y97.709 E3.43251 ; perimeter
G1 X98.318 Y92.413 E3.95659 ; perimeter
G1 X98.868 Y92.636 F7800.000 ; move inwards before travel
G1 F1800.000 E2.95659 ; retract
G92 E0 ; reset extrusion distance
G1 X100.487 Y116.287 F7800.000 ; move to first fill point
G1 F1800.000 E1.00000 ; compensate retraction
G1 X100.586 Y116.386 F1080.000 E1.01385 ; fill
G1 X100.586 Y117.286 E1.10302 ; fill
G1 X99.581 Y116.281 E1.24381 ; fill
G1 X99.414 Y117.014 E1.31826 ; fill
G1 X100.586 Y118.186 E1.48251 ; fill
G1 X100.586 Y119.086 E1.57168 ; fill
G1 X99.414 Y117.914 E1.73594 ; fill
G1 X99.414 Y118.814 E1.82511 ; fill
G1 X100.186 Y119.586 E1.93332 ; fill
G1 F1800.000 E0.93332 ; retract
G92 E0 ; reset extrusion distance
G1 X99.841 Y96.742 F7800.000 ; move to first fill point
G1 F1800.000 E1.00000 ; compensate retraction
G1 X99.414 Y96.315 F1080.000 E1.05974 ; fill
G1 X99.414 Y95.415 E1.14880 ; fill
G1 X100.586 Y96.587 E1.31287 ; fill
G1 X100.586 Y95.687 E1.40193 ; fill
G1 X99.414 Y94.515 E1.56600 ; fill
G1 X99.414 Y93.615 E1.65506 ; fill
G1 X100.586 Y94.787 E1.81912 ; fill
G1 X100.586 Y93.887 E1.90819 ; fill
G1 X100.113 Y93.414 E1.97439 ; fill
M106 S650 ; enable fan
M104 S170 ; set temperature
G1 F1800.000 E0.97439 ; retract
G92 E0 ; reset extrusion distance
G1 Z0.250 F7800.000 ; move to next layer (1)
G1 X105.522 Y115.559 ; move to first perimeter point
G1 F1800.000 E1.00000 ; compensate retraction
G1 X105.522 Y120.376 F600.000 E1.35635 ; perimeter
G1 X94.478 Y120.376 E2.17334 ; perimeter
G1 X94.478 Y115.559 E2.52969 ; perimeter
G1 X100.000 Y115.076 E2.93974 ; perimeter
G1 X105.460 Y115.554 E3.34519 ; perimeter
G1 X105.938 Y115.178 F7800.000 ; move to first perimeter point
G1 X105.938 Y120.792 F600.000 E3.76046 ; perimeter
G1 X94.062 Y120.792 E4.63895 ; perimeter
G1 X94.062 Y115.178 E5.05423 ; perimeter
G1 X100.000 Y114.659 E5.49515 ; perimeter
G1 X105.876 Y115.173 E5.93147 ; perimeter
G1 X105.720 Y115.532 F7800.000 ; move inwards before travel
G1 F1800.000 E4.93147 ; retract
G92 E0 ; reset extrusion distance
G1 X105.522 Y92.624 F7800.000 ; move to first perimeter point
G1 F1800.000 E1.00000 ; compensate retraction
G1 X105.522 Y97.441 F600.000 E1.35635 ; perimeter
G1 X100.000 Y97.924 E1.76640 ; perimeter
G1 X94.478 Y97.441 E2.17646 ; perimeter
G1 X94.478 Y92.624 E2.53281 ; perimeter
G1 X105.460 Y92.624 E3.34519 ; perimeter
G1 X105.938 Y92.208 F7800.000 ; move to first perimeter point
G1 X105.938 Y97.822 F600.000 E3.76046 ; perimeter
G1 X100.000 Y98.341 E4.20139 ; perimeter
G1 X94.062 Y97.822 E4.64231 ; perimeter
G1 X94.062 Y92.208 E5.05759 ; perimeter
G1 X105.876 Y92.208 E5.93147 ; perimeter
G1 X105.730 Y92.568 F7800.000 ; move inwards before travel
G1 F1800.000 E4.93147 ; retract
G92 E0 ; reset extrusion distance
G1 X94.779 Y115.997 F7800.000 ; move to first fill point
G1 F1800.000 E1.00000 ; compensate retraction
M106 S650 ; enable fan
G1 X95.042 Y115.812 F3600.000 E1.01798 ; fill
G1 X95.939 Y115.734 E1.06829 ; fill
G1 X94.779 Y116.546 E1.14746 ; fill
G1 X94.779 Y117.095 E1.17817 ; fill
G1 X96.836 Y115.655 E1.31852 ; fill
G1 X97.732 Y115.577 E1.36883 ; fill
G1 X94.779 Y117.645 E1.57036 ; fill
G1 X94.779 Y118.194 E1.60107 ; fill
G1 X98.629 Y115.498 E1.86380 ; fill
G1 X99.525 Y115.420 E1.91411 ; fill
G1 X94.779 Y118.743 E2.23802 ; fill
G1 X94.779 Y119.293 E2.26872 ; fill
G1 X100.328 Y115.407 E2.64742 ; fill
G1 X101.026 Y115.468 E2.68656 ; fill
G1 X94.779 Y119.842 E3.11285 ; fill
G1 X95.231 Y120.075 E3.14126 ; fill
G1 X101.723 Y115.529 E3.58433 ; fill
G1 X102.420 Y115.590 E3.62347 ; fill
G1 X96.015 Y120.075 E4.06059 ; fill
G1 X96.800 Y120.075 E4.10445 ; fill
G1 X103.118 Y115.651 E4.53562 ; fill
G1 X103.815 Y115.712 E4.57476 ; fill
G1 X97.584 Y120.075 E4.99999 ; fill
G1 X98.369 Y120.075 E5.04385 ; fill
G1 X104.513 Y115.773 E5.46313 ; fill
G1 X105.210 Y115.834 E5.50227 ; fill
G1 X99.153 Y120.075 E5.91560 ; fill
G1 X99.938 Y120.075 E5.95946 ; fill
G1 X105.221 Y116.376 E6.32001 ; fill
G1 X105.221 Y116.925 E6.35072 ; fill
G1 X100.722 Y120.075 E6.65772 ; fill
G1 X101.507 Y120.075 E6.70158 ; fill
G1 X105.221 Y117.475 E6.95505 ; fill
G1 X105.221 Y118.024 E6.98576 ; fill
G1 X102.291 Y120.075 E7.18568 ; fill
G1 X103.076 Y120.075 E7.22954 ; fill
G1 X105.221 Y118.573 E7.37592 ; fill
G1 X105.221 Y119.123 E7.40663 ; fill
G1 X103.861 Y120.075 E7.49948 ; fill
G1 X104.645 Y120.075 E7.54334 ; fill
G1 X105.221 Y119.672 E7.58264 ; fill
G1 F1800.000 E6.58264 ; retract
M106 S650 ; enable fan
G92 E0 ; reset extrusion distance
G1 X95.150 Y97.197 F7800.000 ; move to first fill point
G1 F1800.000 E1.00000 ; compensate retraction
M106 S650 ; enable fan
G1 X95.150 Y92.925 F3600.000 E1.23884 ; fill
G1 X95.600 Y92.925 E1.26400 ; fill
G1 X95.600 Y97.237 E1.50504 ; fill
G1 X96.050 Y97.276 E1.53029 ; fill
G1 X96.050 Y92.925 E1.77353 ; fill
G1 X96.500 Y92.925 E1.79869 ; fill
G1 X96.500 Y97.315 E2.04413 ; fill
G1 X96.950 Y97.355 E2.06938 ; fill
G1 X96.950 Y92.925 E2.31703 ; fill
G1 X97.400 Y92.925 E2.34218 ; fill
G1 X97.400 Y97.394 E2.59203 ; fill
G1 X97.850 Y97.434 E2.61728 ; fill
G1 X97.850 Y92.925 E2.86933 ; fill
G1 X98.300 Y92.925 E2.89448 ; fill
G1 X98.300 Y97.473 E3.14873 ; fill
G1 X98.750 Y97.512 E3.17398 ; fill
G1 X98.750 Y92.925 E3.43043 ; fill
G1 X99.200 Y92.925 E3.45558 ; fill
G1 X99.200 Y97.552 E3.71423 ; fill
G1 X99.650 Y97.591 E3.73949 ; fill
G1 X99.650 Y92.925 E4.00033 ; fill
G1 X100.100 Y92.925 E4.02549 ; fill
G1 X100.100 Y97.613 E4.28756 ; fill
G1 X100.550 Y97.574 E4.31281 ; fill
G1 X100.550 Y92.925 E4.57269 ; fill
G1 X101.000 Y92.925 E4.59784 ; fill
G1 X101.000 Y97.534 E4.85551 ; fill
G1 X101.450 Y97.495 E4.88076 ; fill
G1 X101.450 Y92.925 E5.13623 ; fill
G1 X101.900 Y92.925 E5.16139 ; fill
G1 X101.900 Y97.455 E5.41466 ; fill
G1 X102.350 Y97.416 E5.43991 ; fill
G1 X102.350 Y92.925 E5.69098 ; fill
G1 X102.800 Y92.925 E5.71613 ; fill
G1 X102.800 Y97.377 E5.96500 ; fill
G1 X103.250 Y97.337 E5.99025 ; fill
G1 X103.250 Y92.925 E6.23692 ; fill
G1 X103.700 Y92.925 E6.26207 ; fill
G1 X103.700 Y97.298 E6.50654 ; fill
G1 X104.150 Y97.259 E6.53179 ; fill
G1 X104.150 Y92.925 E6.77405 ; fill
G1 X104.600 Y92.925 E6.79921 ; fill
G1 X104.600 Y97.219 E7.03927 ; fill
G1 X105.050 Y97.180 E7.06453 ; fill
G1 X105.050 Y92.925 E7.30239 ; fill
G1 F1800.000 E6.30239 ; retract
M106 S650 ; enable fan
G92 E0 ; reset extrusion distance
G1 Z0.650 F7800.000 ; move to next layer (2)
G1 X92.985 Y115.482 ; move to first perimeter point
G1 F1800.000 E1.00000 ; compensate retraction
G1 X94.102 Y115.192 F714.969 E1.08541 ; perimeter
G1 X100.000 Y114.676 E1.52333 ; perimeter
G1 X105.898 Y115.192 E1.96126 ; perimeter
G1 X107.015 Y115.482 E2.04667 ; perimeter
G1 X107.015 Y120.376 E2.40870 ; perimeter
G1 X92.985 Y120.376 E3.44654 ; perimeter
G1 X92.985 Y115.545 E3.80396 ; perimeter
G1 X92.569 Y115.161 F7800.000 ; move to first perimeter point
G1 X94.032 Y114.781 F600.000 E3.91572 ; perimeter
G1 X100.000 Y114.259 E4.35891 ; perimeter
G1 X105.968 Y114.781 E4.80210 ; perimeter
G1 X107.431 Y115.161 E4.91386 ; perimeter
G1 X107.431 Y120.792 E5.33042 ; perimeter
G1 X92.569 Y120.792 E6.42977 ; perimeter
G1 X92.569 Y115.223 E6.84172 ; perimeter
G1 X92.959 Y115.305 F7800.000 ; move inwards before travel
G1 F1800.000 E5.84172 ; retract
G92 E0 ; reset extrusion distance
G1 X94.102 Y97.808 F7800.000 ; move to first perimeter point
G1 F1800.000 E1.00000 ; compensate retraction
G1 X92.985 Y97.518 F714.969 E1.08541 ; perimeter
G1 X92.985 Y92.624 E1.44744 ; perimeter
G1 X107.015 Y92.624 E2.48528 ; perimeter
G1 X107.015 Y97.518 E2.84731 ; perimeter
G1 X105.898 Y97.808 E2.93272 ; perimeter
G1 X100.000 Y98.324 E3.37065 ; perimeter
G1 X94.164 Y97.814 E3.80396 ; perimeter
G1 X94.032 Y98.219 F7800.000 ; move to first perimeter point
