; generated by Slic3r 0.9.10b on 2014-02-04 at 00:14:41

; layer_height = 0.4
; perimeters = 1
; top_solid_layers = 0
; bottom_solid_layers = 3
; fill_density = 0
; perimeter_speed = 30
; infill_speed = 60
; travel_speed = 130
; nozzle_diameter = 0.5
; filament_diameter = 1.75
; extrusion_multiplier = 1.15
; perimeters extrusion width = 0.53mm
; infill extrusion width = 0.53mm
; solid infill extrusion width = 0.53mm
; top infill extrusion width = 0.53mm
; first layer extrusion width = 0.70mm

G21 ; set units to millimeters
M107
M104 S190 ; set temperature
G28 ; home all axes
G1 Z5 F5000 ; lift nozzle
M109 S190 ; wait for temperature to be reached
G90 ; use absolute coordinates
G92 E0
M82 ; use absolute distances for extrusion
G1 Z0.700 F7800.000
G1 F1800.000 E-1.00000
G92 E0
G1 X52.490 Y76.619 F7800.000
G1 F1800.000 E1.00000
G1 X53.510 Y76.049 F540.000 E1.12848
G1 X55.970 Y74.949 E1.42478
G1 X56.630 Y74.699 E1.50238
G1 X57.320 Y74.519 E1.58079
G1 X59.520 Y74.069 E1.82770
G1 X109.120 Y67.419 E7.33031
G1 X110.000 Y67.359 E7.42729
G1 X140.000 Y67.359 E10.72596
G1 X141.380 Y67.509 E10.87860
G1 X142.710 Y67.939 E11.03229
G1 X143.910 Y68.629 E11.18450
G1 X144.950 Y69.569 E11.33864
G1 X145.770 Y70.689 E11.49127
G1 X160.770 Y96.669 E14.78987
G1 X161.330 Y97.939 E14.94248
G1 X161.620 Y99.299 E15.09539
G1 X161.620 Y100.699 E15.24932
G1 X161.330 Y102.059 E15.40223
G1 X160.770 Y103.329 E15.55484
G1 X145.770 Y129.309 E18.85344
G1 X144.950 Y130.429 E19.00607
G1 X143.910 Y131.369 E19.16021
G1 X142.710 Y132.059 E19.31242
G1 X141.380 Y132.489 E19.46611
G1 X140.000 Y132.639 E19.61874
G1 X110.000 Y132.639 E22.91742
G1 X109.140 Y132.579 E23.01221
G1 X62.150 Y126.489 E28.22224
G1 X61.630 Y126.399 E28.28027
G1 X59.370 Y125.919 E28.53431
G1 X58.290 Y125.599 E28.65817
G1 X57.290 Y125.099 E28.78110
G1 X46.160 Y118.319 E30.21409
G1 X45.390 Y117.769 E30.31814
G1 X44.720 Y117.129 E30.42002
G1 X43.940 Y116.279 E30.54687
G1 X43.470 Y115.719 E30.62726
G1 X43.080 Y115.109 E30.70687
G1 X41.380 Y112.169 E31.08029
G1 X40.830 Y110.969 E31.22544
G1 X40.540 Y109.679 E31.37082
G1 X38.890 Y96.659 E32.81389
G1 X38.830 Y95.949 E32.89224
G1 X38.880 Y95.009 E32.99575
G1 X38.990 Y94.259 E33.07909
G1 X39.180 Y93.529 E33.16204
G1 X40.330 Y89.999 E33.57026
G1 X40.590 Y89.329 E33.64928
G1 X40.920 Y88.679 E33.72944
G1 X41.220 Y88.169 E33.79450
G1 X41.670 Y87.499 E33.88324
G1 X42.200 Y86.889 E33.97209
G1 X51.330 Y77.559 E35.40745
G1 X51.880 Y77.059 E35.48918
G1 X52.410 Y76.677 E35.56105
G1 F1800.000 E34.56105
G92 E0
G1 X105.359 Y92.182 F7800.000
G1 F1800.000 E1.00000
G1 X106.393 Y90.241 F378.000 E1.24181
G1 X106.637 Y89.352 E1.34312
G1 X107.532 Y88.286 E1.49614
G1 X107.894 Y87.587 E1.58271
G1 X112.447 Y88.047 E2.08591
G1 X114.269 Y87.827 E2.28770
G1 X116.293 Y86.584 E2.54883
G1 X117.003 Y85.893 E2.65781
G1 X118.548 Y81.895 E3.12913
G1 X118.862 Y79.789 E3.36321
G1 X120.143 Y79.470 E3.50840
G1 X120.625 Y79.228 E3.56765
G1 X122.872 Y79.151 E3.81489
G1 X124.015 Y78.852 E3.94480
G1 X126.512 Y82.727 E4.45167
G1 X127.826 Y84.020 E4.65436
G1 X130.060 Y84.827 E4.91550
G1 X131.043 Y84.951 E5.02449
G1 X135.192 Y83.648 E5.50263
G1 X137.046 Y82.574 E5.73823
G1 X137.380 Y82.800 E5.78258
G1 X137.509 Y82.850 E5.79784
G1 X139.647 Y85.065 E6.13629
G1 X140.953 Y85.926 E6.30828
G1 X139.451 Y90.380 E6.82512
G1 X139.256 Y92.246 E7.03149
G1 X140.017 Y94.496 E7.29265
G1 X140.533 Y95.343 E7.40165
G1 X144.109 Y97.754 E7.87592
G1 X146.124 Y98.541 E8.11374
G1 X145.940 Y101.163 E8.40267
G1 X146.107 Y102.258 E8.52450
G1 X145.845 Y103.171 E8.62901
G1 X145.810 Y103.755 E8.69332
G1 X141.501 Y105.319 E9.19736
G1 X139.950 Y106.311 E9.39986
G1 X138.666 Y108.309 E9.66096
G1 X138.326 Y109.240 E9.76995
G1 X138.668 Y113.507 E10.24063
G1 X139.300 Y115.545 E10.47522
G1 X137.909 Y116.630 E10.66917
G1 X137.445 Y117.196 E10.74966
G1 X135.805 Y117.995 E10.95029
G1 X135.034 Y118.611 E11.05874
G1 X131.125 Y116.216 E11.56285
G1 X129.387 Y115.624 E11.76469
G1 X127.024 Y115.866 E12.02585
G1 X126.084 Y116.180 E12.13486
G1 X122.941 Y119.127 E12.60858
G1 X121.743 Y120.890 E12.84297
G1 X120.889 Y120.739 E12.93833
G1 X120.548 Y120.754 E12.97585
G1 X118.076 Y119.755 E13.26902
G1 X116.721 Y119.531 E13.42009
G1 X116.147 Y114.919 E13.93113
G1 X115.520 Y113.172 E14.13529
G1 X113.858 Y111.474 E14.39650
G1 X113.026 Y110.935 E14.50551
G1 X108.720 Y110.309 E14.98397
G1 X106.539 Y110.476 E15.22448
G1 X105.497 Y107.610 E15.55987
G1 X104.800 Y106.522 E15.70186
G1 X104.731 Y106.027 E15.75686
G1 X104.597 Y105.672 E15.79850
G1 X107.817 Y102.378 E16.30500
G1 X108.791 Y100.800 E16.50892
G1 X109.082 Y98.443 E16.77008
G1 X108.985 Y97.457 E16.87908
G1 X106.821 Y93.752 E17.35082
G1 X105.426 Y92.254 E17.57587
G1 F1800.000 E16.57587
G92 E0
G1 X95.379 Y100.000 F7800.000
G1 F1800.000 E1.00000
G1 X110.190 Y74.348 F378.000 E4.25696
G1 X139.810 Y74.348 E7.51392
G1 X154.621 Y100.000 E10.77088
G1 X139.810 Y125.652 E14.02785
G1 X110.190 Y125.652 E17.28481
G1 X95.429 Y100.085 E20.53093
G1 F1800.000 E19.53093
G92 E0
G1 X84.630 Y99.625 F7800.000
G1 F1800.000 E1.00000
G1 X84.500 Y99.751 F378.000 E1.01993
G1 X79.340 Y102.955 E1.68772
G1 X79.300 Y103.274 E1.72309
G1 X78.217 Y106.370 E2.08378
G1 X78.476 Y106.790 E2.13803
G1 X80.384 Y112.150 E2.76363
G1 X78.280 Y114.487 E3.10937
G1 X77.459 Y115.083 E3.22090
G1 X77.257 Y115.057 E3.24335
G1 X71.631 Y113.054 E3.90000
G1 X71.356 Y113.221 E3.93536
G1 X68.260 Y114.305 E4.29606
G1 X68.094 Y114.766 E4.35001
G1 X65.117 Y119.561 E4.97060
G1 X63.048 Y119.561 E5.19804
G1 X60.964 Y119.119 E5.43227
G1 X60.866 Y118.955 E5.45333
G1 X58.929 Y113.323 E6.10811
G1 X58.627 Y113.213 E6.14348
G1 X55.849 Y111.468 E6.50422
G1 X55.382 Y111.627 E6.55842
G1 X49.745 Y112.292 E7.18257
G1 X49.111 Y111.588 E7.28672
G1 X47.506 Y108.809 E7.63957
G1 X47.570 Y108.637 E7.65976
G1 X50.798 Y103.560 E8.32131
G1 X50.696 Y103.255 E8.35668
G1 X50.329 Y99.995 E8.71746
G1 X49.911 Y99.727 E8.77204
G1 X45.831 Y95.692 E9.40296
G1 X46.965 Y92.202 E9.80650
G1 X47.184 Y91.823 E9.85460
G1 X47.386 Y91.757 E9.87797
G1 X53.363 Y91.116 E10.53891
G1 X53.537 Y90.846 E10.57426
G1 X55.856 Y88.527 E10.93485
G1 X55.805 Y88.038 E10.98889
G1 X56.409 Y82.412 E11.61106
G1 X58.794 Y81.350 E11.89817
G1 X60.338 Y81.022 E12.07171
G1 X60.503 Y81.130 E12.09340
G1 X64.690 Y85.362 E12.74796
G1 X65.010 Y85.330 E12.78333
G1 X68.269 Y85.698 E13.14400
G1 X68.619 Y85.353 E13.19801
G1 X73.388 Y82.321 E13.81937
G1 X74.771 Y82.937 E13.98584
G1 X76.935 Y84.509 E14.27990
G1 X76.952 Y84.695 E14.30048
G1 X76.251 Y90.631 E14.95772
G1 X76.476 Y90.862 E14.99309
G1 X78.221 Y93.638 E15.35374
G1 X78.714 Y93.698 E15.40829
G1 X84.126 Y95.559 E16.03755
G1 X84.240 Y95.909 E16.07801
G1 X84.620 Y99.527 E16.47806
G1 F1800.000 E15.47806
G92 E0
G1 X106.201 Y110.940 F7800.000
G1 F1800.000 E1.00000
G1 X96.843 Y101.582 F1080.000 E2.45806
G1 X96.025 Y99.834 E2.67072
G1 X105.669 Y109.477 E4.17328
G1 X105.137 Y108.014 E4.34477
G1 X96.366 Y99.243 E5.71138
G1 X96.707 Y98.653 E5.78647
G1 X104.277 Y106.224 E6.96601
G1 X104.290 Y105.305 E7.06721
G1 X97.048 Y98.063 E8.19562
G1 X97.389 Y97.473 E8.27071
G1 X104.750 Y104.834 E9.41774
G1 X105.211 Y104.363 E9.49028
G1 X97.729 Y96.882 E10.65591
G1 X98.070 Y96.292 E10.73101
G1 X105.671 Y103.893 E11.91526
G1 X106.131 Y103.422 E11.98780
G1 X98.411 Y95.702 E13.19066
G1 X98.752 Y95.111 E13.26576
G1 X106.591 Y102.951 E14.48723
G1 X107.052 Y102.480 E14.55977
G1 X99.093 Y94.521 E15.79986
G1 X99.433 Y93.931 E15.87495
G1 X107.495 Y101.993 E17.13108
G1 X107.851 Y101.417 E17.20562
G1 X99.774 Y93.340 E18.46402
G1 X100.115 Y92.750 E18.53912
G1 X108.206 Y100.841 E19.79979
G1 X108.398 Y100.102 E19.88398
G1 X100.456 Y92.160 E21.12137
G1 X100.797 Y91.570 E21.19646
G1 X108.500 Y99.273 E22.39669
G1 X108.602 Y98.444 E22.48870
G1 X101.137 Y90.979 E23.65175
G1 X101.478 Y90.389 E23.72685
G1 X108.275 Y97.186 E24.78589
G1 X106.968 Y94.947 E25.07155
G1 X101.819 Y89.799 E25.87374
G1 X102.160 Y89.208 E25.94883
G1 X104.929 Y91.977 E26.38023
G1 X105.252 Y91.370 E26.45607
G1 X102.501 Y88.618 E26.88478
G1 X102.841 Y88.028 E26.95987
G1 X105.576 Y90.762 E27.38587
G1 X105.899 Y90.154 E27.46171
G1 X103.182 Y87.438 E27.88502
G1 X103.523 Y86.847 E27.96011
G1 X106.118 Y89.442 E28.36447
G1 X106.446 Y88.839 E28.44012
G1 X103.864 Y86.257 E28.84242
G1 X104.205 Y85.667 E28.91751
G1 X106.871 Y88.333 E29.33293
G1 X107.255 Y87.786 E29.40657
G1 X104.545 Y85.076 E29.82869
G1 X104.886 Y84.486 E29.90379
G1 X107.572 Y87.172 E30.32228
G1 X108.501 Y87.170 E30.42460
G1 X105.227 Y83.896 E30.93469
G1 X105.568 Y83.306 E31.00979
G1 X109.537 Y87.274 E31.62815
G1 X110.572 Y87.379 E31.74284
G1 X105.909 Y82.715 E32.46947
G1 X106.249 Y82.125 E32.54456
G1 X111.608 Y87.484 E33.37947
G1 X112.604 Y87.548 E33.48941
G1 X106.590 Y81.535 E34.42638
G1 X106.931 Y80.944 E34.50147
G1 X113.434 Y87.448 E35.51476
G1 X114.217 Y87.300 E35.60254
G1 X107.272 Y80.354 E36.68469
G1 X107.613 Y79.764 E36.75979
G1 X114.794 Y86.945 E37.87872
G1 X115.371 Y86.591 E37.95330
G1 X107.953 Y79.174 E39.10902
G1 X108.294 Y78.583 E39.18412
G1 X115.948 Y86.237 E40.37662
G1 X116.429 Y85.787 E40.44919
G1 X108.635 Y77.993 E41.66357
G1 X108.976 Y77.403 E41.73866
G1 X116.764 Y85.191 E42.95211
G1 X117.023 Y84.519 E43.03143
G1 X109.317 Y76.812 E44.23221
G1 X109.658 Y76.222 E44.30731
G1 X117.283 Y83.848 E45.49544
G1 X117.543 Y83.176 E45.57476
G1 X109.998 Y75.632 E46.75023
G1 X110.339 Y75.042 E46.82533
G1 X117.802 Y82.505 E47.98814
G1 X118.062 Y81.833 E48.06746
G1 X111.053 Y74.824 E49.15953
G1 X111.984 Y74.824 E49.26211
G1 X118.195 Y81.035 E50.22988
G1 X118.316 Y80.225 E50.32015
G1 X112.915 Y74.824 E51.16165
G1 X113.846 Y74.824 E51.26423
G1 X118.436 Y79.414 E51.97947
G1 X119.174 Y79.221 E52.06346
G1 X114.777 Y74.824 E52.74851
G1 X115.708 Y74.824 E52.85109
G1 X119.919 Y79.035 E53.50720
G1 X120.569 Y78.754 E53.58521
G1 X116.639 Y74.824 E54.19747
G1 X117.570 Y74.824 E54.30006
G1 X121.469 Y78.723 E54.90749
G1 X122.369 Y78.692 E55.00671
G1 X118.501 Y74.824 E55.60931
G1 X119.433 Y74.824 E55.71189
G1 X123.185 Y78.577 E56.29662
G1 X123.924 Y78.384 E56.38069
G1 X120.364 Y74.824 E56.93538
G1 X121.295 Y74.824 E57.03796
G1 X130.927 Y84.457 E58.53882
G1 X131.660 Y84.258 E58.62247
G1 X122.226 Y74.824 E60.09244
G1 X123.157 Y74.824 E60.19502
G1 X132.369 Y84.036 E61.63032
G1 X133.077 Y83.813 E61.71214
G1 X124.088 Y74.824 E63.11276
G1 X125.019 Y74.824 E63.21535
G1 X133.786 Y83.591 E64.58129
G1 X134.494 Y83.368 E64.66311
G1 X125.950 Y74.824 E65.99438
G1 X126.881 Y74.824 E66.09697
G1 X135.169 Y83.111 E67.38822
G1 X135.758 Y82.770 E67.46328
G1 X127.812 Y74.824 E68.70129
G1 X128.743 Y74.824 E68.80388
G1 X136.348 Y82.428 E69.98866
G1 X136.937 Y82.086 E70.06372
G1 X129.675 Y74.824 E71.19527
G1 X130.606 Y74.824 E71.29785
G1 X141.492 Y85.710 E72.99399
G1 X141.519 Y85.737 F7800.000
G1 X151.734 Y95.952 F1080.000 E74.58553
G1 X150.462 Y93.749 E74.86578
G1 X131.537 Y74.824 E77.81448
G1 X132.468 Y74.824 E77.91706
G1 X149.190 Y91.546 E80.52251
G1 X147.918 Y89.343 E80.80277
G1 X133.399 Y74.824 E83.06498
G1 X134.330 Y74.824 E83.16756
G1 X146.646 Y87.140 E85.08652
G1 X145.374 Y84.937 E85.36678
G1 X135.261 Y74.824 E86.94250
G1 X136.192 Y74.824 E87.04508
G1 X144.102 Y82.734 E88.27755
G1 X142.830 Y80.531 E88.55781
G1 X137.123 Y74.824 E89.44704
G1 X138.054 Y74.824 E89.54962
G1 X141.559 Y78.328 E90.09561
G1 X140.287 Y76.125 E90.37586
G1 X138.985 Y74.824 E90.57860
G1 F1800.000 E89.57860
G92 E0
G1 X141.284 Y86.434 F7800.000
G1 F1800.000 E1.00000
G1 X153.006 Y98.155 F1080.000 E2.82629
G1 X154.015 Y100.096 E3.06733
G1 X141.049 Y87.130 E5.08754
G1 X140.815 Y87.826 E5.16850
G1 X153.675 Y100.686 E7.17218
G1 X153.334 Y101.277 E7.24728
G1 X140.580 Y88.523 E9.23444
G1 X140.345 Y89.219 E9.31540
G1 X152.993 Y101.867 E11.28604
G1 X152.652 Y102.457 E11.36113
G1 X140.110 Y89.915 E13.31525
G1 X139.903 Y90.639 E13.39819
G1 X152.311 Y103.047 E15.33153
G1 X151.971 Y103.638 E15.40663
G1 X146.619 Y98.286 E16.24043
G1 X146.516 Y98.183 F7800.000
G1 X139.815 Y91.482 F1080.000 E17.28454
G1 X139.815 Y92.413 E17.38718
G1 X144.988 Y97.586 E18.19314
G1 F1800.000 E17.19314
G92 E0
G1 X146.558 Y99.156 F7800.000
G1 F1800.000 E1.00000
G1 X151.630 Y104.228 F1080.000 E1.79020
G1 X151.289 Y104.818 E1.86529
G1 X146.497 Y100.027 E2.61188
G1 X146.436 Y100.897 E2.70798
G1 X150.948 Y105.409 E3.41098
G1 X150.607 Y105.999 E3.48607
G1 X146.539 Y101.930 E4.11998
G1 X146.454 Y102.776 E4.21365
G1 X150.267 Y106.589 E4.80774
G1 X149.926 Y107.179 E4.88283
G1 X146.299 Y103.553 E5.44786
G1 X146.006 Y104.191 E5.52521
G1 X149.585 Y107.770 E6.08282
G1 X149.244 Y108.360 E6.15791
G1 X145.323 Y104.439 E6.76886
G1 X144.640 Y104.687 E6.84894
G1 X148.903 Y108.950 E7.51323
G1 X148.563 Y109.541 E7.58833
G1 X143.957 Y104.935 E8.30597
G1 X143.273 Y105.183 E8.38604
G1 X148.222 Y110.131 E9.15702
G1 X147.881 Y110.721 E9.23212
G1 X142.590 Y105.430 E10.05645
G1 X141.907 Y105.678 E10.13652
G1 X147.540 Y111.311 E11.01420
G1 X147.199 Y111.902 E11.08929
G1 X141.307 Y106.009 E12.00744
G1 X140.739 Y106.372 E12.08171
G1 X146.858 Y112.492 E13.03524
G1 X146.518 Y113.082 E13.11033
G1 X140.215 Y106.780 E14.09234
G1 X139.851 Y107.347 E14.16657
G1 X146.177 Y113.673 E15.15223
G1 X145.836 Y114.263 E15.22732
G1 X139.487 Y107.913 E16.21663
G1 X139.122 Y108.480 E16.29086
G1 X145.495 Y114.853 E17.28382
G1 X145.154 Y115.443 E17.35891
G1 X138.865 Y109.154 E18.33890
G1 X138.872 Y110.092 E18.44229
G1 X144.814 Y116.034 E19.36803
G1 X144.473 Y116.624 E19.44312
G1 X138.953 Y111.104 E20.30314
G1 X139.034 Y112.116 E20.41500
G1 X144.132 Y117.214 E21.20931
G1 X143.791 Y117.805 E21.28440
G1 X139.115 Y113.128 E22.01299
G1 X139.438 Y114.382 E22.15561
G1 X143.450 Y118.395 E22.78084
G1 X143.110 Y118.985 E22.85593
G1 X139.847 Y115.722 E23.36434
G1 X139.324 Y116.130 E23.43743
G1 X142.769 Y119.575 E23.97420
G1 X142.428 Y120.166 E24.04930
G1 X138.801 Y116.539 E24.61445
G1 X138.278 Y116.947 E24.68753
G1 X142.087 Y120.756 E25.28105
G1 X141.746 Y121.346 E25.35614
G1 X137.852 Y117.452 E25.96298
G1 X137.277 Y117.808 E26.03748
G1 X141.406 Y121.937 E26.68076
G1 X141.065 Y122.527 E26.75586
G1 X136.651 Y118.113 E27.44359
G1 X136.031 Y118.424 E27.52001
G1 X140.724 Y123.117 E28.25122
G1 X140.383 Y123.707 E28.32632
G1 X135.513 Y118.838 E29.08507
G1 X134.725 Y118.980 E29.17338
G1 X140.042 Y124.298 E30.00195
G1 X139.702 Y124.888 E30.07704
G1 X132.322 Y117.508 E31.22688
G1 X130.332 Y116.449 E31.47524
G1 X139.058 Y125.176 E32.83493
G1 X138.127 Y125.176 E32.93751
G1 X129.085 Y116.134 E34.34638
G1 X128.240 Y116.220 E34.43992
G1 X137.196 Y125.176 E35.83533
G1 X136.265 Y125.176 E35.93791
G1 X127.396 Y116.307 E37.31985
G1 X126.651 Y116.493 E37.40443
G1 X135.334 Y125.176 E38.75733
G1 X134.403 Y125.176 E38.85991
G1 X126.072 Y116.845 E40.15799
G1 X125.591 Y117.295 E40.23057
G1 X133.472 Y125.176 E41.45846
G1 X132.541 Y125.176 E41.56104
G1 X125.111 Y117.746 E42.71874
G1 X124.630 Y118.196 E42.79131
G1 X131.610 Y125.176 E43.87883
G1 X130.679 Y125.176 E43.98141
G1 X124.149 Y118.647 E44.99873
G1 X123.669 Y119.097 E45.07130
G1 X129.748 Y125.176 E46.01843
G1 X128.816 Y125.176 E46.12101
G1 X123.213 Y119.573 E46.99401
G1 X122.837 Y120.127 E47.06786
G1 X127.885 Y125.176 E47.85448
G1 X126.954 Y125.176 E47.95706
G1 X122.460 Y120.682 E48.65731
G1 X122.083 Y121.236 E48.73115
G1 X126.023 Y125.176 E49.34501
G1 X125.092 Y125.176 E49.44760
G1 X121.192 Y121.276 E50.05524
G1 X120.053 Y121.068 E50.18282
G1 X124.161 Y125.176 E50.82288
G1 X123.230 Y125.176 E50.92546
G1 X118.490 Y120.436 E51.66403
G1 X117.219 Y120.096 E51.80894
G1 X122.299 Y125.176 E52.60041
G1 X121.368 Y125.176 E52.70299
G1 X107.102 Y110.911 E54.92566
G1 X107.967 Y110.844 E55.02122
G1 X116.182 Y119.059 E56.30116
G1 X116.050 Y117.996 E56.41920
G1 X108.865 Y110.811 E57.53863
G1 X109.955 Y110.970 E57.65993
G1 X115.918 Y116.933 E58.58900
G1 X115.786 Y115.870 E58.70704
G1 X111.044 Y111.128 E59.44576
G1 X112.134 Y111.287 E59.56707
G1 X115.571 Y114.724 E60.10266
G1 F1800.000 E59.10266
G92 E0
G1 X106.238 Y110.977 F7800.000
G1 F1800.000 E1.00000
G1 X120.437 Y125.176 F1080.000 E3.21234
G1 X119.506 Y125.176 E3.31492
G1 X98.115 Y103.785 E6.64780
G1 X99.387 Y105.988 E6.92805
