; generated by Slic3r 0.9.10b on 2014-02-02 at 13:26:10

; layer_height = 0.4
; perimeters = 3
; top_solid_layers = 3
; bottom_solid_layers = 3
; fill_density = 0.8
; perimeter_speed = 30
; infill_speed = 60
; travel_speed = 130
; nozzle_diameter = 0.5
; filament_diameter = 1.75
; extrusion_multiplier = 1.1
; perimeters extrusion width = 0.53mm
; infill extrusion width = 0.53mm
; solid infill extrusion width = 0.53mm
; top infill extrusion width = 0.53mm
; first layer extrusion width = 0.70mm

G21 ; set units to millimeters
M107
M104 S190 ; set temperature
G28 ; home all axes
G1 Z5 F5000 ; lift nozzle
M109 S190 ; wait for temperature to be reached
G90 ; use absolute coordinates
G92 E0
M82 ; use absolute distances for extrusion
G1 F1800.000 E-1.00000
G92 E0
G1 Z0.550 F7800.000
G1 X87.290 Y91.280
G1 F1800.000 E1.00000
G1 X91.290 Y87.290 F540.000 E1.59422
G1 X92.300 Y86.460 E1.73171
G1 X93.450 Y85.850 E1.86862
G1 X94.690 Y85.470 E2.00503
G1 X95.990 Y85.340 E2.14244
G1 X103.990 Y85.340 E2.98384
G1 X105.290 Y85.470 E3.12125
G1 X106.530 Y85.850 E3.25765
G1 X107.680 Y86.460 E3.39456
G1 X108.690 Y87.290 E3.53206
G1 X112.690 Y91.280 E4.12628
G1 X113.520 Y92.290 E4.26377
G1 X114.140 Y93.440 E4.40118
G1 X114.520 Y94.690 E4.53859
G1 X114.650 Y95.990 E4.67600
G1 X114.650 Y108.000 E5.93915
G1 X114.520 Y109.300 E6.07656
G1 X114.140 Y110.550 E6.21397
G1 X113.530 Y111.700 E6.35088
G1 X112.700 Y112.710 E6.48838
G1 X111.690 Y113.540 E6.62587
G1 X110.540 Y114.150 E6.76278
G1 X109.290 Y114.530 E6.90019
G1 X107.990 Y114.660 E7.03760
G1 X91.990 Y114.660 E8.72040
G1 X90.690 Y114.530 E8.85781
G1 X89.440 Y114.150 E8.99522
G1 X88.290 Y113.540 E9.13214
G1 X87.280 Y112.710 E9.26963
G1 X86.450 Y111.700 E9.40712
G1 X85.840 Y110.550 E9.54404
G1 X85.460 Y109.300 E9.68145
G1 X85.330 Y108.000 E9.81886
G1 X85.330 Y95.990 E11.08201
G1 X85.460 Y94.690 E11.21942
G1 X85.840 Y93.440 E11.35683
G1 X86.460 Y92.290 E11.49424
G1 X87.228 Y91.356 E11.62137
G1 F1800.000 E10.62137
G92 E0
G1 X96.742 Y97.866 F7800.000
G1 F1800.000 E1.00000
G1 X96.964 Y97.561 F540.000 E1.03960
G1 X97.213 Y97.280 E1.07917
G1 X97.489 Y97.023 E1.11874
G1 X97.788 Y96.795 E1.15832
G1 X98.107 Y96.596 E1.19790
G1 X98.445 Y96.429 E1.23748
G1 X98.796 Y96.296 E1.27707
G1 X99.160 Y96.197 E1.31664
G1 X99.531 Y96.134 E1.35624
G1 X99.906 Y96.107 E1.39581
G1 X100.282 Y96.116 E1.43540
G1 X100.656 Y96.161 E1.47497
G1 X101.023 Y96.242 E1.51455
G1 X101.381 Y96.358 E1.55413
G1 X101.726 Y96.509 E1.59370
G1 X102.055 Y96.692 E1.63328
G1 X102.365 Y96.905 E1.67287
G1 X102.652 Y97.148 E1.71245
G1 X102.915 Y97.417 E1.75202
G1 X103.151 Y97.711 E1.79161
G1 X103.357 Y98.026 E1.83118
G1 X103.532 Y98.359 E1.87076
G1 X103.674 Y98.707 E1.91035
G1 X103.781 Y99.068 E1.94992
G1 X103.854 Y99.437 E1.98951
G1 X103.890 Y99.812 E2.02908
G1 X103.890 Y100.188 E2.06867
G1 X103.854 Y100.563 E2.10825
G1 X103.781 Y100.932 E2.14783
G1 X103.674 Y101.293 E2.18740
G1 X103.532 Y101.641 E2.22698
G1 X103.357 Y101.974 E2.26656
G1 X103.151 Y102.289 E2.30614
G1 X102.915 Y102.583 E2.34573
G1 X102.652 Y102.852 E2.38531
G1 X102.365 Y103.095 E2.42489
G1 X102.055 Y103.308 E2.46447
G1 X101.726 Y103.491 E2.50405
G1 X101.381 Y103.642 E2.54362
G1 X101.023 Y103.758 E2.58321
G1 X100.656 Y103.839 E2.62279
G1 X100.282 Y103.884 E2.66236
G1 X99.906 Y103.893 E2.70194
G1 X99.530 Y103.866 E2.74153
G1 X99.160 Y103.803 E2.78109
G1 X98.797 Y103.704 E2.82068
G1 X98.445 Y103.571 E2.86027
G1 X98.107 Y103.404 E2.89984
G1 X97.788 Y103.205 E2.93943
G1 X97.489 Y102.977 E2.97901
G1 X97.213 Y102.720 E3.01859
G1 X96.963 Y102.439 E3.05817
G1 X96.742 Y102.134 E3.09775
G1 X96.551 Y101.810 E3.13732
G1 X96.393 Y101.469 E3.17691
G1 X96.268 Y101.114 E3.21649
G1 X96.178 Y100.748 E3.25606
G1 X96.124 Y100.376 E3.29565
G1 X96.105 Y100.000 E3.33523
G1 X96.124 Y99.624 E3.37480
G1 X96.178 Y99.252 E3.41437
G1 X96.268 Y98.886 E3.45396
G1 X96.393 Y98.531 E3.49354
G1 X96.551 Y98.190 E3.53313
G1 X96.692 Y97.951 E3.56233
G1 X97.263 Y98.277 F7800.000
G1 X97.476 Y97.973 F540.000 E3.60143
G1 X97.684 Y97.739 E3.63432
G1 X97.913 Y97.526 E3.66720
G1 X98.161 Y97.336 E3.70010
G1 X98.427 Y97.171 E3.73299
G1 X98.707 Y97.033 E3.76588
G1 X99.000 Y96.922 E3.79879
G1 X99.301 Y96.839 E3.83167
G1 X99.610 Y96.787 E3.86458
G1 X99.922 Y96.764 E3.89747
G1 X100.235 Y96.772 E3.93037
G1 X100.545 Y96.809 E3.96326
G1 X100.850 Y96.877 E3.99615
G1 X101.148 Y96.974 E4.02905
G1 X101.434 Y97.098 E4.06194
G1 X101.708 Y97.250 E4.09483
G1 X101.965 Y97.428 E4.12773
G1 X102.204 Y97.630 E4.16063
G1 X102.423 Y97.854 E4.19352
G1 X102.619 Y98.097 E4.22641
G1 X102.790 Y98.359 E4.25931
G1 X102.935 Y98.636 E4.29220
G1 X103.053 Y98.926 E4.32510
G1 X103.143 Y99.225 E4.35799
G1 X103.203 Y99.532 E4.39089
G1 X103.233 Y99.844 E4.42377
G1 X103.233 Y100.156 E4.45667
G1 X103.203 Y100.468 E4.48957
G1 X103.143 Y100.775 E4.52246
G1 X103.053 Y101.074 E4.55536
G1 X102.935 Y101.364 E4.58825
G1 X102.790 Y101.641 E4.62114
G1 X102.619 Y101.902 E4.65404
G1 X102.423 Y102.146 E4.68694
G1 X102.204 Y102.370 E4.71983
G1 X101.965 Y102.572 E4.75273
G1 X101.708 Y102.750 E4.78562
G1 X101.434 Y102.902 E4.81852
G1 X101.148 Y103.026 E4.85141
G1 X100.850 Y103.123 E4.88430
G1 X100.545 Y103.191 E4.91720
G1 X100.234 Y103.228 E4.95009
G1 X99.922 Y103.236 E4.98298
G1 X99.610 Y103.213 E5.01589
G1 X99.302 Y103.161 E5.04877
G1 X99.000 Y103.078 E5.08166
G1 X98.707 Y102.967 E5.11456
G1 X98.427 Y102.829 E5.14746
G1 X98.161 Y102.664 E5.18035
G1 X97.913 Y102.474 E5.21325
G1 X97.684 Y102.261 E5.24614
G1 X97.476 Y102.027 E5.27904
G1 X97.293 Y101.774 E5.31193
G1 X97.134 Y101.504 E5.34482
G1 X97.002 Y101.221 E5.37772
G1 X96.898 Y100.926 E5.41061
G1 X96.824 Y100.622 E5.44350
G1 X96.778 Y100.312 E5.47640
G1 X96.763 Y100.000 E5.50930
G1 X96.778 Y99.688 E5.54219
G1 X96.824 Y99.378 E5.57508
G1 X96.898 Y99.074 E5.60798
G1 X97.002 Y98.779 E5.64087
G1 X97.213 Y98.362 E5.69003
G1 X97.829 Y98.610 F7800.000
G1 X97.989 Y98.385 F540.000 E5.71910
G1 X98.155 Y98.199 E5.74531
G1 X98.535 Y97.878 E5.79766
G1 X98.970 Y97.636 E5.85002
G1 X99.443 Y97.482 E5.90237
G1 X99.938 Y97.422 E5.95473
G1 X100.434 Y97.458 E6.00709
G1 X100.915 Y97.589 E6.05945
G1 X101.361 Y97.809 E6.11180
G1 X101.756 Y98.112 E6.16416
G1 X102.086 Y98.484 E6.21651
G1 X102.339 Y98.913 E6.26887
G1 X102.504 Y99.383 E6.32123
G1 X102.576 Y99.875 E6.37358
G1 X102.552 Y100.373 E6.42594
G1 X102.433 Y100.856 E6.47830
G1 X102.223 Y101.307 E6.53065
G1 X101.930 Y101.710 E6.58301
G1 X101.566 Y102.049 E6.63537
G1 X101.143 Y102.312 E6.68772
G1 X100.677 Y102.488 E6.74008
G1 X100.187 Y102.572 E6.79244
G1 X99.689 Y102.560 E6.84480
G1 X99.203 Y102.453 E6.89715
G1 X98.747 Y102.254 E6.94951
G1 X98.337 Y101.971 E7.00186
G1 X97.989 Y101.615 E7.05422
G1 X97.716 Y101.198 E7.10658
G1 X97.529 Y100.737 E7.15893
G1 X97.433 Y100.249 E7.21129
G1 X97.433 Y99.751 E7.26365
G1 X97.529 Y99.263 E7.31600
G1 X97.611 Y99.028 E7.34221
G1 X97.779 Y98.695 E7.38135
G1 X98.105 Y98.624 F7800.000
G1 F1800.000 E6.38135
G92 E0
G1 X93.643 Y96.680 F7800.000
G1 F1800.000 E1.00000
G1 X96.680 Y93.643 F540.000 E1.45183
G1 X103.320 Y93.643 E2.15010
G1 X106.357 Y96.680 E2.60194
G1 X106.357 Y106.357 E3.61970
G1 X93.643 Y106.357 E4.95696
G1 X93.643 Y96.779 E5.96436
G1 F1800.000 E4.96436
G92 E0
G1 X103.592 Y92.986 F7800.000
G1 F1800.000 E1.00000
G1 X107.014 Y96.408 F540.000 E1.50908
G1 X107.014 Y107.014 E2.62458
G1 X92.986 Y107.014 E4.10006
G1 X92.986 Y96.408 E5.21556
G1 X96.408 Y92.986 E5.72464
G1 X103.493 Y92.986 E6.46980
G1 X103.864 Y92.329 F7800.000
G1 X107.671 Y96.136 F378.000 E7.03613
G1 X107.671 Y107.671 E8.24937
G1 X92.329 Y107.671 E9.86306
G1 X92.329 Y96.136 E11.07629
G1 X96.136 Y92.329 E11.64263
G1 X103.765 Y92.329 E12.44504
G1 X103.864 Y92.986 F7800.000
G1 F1800.000 E11.44504
G92 E0
G1 X105.881 Y97.453 F7800.000
G1 F1800.000 E1.00000
G1 X102.547 Y94.119 F1080.000 E1.49626
G1 X101.617 Y94.119 E1.59412
G1 X105.881 Y98.383 E2.22879
G1 X105.881 Y99.313 F7800.000
G1 X100.687 Y94.119 F1080.000 E3.00185
G1 X99.757 Y94.119 E3.09972
G1 X101.552 Y95.913 E3.36678
G1 X100.361 Y95.653 E3.49501
G1 X98.827 Y94.119 E3.72332
G1 X97.897 Y94.119 E3.82119
G1 X99.444 Y95.665 E4.05136
G1 X98.682 Y95.834 E4.13346
G1 X96.968 Y94.119 E4.38866
G1 X96.458 Y94.539 E4.45819
G1 X98.025 Y96.106 E4.69140
G1 X97.446 Y96.457 E4.76265
G1 X95.993 Y95.004 E4.97889
G1 X95.528 Y95.469 E5.04809
G1 X96.941 Y96.882 E5.25844
G1 X96.508 Y97.378 E5.32780
G1 X95.063 Y95.934 E5.54283
G1 X94.598 Y96.399 E5.61203
G1 X96.144 Y97.944 E5.84208
G1 X95.865 Y98.596 E5.91665
G1 X94.133 Y96.864 E6.17448
G1 X94.119 Y97.779 E6.27088
G1 X95.683 Y99.344 E6.50370
G1 X95.640 Y100.230 E6.59710
G1 X94.119 Y98.709 E6.82345
G1 X94.119 Y99.639 E6.92132
G1 X95.855 Y101.376 E7.17975
G1 F1800.000 E6.17975
G92 E0
G1 X94.781 Y105.881 F7800.000
G1 F1800.000 E1.00000
G1 X94.119 Y105.219 F1080.000 E1.09861
G1 X94.119 Y104.289 E1.19648
G1 X95.711 Y105.881 E1.43349
G1 X96.641 Y105.881 E1.53136
G1 X94.119 Y103.359 E1.90678
G1 X94.119 Y102.429 E2.00464
G1 X97.571 Y105.881 E2.51846
G1 X98.501 Y105.881 E2.61633
G1 X94.119 Y101.499 E3.26856
G1 X94.119 Y100.569 E3.36642
G1 X99.431 Y105.881 E4.15705
G1 X100.361 Y105.881 E4.25492
G1 X98.630 Y104.150 E4.51254
G1 X99.771 Y104.361 E4.63465
G1 X101.291 Y105.881 E4.86087
G1 X102.221 Y105.881 E4.95873
G1 X100.658 Y104.319 E5.19130
G1 X101.404 Y104.135 E5.27218
G1 X103.150 Y105.881 E5.53209
G1 X104.080 Y105.881 E5.62996
G1 X102.053 Y103.854 E5.93164
G1 X102.624 Y103.495 E6.00259
G1 X105.010 Y105.881 E6.35781
G1 X105.881 Y105.822 E6.44967
G1 X103.117 Y103.058 E6.86110
G1 X103.545 Y102.556 E6.93051
G1 X105.881 Y104.892 E7.27818
G1 X105.881 Y103.962 E7.37605
G1 X103.894 Y101.976 E7.67175
G1 X104.164 Y101.315 E7.74681
G1 X105.881 Y103.032 E8.00236
G1 X105.881 Y102.103 E8.10023
G1 X104.333 Y100.555 E8.33064
G1 X104.352 Y99.644 E8.42650
G1 X105.881 Y101.173 E8.65404
G1 X105.881 Y100.243 E8.75191
G1 X104.080 Y98.442 E9.02000
M106 S650
M104 S185 ; set temperature
G1 F1800.000 E8.02000
G92 E0
G1 Z0.950 F7800.000
G1 X103.312 Y98.730
G1 F1800.000 E1.00000
G1 X103.447 Y99.150 F710.255 E1.04196
G1 X103.513 Y99.487 E1.07457
G1 X103.546 Y99.828 E1.10718
G1 X103.546 Y100.172 E1.13980
G1 X103.513 Y100.513 E1.17241
G1 X103.447 Y100.850 E1.20502
G1 X103.349 Y101.178 E1.23763
G1 X103.220 Y101.496 E1.27025
G1 X103.061 Y101.800 E1.30286
G1 X102.872 Y102.087 E1.33547
G1 X102.658 Y102.354 E1.36808
G1 X102.418 Y102.600 E1.40070
G1 X102.156 Y102.821 E1.43331
G1 X101.873 Y103.016 E1.46592
G1 X101.574 Y103.183 E1.49854
G1 X101.259 Y103.320 E1.53115
G1 X100.933 Y103.426 E1.56376
G1 X100.598 Y103.500 E1.59637
G1 X100.257 Y103.541 E1.62899
G1 X99.914 Y103.550 E1.66160
G1 X99.572 Y103.525 E1.69421
G1 X99.234 Y103.467 E1.72682
G1 X98.903 Y103.377 E1.75944
G1 X98.582 Y103.255 E1.79205
G1 X98.274 Y103.103 E1.82466
G1 X97.983 Y102.922 E1.85727
G1 X97.710 Y102.714 E1.88989
G1 X97.459 Y102.480 E1.92250
G1 X97.232 Y102.223 E1.95511
G1 X97.030 Y101.946 E1.98772
G1 X96.856 Y101.650 E2.02033
G1 X96.712 Y101.339 E2.05295
G1 X96.598 Y101.015 E2.08556
G1 X96.516 Y100.682 E2.11817
G1 X96.466 Y100.343 E2.15079
G1 X96.449 Y100.000 E2.18340
G1 X96.466 Y99.657 E2.21601
G1 X96.516 Y99.318 E2.24862
G1 X96.598 Y98.985 E2.28124
G1 X96.712 Y98.661 E2.31385
G1 X96.856 Y98.350 E2.34646
G1 X97.030 Y98.054 E2.37908
G1 X97.232 Y97.777 E2.41169
G1 X97.459 Y97.520 E2.44430
G1 X97.710 Y97.286 E2.47691
G1 X97.983 Y97.078 E2.50953
G1 X98.274 Y96.897 E2.54214
G1 X98.582 Y96.745 E2.57475
G1 X98.903 Y96.623 E2.60736
G1 X99.234 Y96.533 E2.63998
G1 X99.572 Y96.475 E2.67259
G1 X99.914 Y96.450 E2.70520
G1 X100.257 Y96.459 E2.73781
G1 X100.598 Y96.500 E2.77043
G1 X100.933 Y96.574 E2.80304
G1 X101.259 Y96.680 E2.83565
G1 X101.574 Y96.817 E2.86826
G1 X101.873 Y96.984 E2.90088
G1 X102.156 Y97.179 E2.93349
G1 X102.418 Y97.400 E2.96610
G1 X102.658 Y97.646 E2.99871
G1 X102.872 Y97.913 E3.03133
G1 X103.061 Y98.200 E3.06394
G1 X103.283 Y98.658 E3.11232
G1 X102.831 Y98.926 F7800.000
G1 X102.942 Y99.275 F710.255 E3.14712
G1 X102.999 Y99.562 E3.17496
G1 X103.027 Y99.854 E3.20279
G1 X103.027 Y100.146 E3.23063
G1 X102.999 Y100.438 E3.25846
G1 X102.942 Y100.725 E3.28630
G1 X102.859 Y101.006 E3.31413
G1 X102.748 Y101.277 E3.34196
G1 X102.612 Y101.536 E3.36980
G1 X102.452 Y101.781 E3.39763
G1 X102.268 Y102.009 E3.42547
G1 X102.064 Y102.219 E3.45330
G1 X101.840 Y102.408 E3.48113
G1 X101.599 Y102.574 E3.50897
G1 X101.343 Y102.717 E3.53680
G1 X101.075 Y102.833 E3.56464
G1 X100.796 Y102.924 E3.59247
G1 X100.510 Y102.987 E3.62030
G1 X100.220 Y103.022 E3.64814
G1 X99.927 Y103.029 E3.67597
G1 X99.635 Y103.008 E3.70381
G1 X99.346 Y102.959 E3.73164
G1 X99.064 Y102.882 E3.75948
G1 X98.790 Y102.778 E3.78731
G1 X98.527 Y102.648 E3.81514
G1 X98.279 Y102.494 E3.84298
G1 X98.046 Y102.316 E3.87081
G1 X97.831 Y102.117 E3.89864
G1 X97.637 Y101.898 E3.92648
G1 X97.465 Y101.661 E3.95431
G1 X97.317 Y101.408 E3.98215
G1 X97.193 Y101.143 E4.00998
G1 X97.096 Y100.867 E4.03782
G1 X97.026 Y100.582 E4.06565
G1 X96.984 Y100.292 E4.09348
G1 X96.970 Y100.000 E4.12132
G1 X96.984 Y99.708 E4.14915
G1 X97.026 Y99.418 E4.17699
G1 X97.096 Y99.133 E4.20482
G1 X97.193 Y98.857 E4.23265
G1 X97.317 Y98.592 E4.26049
G1 X97.465 Y98.339 E4.28832
G1 X97.637 Y98.102 E4.31616
G1 X97.831 Y97.883 E4.34399
G1 X98.046 Y97.684 E4.37183
G1 X98.279 Y97.506 E4.39966
G1 X98.527 Y97.352 E4.42749
G1 X98.790 Y97.222 E4.45533
G1 X99.064 Y97.118 E4.48316
G1 X99.346 Y97.041 E4.51100
G1 X99.635 Y96.992 E4.53883
G1 X99.927 Y96.971 E4.56666
G1 X100.220 Y96.978 E4.59450
G1 X100.510 Y97.013 E4.62233
G1 X100.796 Y97.076 E4.65017
G1 X101.075 Y97.167 E4.67800
G1 X101.343 Y97.283 E4.70583
G1 X101.599 Y97.426 E4.73367
G1 X101.840 Y97.592 E4.76150
G1 X102.064 Y97.781 E4.78934
G1 X102.268 Y97.990 E4.81717
G1 X102.452 Y98.219 E4.84500
G1 X102.612 Y98.464 E4.87284
G1 X102.801 Y98.854 E4.91406
G1 X102.350 Y99.122 F7800.000
G1 X102.437 Y99.399 F710.255 E4.94170
G1 X102.484 Y99.637 E4.96476
G1 X102.507 Y100.121 E5.01082
G1 X102.437 Y100.601 E5.05688
G1 X102.276 Y101.058 E5.10293
G1 X102.031 Y101.475 E5.14899
G1 X101.709 Y101.838 E5.19505
G1 X101.324 Y102.132 E5.24111
G1 X100.890 Y102.347 E5.28716
G1 X100.423 Y102.474 E5.33322
G1 X99.939 Y102.509 E5.37928
G1 X99.458 Y102.451 E5.42534
G1 X98.998 Y102.301 E5.47139
G1 X98.574 Y102.066 E5.51745
G1 X98.204 Y101.753 E5.56351
G1 X97.900 Y101.376 E5.60956
G1 X97.675 Y100.947 E5.65562
G1 X97.537 Y100.482 E5.70168
G1 X97.490 Y100.000 E5.74774
G1 X97.537 Y99.518 E5.79379
G1 X97.675 Y99.053 E5.83985
G1 X97.900 Y98.624 E5.88591
G1 X98.204 Y98.247 E5.93197
G1 X98.574 Y97.934 E5.97802
G1 X98.998 Y97.699 E6.02408
G1 X99.458 Y97.549 E6.07014
G1 X99.939 Y97.491 E6.11620
G1 X100.423 Y97.526 E6.16225
G1 X100.890 Y97.653 E6.20831
G1 X101.324 Y97.868 E6.25437
G1 X101.709 Y98.162 E6.30043
G1 X102.031 Y98.525 E6.34648
G1 X102.164 Y98.727 E6.36954
G1 X102.320 Y99.050 E6.40360
G1 X102.163 Y99.345 F7800.000
G1 F1800.000 E5.40360
G92 E0
G1 X106.701 Y96.538 F7800.000
G1 F1800.000 E1.00000
G1 X106.701 Y106.701 F710.255 E1.96605
G1 X93.299 Y106.701 E3.23999
G1 X93.299 Y96.538 E4.20604
G1 X96.538 Y93.299 E4.64146
G1 X103.462 Y93.299 E5.29962
G1 X106.646 Y96.483 E5.72763
G1 F1800.000 E4.72763
G92 E0
G1 X103.677 Y92.779 F7800.000
G1 F1800.000 E1.00000
G1 X107.221 Y96.323 F710.255 E1.47634
G1 X107.221 Y107.221 E2.51225
G1 X92.779 Y107.221 E3.88498
G1 X92.779 Y96.323 E4.92088
G1 X96.323 Y92.779 E5.39723
G1 X103.599 Y92.779 E6.08890
G1 X103.892 Y92.260 F7800.000
G1 X107.740 Y96.108 F600.000 E6.60616
G1 X107.740 Y107.740 E7.71192
G1 X92.260 Y107.740 E9.18344
G1 X92.260 Y96.108 E10.28920
G1 X96.108 Y92.260 E10.80646
G1 X103.814 Y92.260 E11.53905
G1 X103.892 Y92.779 F7800.000
G1 F1800.000 E10.53905
G92 E0
G1 X97.081 Y93.676 F7800.000
G1 F1800.000 E1.00000
G1 X93.676 Y97.081 F1420.510 E1.45967
G1 X93.676 Y97.819 E1.53009
G1 X97.819 Y93.676 E2.08936
G1 X98.557 Y93.676 E2.15978
G1 X93.676 Y98.557 E2.81863
G1 X93.676 Y99.295 E2.88905
G1 X99.295 Y93.676 E3.64749
G1 X100.033 Y93.676 E3.71791
G1 X93.676 Y100.033 E4.57594
G1 F1800.000 E3.57594
G92 E0
G1 X97.186 Y97.260 F7800.000
G1 F1800.000 E1.00000
G1 X93.676 Y100.771 F1420.510 E1.47382
