; generated by Slic3r 0.9.10b on 2014-02-15 at 05:00:42

; layer_height = 0.2
; perimeters = 2
; top_solid_layers = 3
; bottom_solid_layers = 3
; fill_density = 1.0
; perimeter_speed = 30
; infill_speed = 60
; travel_speed = 130
; nozzle_diameter = 0.5
; filament_diameter = 1.75
; extrusion_multiplier = 1.2
; perimeters extrusion width = 0.85mm
; infill extrusion width = 1.02mm
; solid infill extrusion width = 0.85mm
; top infill extrusion width = 0.85mm
; support material extrusion width = 0.85mm
; first layer extrusion width = 0.40mm

G21 ; set units to millimeters
M107 ; disable fan
M104 S190 ; set temperature
G28 ; home all axes
G1 Z5 F5000 ; lift nozzle
M109 S190 ; wait for temperature to be reached
G90 ; use absolute coordinates
G92 E0 ; reset extrusion distance
M82 ; use absolute distances for extrusion
G1 F1800.000 E-1.00000 ; retract
G92 E0 ; reset extrusion distance
G1 Z0.200 F7800.000 ; move to next layer (0)
G1 X73.108 Y70.681 ; move to first skirt point
G1 F1800.000 E1.00000 ; compensate retraction
G1 X74.738 Y69.111 F540.000 E1.09517 ; skirt
G1 X76.138 Y67.951 E1.17163 ; skirt
G1 X93.658 Y55.091 E2.08559 ; skirt
G1 X94.758 Y54.381 E2.14064 ; skirt
G1 X95.528 Y53.951 E2.17773 ; skirt
G1 X96.748 Y53.381 E2.23436 ; skirt
G1 X97.358 Y53.131 E2.26208 ; skirt
G1 X97.668 Y53.021 E2.27592 ; skirt
G1 X97.678 Y53.061 E2.27765 ; skirt
G1 X98.348 Y52.811 E2.30772 ; skirt
G1 X99.838 Y52.611 E2.37095 ; skirt
G1 X101.338 Y52.741 E2.43426 ; skirt
G1 X102.778 Y53.201 E2.49783 ; skirt
G1 X104.288 Y53.871 E2.56731 ; skirt
G1 X105.138 Y54.321 E2.60775 ; skirt
G1 X105.968 Y54.841 E2.64894 ; skirt
G1 X106.628 Y55.301 E2.68277 ; skirt
G1 X123.678 Y67.821 E3.57233 ; skirt
G1 X125.048 Y68.941 E3.64675 ; skirt
G1 X125.888 Y69.691 E3.69410 ; skirt
G1 X127.318 Y71.161 E3.78035 ; skirt
G1 X128.098 Y72.061 E3.83043 ; skirt
G1 X135.068 Y80.851 E4.30219 ; skirt
G1 X136.808 Y83.101 E4.42180 ; skirt
G1 X137.698 Y84.341 E4.48599 ; skirt
G1 X138.698 Y85.821 E4.56111 ; skirt
G1 X139.218 Y86.641 E4.60194 ; skirt
G1 X140.348 Y88.541 E4.69490 ; skirt
G1 X141.308 Y90.311 E4.77958 ; skirt
G1 X142.218 Y92.131 E4.86515 ; skirt
G1 X143.228 Y94.371 E4.96849 ; skirt
G1 X143.858 Y95.891 E5.03768 ; skirt
G1 X144.628 Y97.901 E5.12820 ; skirt
G1 X145.548 Y100.561 E5.24656 ; skirt
G1 X146.458 Y103.601 E5.38001 ; skirt
G1 X146.558 Y104.001 E5.39735 ; skirt
G1 X147.078 Y106.211 E5.49282 ; skirt
G1 X147.678 Y109.001 E5.61284 ; skirt
G1 X148.258 Y112.061 E5.74381 ; skirt
G1 X148.818 Y115.401 E5.88623 ; skirt
G1 X149.018 Y116.811 E5.94612 ; skirt
G1 X149.228 Y118.781 E6.02943 ; skirt
G1 X149.348 Y120.341 E6.09523 ; skirt
G1 X149.378 Y121.441 E6.14151 ; skirt
G1 X149.368 Y121.971 E6.16380 ; skirt
G1 X149.338 Y122.571 E6.18906 ; skirt
G1 X149.268 Y123.321 E6.22074 ; skirt
G1 X149.218 Y123.631 E6.23394 ; skirt
G1 X149.038 Y124.441 E6.26884 ; skirt
G1 X148.768 Y125.291 E6.30634 ; skirt
G1 X148.338 Y126.221 E6.34943 ; skirt
G1 X147.348 Y127.591 E6.42051 ; skirt
G1 X146.058 Y128.681 E6.49154 ; skirt
G1 X144.538 Y129.421 E6.56263 ; skirt
G1 X96.728 Y145.731 E8.68698 ; skirt
G1 X95.618 Y146.071 E8.73580 ; skirt
G1 X94.998 Y146.221 E8.76263 ; skirt
G1 X94.568 Y146.311 E8.78110 ; skirt
G1 X93.518 Y146.481 E8.82583 ; skirt
G1 X92.358 Y146.591 E8.87483 ; skirt
G1 X91.758 Y146.611 E8.90008 ; skirt
G1 X68.798 Y146.611 E9.86563 ; skirt
G1 X67.668 Y146.551 E9.91321 ; skirt
G1 X67.038 Y146.481 E9.93987 ; skirt
G1 X65.988 Y146.311 E9.98460 ; skirt
G1 X64.938 Y146.071 E10.02990 ; skirt
G1 X64.418 Y145.921 E10.05266 ; skirt
G1 X63.448 Y145.591 E10.09574 ; skirt
G1 X62.468 Y145.181 E10.14042 ; skirt
G1 X61.458 Y144.681 E10.18781 ; skirt
G1 X60.898 Y144.361 E10.21493 ; skirt
G1 X59.958 Y143.751 E10.26206 ; skirt
G1 X53.438 Y139.271 E10.59474 ; skirt
G1 X52.428 Y138.421 E10.65025 ; skirt
G1 X51.598 Y137.391 E10.70588 ; skirt
G1 X50.978 Y136.221 E10.76156 ; skirt
G1 X50.608 Y134.951 E10.81719 ; skirt
G1 X50.478 Y133.631 E10.87297 ; skirt
G1 X50.478 Y131.861 E10.94740 ; skirt
G1 X50.618 Y120.811 E11.41213 ; skirt
G1 X50.698 Y119.401 E11.47152 ; skirt
G1 X50.838 Y117.951 E11.53278 ; skirt
G1 X51.168 Y115.451 E11.63883 ; skirt
G1 X51.658 Y112.441 E11.76708 ; skirt
G1 X52.308 Y109.001 E11.91430 ; skirt
G1 X52.908 Y106.211 E12.03431 ; skirt
G1 X53.538 Y103.591 E12.14763 ; skirt
G1 X54.648 Y99.911 E12.30928 ; skirt
G1 X55.368 Y97.851 E12.40105 ; skirt
G1 X56.108 Y95.941 E12.48718 ; skirt
G1 X56.948 Y93.921 E12.57918 ; skirt
G1 X57.898 Y91.881 E12.67382 ; skirt
G1 X58.978 Y89.731 E12.77500 ; skirt
G1 X59.998 Y87.911 E12.86274 ; skirt
G1 X61.368 Y85.701 E12.97209 ; skirt
G1 X62.168 Y84.511 E13.03239 ; skirt
G1 X63.178 Y83.111 E13.10498 ; skirt
G1 X64.538 Y81.331 E13.19919 ; skirt
G1 X71.938 Y71.991 E13.70030 ; skirt
G1 X72.248 Y71.621 E13.72060 ; skirt
G1 X73.065 Y70.727 E13.77152 ; skirt
G1 X73.418 Y70.971 F7800.000 ; move to first skirt point
G1 X74.668 Y69.741 F540.000 E13.84527 ; skirt
G1 X75.008 Y69.431 E13.86462 ; skirt
G1 X76.388 Y68.291 E13.93990 ; skirt
G1 X93.608 Y55.641 E14.83845 ; skirt
G1 X94.208 Y55.221 E14.86925 ; skirt
G1 X94.978 Y54.731 E14.90764 ; skirt
G1 X95.708 Y54.331 E14.94264 ; skirt
G1 X96.928 Y53.761 E14.99927 ; skirt
G1 X97.498 Y53.531 E15.02512 ; skirt
G1 X97.808 Y53.421 E15.03895 ; skirt
G1 X97.818 Y53.451 E15.04028 ; skirt
G1 X98.448 Y53.221 E15.06848 ; skirt
G1 X99.848 Y53.031 E15.12790 ; skirt
G1 X101.258 Y53.151 E15.18741 ; skirt
G1 X102.598 Y53.581 E15.24659 ; skirt
G1 X104.108 Y54.251 E15.31606 ; skirt
G1 X104.918 Y54.681 E15.35463 ; skirt
G1 X105.748 Y55.201 E15.39582 ; skirt
G1 X106.188 Y55.501 E15.41821 ; skirt
G1 X123.428 Y68.161 E16.31770 ; skirt
G1 X124.778 Y69.271 E16.39120 ; skirt
G1 X125.598 Y70.001 E16.43736 ; skirt
G1 X126.738 Y71.151 E16.50546 ; skirt
G1 X127.778 Y72.331 E16.57161 ; skirt
G1 X134.728 Y81.101 E17.04218 ; skirt
G1 X136.318 Y83.151 E17.15129 ; skirt
G1 X137.448 Y84.711 E17.23229 ; skirt
G1 X138.218 Y85.841 E17.28980 ; skirt
G1 X138.788 Y86.741 E17.33460 ; skirt
G1 X139.848 Y88.511 E17.42136 ; skirt
G1 X140.938 Y90.501 E17.51678 ; skirt
G1 X141.718 Y92.051 E17.58975 ; skirt
G1 X142.838 Y94.541 E17.70456 ; skirt
G1 X143.538 Y96.221 E17.78110 ; skirt
G1 X144.168 Y97.871 E17.85538 ; skirt
G1 X145.068 Y100.461 E17.97068 ; skirt
G1 X146.148 Y104.091 E18.12995 ; skirt
G1 X146.668 Y106.301 E18.22543 ; skirt
G1 X147.298 Y109.241 E18.35187 ; skirt
G1 X147.818 Y111.981 E18.46915 ; skirt
G1 X148.398 Y115.461 E18.61752 ; skirt
G1 X148.628 Y117.091 E18.68674 ; skirt
G1 X148.798 Y118.681 E18.75399 ; skirt
G1 X148.928 Y120.351 E18.82443 ; skirt
G1 X148.958 Y121.451 E18.87071 ; skirt
G1 X148.948 Y121.951 E18.89174 ; skirt
G1 X148.918 Y122.551 E18.91700 ; skirt
G1 X148.848 Y123.251 E18.94659 ; skirt
G1 X148.628 Y124.341 E18.99335 ; skirt
G1 X148.378 Y125.141 E19.02860 ; skirt
G1 X147.968 Y126.011 E19.06904 ; skirt
G1 X147.038 Y127.301 E19.13592 ; skirt
G1 X145.828 Y128.321 E19.20247 ; skirt
G1 X144.398 Y129.021 E19.26943 ; skirt
G1 X96.588 Y145.331 E21.39378 ; skirt
G1 X95.518 Y145.661 E21.44087 ; skirt
G1 X94.898 Y145.811 E21.46769 ; skirt
G1 X94.488 Y145.901 E21.48534 ; skirt
G1 X93.468 Y146.061 E21.52876 ; skirt
G1 X92.338 Y146.171 E21.57651 ; skirt
G1 X91.738 Y146.191 E21.60175 ; skirt
G1 X68.818 Y146.191 E22.56562 ; skirt
G1 X68.218 Y146.171 E22.59087 ; skirt
G1 X67.718 Y146.131 E22.61196 ; skirt
G1 X66.698 Y146.011 E22.65515 ; skirt
G1 X66.068 Y145.901 E22.68204 ; skirt
G1 X65.038 Y145.661 E22.72652 ; skirt
G1 X64.548 Y145.521 E22.74795 ; skirt
G1 X63.598 Y145.201 E22.79011 ; skirt
G1 X62.648 Y144.801 E22.83345 ; skirt
G1 X61.668 Y144.321 E22.87934 ; skirt
G1 X61.108 Y144.001 E22.90647 ; skirt
G1 X60.248 Y143.441 E22.94963 ; skirt
G1 X53.678 Y138.921 E23.28499 ; skirt
G1 X52.728 Y138.121 E23.33722 ; skirt
G1 X51.948 Y137.161 E23.38923 ; skirt
G1 X51.368 Y136.061 E23.44153 ; skirt
G1 X51.018 Y134.871 E23.49369 ; skirt
G1 X50.898 Y133.631 E23.54608 ; skirt
G1 X50.898 Y131.871 E23.62010 ; skirt
G1 X51.038 Y120.821 E24.08483 ; skirt
G1 X51.118 Y119.431 E24.14338 ; skirt
G1 X51.258 Y117.991 E24.20422 ; skirt
G1 X51.608 Y115.331 E24.31705 ; skirt
G1 X52.068 Y112.511 E24.43720 ; skirt
G1 X52.718 Y109.091 E24.58360 ; skirt
G1 X53.318 Y106.301 E24.70361 ; skirt
G1 X53.938 Y103.711 E24.81561 ; skirt
G1 X55.048 Y100.051 E24.97645 ; skirt
G1 X55.698 Y98.191 E25.05931 ; skirt
G1 X56.498 Y96.101 E25.15342 ; skirt
G1 X57.338 Y94.081 E25.24542 ; skirt
G1 X58.198 Y92.231 E25.33121 ; skirt
G1 X59.348 Y89.941 E25.43897 ; skirt
G1 X60.508 Y87.871 E25.53876 ; skirt
G1 X61.588 Y86.131 E25.62488 ; skirt
G1 X62.648 Y84.561 E25.70455 ; skirt
G1 X63.518 Y83.361 E25.76688 ; skirt
G1 X64.948 Y81.491 E25.86588 ; skirt
G1 X72.268 Y72.251 E26.36161 ; skirt
G1 X73.375 Y71.017 E26.43131 ; skirt
G1 F1800.000 E25.43131 ; retract
G92 E0 ; reset extrusion distance
G1 X65.578 Y130.266 F7800.000 ; move to first support material point
G1 F1800.000 E1.00000 ; compensate retraction
G1 X58.713 Y130.266 F1080.000 E1.28871 ; support material
G1 X58.675 Y131.109 E1.32419 ; support material
G1 X67.757 Y131.109 E1.70615 ; support material
G1 X67.757 Y131.952 F7800.000 ; move to first support material point
G1 X64.655 Y131.952 F1080.000 E1.83660 ; support material
G1 F1800.000 E0.83660 ; retract
G92 E0 ; reset extrusion distance
G1 X61.368 Y131.952 F7800.000 ; move to first support material point
G1 F1800.000 E1.00000 ; compensate retraction
G1 X57.318 Y131.952 F1080.000 E1.17029 ; support material
G1 X57.318 Y132.795 E1.20574 ; support material
G1 X58.836 Y132.795 E1.26956 ; support material
G1 X59.159 Y133.638 E1.30753 ; support material
G1 X57.318 Y133.638 E1.38496 ; support material
G1 F1800.000 E0.38496 ; retract
G92 E0 ; reset extrusion distance
G1 X75.257 Y132.795 F7800.000 ; move to first support material point
G1 F1800.000 E1.00000 ; compensate retraction
G1 X64.998 Y132.795 F1080.000 E1.43146 ; support material
G1 X65.514 Y133.638 E1.47304 ; support material
G1 X75.257 Y133.638 E1.88278 ; support material
G1 X75.257 Y134.481 E1.91823 ; support material
G1 X66.378 Y134.481 E2.29162 ; support material
G1 X68.490 Y135.324 E2.38723 ; support material
G1 X75.257 Y135.324 E2.67183 ; support material
G1 F1800.000 E1.67183 ; retract
G92 E0 ; reset extrusion distance
G1 X92.075 Y135.324 F7800.000 ; move to first support material point
G1 F1800.000 E1.00000 ; compensate retraction
G1 X85.307 Y135.324 F1080.000 E1.28460 ; support material
G1 X85.307 Y134.481 E1.32005 ; support material
G1 X94.186 Y134.481 E1.69344 ; support material
G1 X95.051 Y133.638 E1.74421 ; support material
G1 X85.307 Y133.638 E2.15395 ; support material
G1 X85.307 Y132.795 E2.18940 ; support material
G1 X95.568 Y132.795 E2.62089 ; support material
G1 X95.904 Y131.952 E2.65906 ; support material
G1 X92.807 Y131.952 E2.78929 ; support material
G1 X92.807 Y131.109 E2.82474 ; support material
G1 X101.890 Y131.109 E3.20670 ; support material
G1 X101.851 Y130.266 E3.24218 ; support material
G1 X94.986 Y130.266 E3.53089 ; support material
G1 F1800.000 E2.53089 ; retract
G92 E0 ; reset extrusion distance
G1 X99.197 Y131.952 F7800.000 ; move to first support material point
G1 F1800.000 E1.00000 ; compensate retraction
G1 X103.819 Y131.952 F1080.000 E1.19435 ; support material
G1 X103.634 Y132.795 E1.23064 ; support material
G1 X101.729 Y132.795 E1.31075 ; support material
G1 X101.405 Y133.638 E1.34872 ; support material
G1 X103.449 Y133.638 E1.43465 ; support material
G1 F1800.000 E0.43465 ; retract
G92 E0 ; reset extrusion distance
G1 X97.981 Y136.080 F7800.000 ; move to first perimeter point
G1 F1800.000 E1.00000 ; compensate retraction
G1 X97.583 Y136.531 F540.000 E1.02530 ; perimeter
G1 X97.221 Y136.892 E1.04679 ; perimeter
G1 X96.761 Y137.292 E1.07246 ; perimeter
G1 X96.357 Y137.598 E1.09376 ; perimeter
G1 X95.921 Y137.889 E1.11578 ; perimeter
G1 X95.408 Y138.183 E1.14067 ; perimeter
G1 X94.866 Y138.444 E1.16594 ; perimeter
G1 X94.306 Y138.664 E1.19125 ; perimeter
G1 X93.835 Y138.816 E1.21207 ; perimeter
G1 X93.265 Y138.959 E1.23679 ; perimeter
G1 X92.547 Y139.076 E1.26737 ; perimeter
G1 X92.085 Y139.123 E1.28689 ; perimeter
G1 X91.584 Y139.141 E1.30800 ; perimeter
G1 X90.555 Y139.124 E1.35127 ; perimeter
G1 X89.543 Y139.062 E1.39392 ; perimeter
G1 X88.534 Y138.959 E1.43656 ; perimeter
G1 X87.591 Y138.824 E1.47661 ; perimeter
G1 X86.601 Y138.641 E1.51894 ; perimeter
G1 X85.623 Y138.418 E1.56113 ; perimeter
G1 X84.677 Y138.160 E1.60237 ; perimeter
G1 X83.400 Y137.743 E1.65886 ; perimeter
G1 X83.400 Y137.762 E1.65968 ; perimeter
G1 X82.888 Y137.733 E1.68126 ; perimeter
G1 X82.416 Y137.800 E1.70131 ; perimeter
G1 X82.177 Y137.868 E1.71174 ; perimeter
G1 X81.861 Y138.008 E1.72630 ; perimeter
G1 X81.557 Y138.204 E1.74148 ; perimeter
G1 X81.422 Y138.320 E1.74896 ; perimeter
G1 X81.269 Y138.469 E1.75798 ; perimeter
G1 X80.962 Y138.871 E1.77924 ; perimeter
G1 X80.853 Y138.967 E1.78534 ; perimeter
G1 X80.565 Y139.103 E1.79876 ; perimeter
G1 X80.396 Y139.136 E1.80599 ; perimeter
G1 X80.230 Y139.141 E1.81295 ; perimeter
G1 X79.922 Y139.077 E1.82618 ; perimeter
G1 X79.665 Y138.928 E1.83868 ; perimeter
G1 X79.577 Y138.842 E1.84384 ; perimeter
G1 X79.316 Y138.492 E1.86220 ; perimeter
G1 X79.123 Y138.298 E1.87372 ; perimeter
G1 X79.001 Y138.197 E1.88041 ; perimeter
G1 X78.707 Y138.008 E1.89510 ; perimeter
G1 X78.326 Y137.846 E1.91249 ; perimeter
G1 X77.985 Y137.762 E1.92727 ; perimeter
G1 X77.548 Y137.732 E1.94568 ; perimeter
G1 X77.165 Y137.757 E1.96184 ; perimeter
G1 X74.939 Y138.406 E2.05934 ; perimeter
G1 X74.032 Y138.627 E2.09859 ; perimeter
G1 X73.032 Y138.822 E2.14143 ; perimeter
G1 X72.104 Y138.955 E2.18086 ; perimeter
G1 X71.055 Y139.055 E2.22519 ; perimeter
G1 X69.034 Y139.142 E2.31026 ; perimeter
G1 X68.470 Y139.123 E2.33399 ; perimeter
G1 X67.884 Y139.062 E2.35873 ; perimeter
G1 X67.304 Y138.960 E2.38351 ; perimeter
G1 X66.725 Y138.815 E2.40860 ; perimeter
G1 X66.250 Y138.662 E2.42962 ; perimeter
G1 X65.696 Y138.443 E2.45464 ; perimeter
G1 X65.161 Y138.185 E2.47962 ; perimeter
G1 X64.640 Y137.886 E2.50491 ; perimeter
G1 X64.202 Y137.594 E2.52705 ; perimeter
G1 X63.805 Y137.293 E2.54799 ; perimeter
G1 X63.343 Y136.891 E2.57375 ; perimeter
G1 X62.918 Y136.464 E2.59909 ; perimeter
G1 X62.580 Y136.076 E2.62074 ; perimeter
G1 X62.216 Y135.598 E2.64597 ; perimeter
G1 X61.921 Y135.149 E2.66856 ; perimeter
G1 X61.613 Y134.601 E2.69502 ; perimeter
G1 X61.313 Y133.943 E2.72543 ; perimeter
G1 X63.188 Y133.435 E2.80712 ; perimeter
G1 X63.439 Y133.945 E2.83104 ; perimeter
G1 X63.683 Y134.354 E2.85105 ; perimeter
G1 X63.995 Y134.795 E2.87376 ; perimeter
G1 X64.368 Y135.235 E2.89803 ; perimeter
G1 X64.776 Y135.635 E2.92207 ; perimeter
G1 X65.155 Y135.951 E2.94279 ; perimeter
G1 X65.593 Y136.261 E2.96537 ; perimeter
G1 X66.088 Y136.548 E2.98942 ; perimeter
G1 X66.603 Y136.788 E3.01331 ; perimeter
G1 X67.070 Y136.961 E3.03427 ; perimeter
G1 X67.575 Y137.103 E3.05631 ; perimeter
G1 X68.132 Y137.209 E3.08017 ; perimeter
G1 X68.400 Y137.236 E3.09150 ; perimeter
G1 X68.400 Y137.451 E3.10057 ; perimeter
G1 X77.165 Y137.451 E3.46914 ; perimeter
G1 X77.165 Y130.371 E3.76690 ; perimeter
G1 X69.618 Y130.371 E4.08427 ; perimeter
G1 X69.783 Y130.017 E4.10071 ; perimeter
G1 X69.869 Y129.893 E4.10705 ; perimeter
G1 X69.976 Y129.786 E4.11339 ; perimeter
G1 X70.100 Y129.700 E4.11974 ; perimeter
G1 X70.236 Y129.636 E4.12608 ; perimeter
G1 X70.382 Y129.597 E4.13242 ; perimeter
G1 X70.560 Y129.581 E4.13993 ; perimeter
G1 X90.006 Y129.581 E4.95771 ; perimeter
G1 X90.183 Y129.597 E4.96519 ; perimeter
G1 X90.329 Y129.636 E4.97153 ; perimeter
G1 X90.465 Y129.700 E4.97787 ; perimeter
G1 X90.589 Y129.786 E4.98421 ; perimeter
G1 X90.696 Y129.893 E4.99055 ; perimeter
G1 X90.782 Y130.016 E4.99689 ; perimeter
G1 X90.947 Y130.371 E5.01334 ; perimeter
G1 X83.400 Y130.371 E5.33073 ; perimeter
G1 X83.400 Y137.451 E5.62848 ; perimeter
G1 X92.165 Y137.451 E5.99706 ; perimeter
G1 X92.165 Y137.236 E6.00612 ; perimeter
G1 X92.427 Y137.209 E6.01720 ; perimeter
G1 X92.993 Y137.103 E6.04145 ; perimeter
G1 X93.492 Y136.963 E6.06321 ; perimeter
