; generated by Slic3r 0.9.10b on 2014-01-20 at 23:19:52

; layer_height = 0.4
; perimeters = 5
; top_solid_layers = 3
; bottom_solid_layers = 3
; fill_density = 0.4
; perimeter_speed = 30
; infill_speed = 60
; travel_speed = 130
; nozzle_diameter = 0.5
; filament_diameter = 1.75
; extrusion_multiplier = 1.1
; perimeters extrusion width = 0.53mm
; infill extrusion width = 0.53mm
; solid infill extrusion width = 0.53mm
; top infill extrusion width = 0.53mm
; first layer extrusion width = 0.70mm

G21 ; set units to millimeters
M107
M104 S200 ; set temperature
G28 ; home all axes
G1 Z5 F5000 ; lift nozzle
M109 S200 ; wait for temperature to be reached
G90 ; use absolute coordinates
G92 E0
M82 ; use absolute distances for extrusion
G1 F1800.000 E-1.00000
G92 E0
G1 Z0.450 F7800.000
G1 X68.901 Y41.302
G1 F1800.000 E1.00000
G1 X69.241 Y40.782 F540.000 E1.06534
G1 X69.601 Y40.282 E1.13014
G1 X70.001 Y39.822 E1.19426
G1 X70.431 Y39.372 E1.25972
G1 X71.161 Y38.712 E1.36323
G1 X72.121 Y37.992 E1.48944
G1 X73.181 Y37.412 E1.61652
G1 X73.711 Y37.162 E1.67815
G1 X74.271 Y36.952 E1.74106
G1 X74.871 Y36.762 E1.80725
G1 X75.881 Y36.532 E1.91620
G1 X76.471 Y36.442 E1.97897
G1 X77.471 Y36.362 E2.08448
G1 X107.061 Y36.362 E5.19661
G1 X122.191 Y36.512 E6.78798
G1 X123.071 Y36.552 E6.88063
G1 X123.651 Y36.602 E6.94186
G1 X124.851 Y36.852 E7.07078
G1 X125.931 Y37.192 E7.18987
G1 X126.511 Y37.432 E7.25588
G1 X127.491 Y37.932 E7.37160
G1 X128.051 Y38.282 E7.44105
G1 X128.551 Y38.632 E7.50524
G1 X129.011 Y39.022 E7.56867
G1 X129.481 Y39.452 E7.63567
G1 X130.241 Y40.272 E7.75326
G1 X130.631 Y40.772 E7.81995
G1 X131.231 Y41.682 E7.93459
G1 X131.541 Y42.252 E8.00284
G1 X131.811 Y42.812 E8.06822
G1 X132.031 Y43.392 E8.13346
G1 X132.221 Y43.982 E8.19866
G1 X132.441 Y44.912 E8.29917
G1 X132.551 Y45.562 E8.36850
G1 X132.651 Y46.642 E8.48258
G1 X133.151 Y145.282 E18.85718
G1 X133.121 Y145.932 E18.92562
G1 X132.931 Y147.962 E19.14005
G1 X132.851 Y148.532 E19.20059
G1 X132.721 Y149.102 E19.26208
G1 X132.181 Y151.072 E19.47692
G1 X132.001 Y151.622 E19.53778
G1 X131.781 Y152.162 E19.59911
G1 X130.911 Y154.002 E19.81318
G1 X130.631 Y154.512 E19.87437
G1 X130.321 Y155.012 E19.93624
G1 X129.141 Y156.672 E20.15045
G1 X128.421 Y157.522 E20.26761
G1 X126.981 Y158.962 E20.48179
G1 X126.531 Y159.362 E20.54512
G1 X126.051 Y159.732 E20.60886
G1 X124.371 Y160.892 E20.82358
G1 X123.401 Y161.452 E20.94138
G1 X121.551 Y162.312 E21.15595
G1 X120.471 Y162.702 E21.27672
G1 X118.501 Y163.232 E21.49128
G1 X117.921 Y163.362 E21.55380
G1 X117.331 Y163.432 E21.61629
G1 X115.301 Y163.602 E21.83054
G1 X114.741 Y163.632 E21.88952
G1 X85.241 Y163.632 E24.99219
G1 X84.681 Y163.602 E25.05117
G1 X82.651 Y163.432 E25.26542
G1 X82.061 Y163.362 E25.32791
G1 X81.481 Y163.232 E25.39043
G1 X79.511 Y162.702 E25.60499
G1 X78.961 Y162.522 E25.66585
G1 X78.421 Y162.302 E25.72718
G1 X76.581 Y161.442 E25.94080
G1 X75.621 Y160.892 E26.05716
G1 X73.941 Y159.732 E26.27188
G1 X73.461 Y159.362 E26.33563
G1 X73.011 Y158.962 E26.39895
G1 X71.571 Y157.522 E26.61313
G1 X70.851 Y156.672 E26.73029
G1 X69.671 Y155.012 E26.94450
G1 X69.361 Y154.512 E27.00638
G1 X69.081 Y154.002 E27.06757
G1 X68.211 Y152.162 E27.28163
G1 X67.991 Y151.622 E27.34296
G1 X67.811 Y151.072 E27.40382
G1 X67.271 Y149.102 E27.61866
G1 X67.141 Y148.532 E27.68015
G1 X67.061 Y147.962 E27.74069
G1 X66.871 Y145.932 E27.95513
G1 X66.841 Y145.282 E28.02356
G1 X67.341 Y46.702 E38.39185
G1 X67.411 Y45.572 E38.51093
G1 X67.491 Y44.982 E38.57355
G1 X67.621 Y44.392 E38.63709
G1 X67.781 Y43.792 E38.70240
G1 X68.151 Y42.752 E38.81850
G1 X68.411 Y42.182 E38.88439
G1 X68.853 Y41.388 E38.97996
G1 F1800.000 E37.97996
G92 E0
G1 X108.214 Y149.000 F7800.000
G1 F1800.000 E1.00000
G1 X108.555 Y148.876 F540.000 E1.03813
G1 X108.912 Y148.813 E1.07626
G1 X109.274 Y148.813 E1.11439
G1 X109.672 Y148.891 E1.15708
G1 X109.972 Y149.000 E1.19058
G1 X110.286 Y149.182 E1.22871
G1 X110.563 Y149.415 E1.26684
G1 X110.796 Y149.692 E1.30497
G1 X110.978 Y150.006 E1.34310
G1 X111.102 Y150.347 E1.38123
G1 X111.165 Y150.704 E1.41936
G1 X111.165 Y151.067 E1.45749
G1 X111.087 Y151.465 E1.50018
G1 X110.978 Y151.764 E1.53368
G1 X110.796 Y152.078 E1.57182
G1 X110.563 Y152.356 E1.60995
G1 X110.286 Y152.589 E1.64807
G1 X109.972 Y152.770 E1.68620
G1 X109.631 Y152.894 E1.72433
G1 X109.274 Y152.957 E1.76246
G1 X108.912 Y152.957 E1.80059
G1 X108.513 Y152.879 E1.84328
G1 X108.214 Y152.770 E1.87679
G1 X107.900 Y152.589 E1.91491
G1 X107.622 Y152.356 E1.95305
G1 X107.389 Y152.078 E1.99117
G1 X107.208 Y151.764 E2.02930
G1 X107.084 Y151.424 E2.06743
G1 X107.021 Y151.067 E2.10556
G1 X107.021 Y150.704 E2.14369
G1 X107.084 Y150.347 E2.18182
G1 X107.208 Y150.006 E2.21995
G1 X107.389 Y149.692 E2.25808
G1 X107.622 Y149.415 E2.29621
G1 X107.900 Y149.182 E2.33434
G1 X108.128 Y149.050 E2.36210
G1 X108.505 Y149.217 F7800.000
G1 F1800.000 E1.36210
G92 E0
G1 X118.703 Y140.764 F7800.000
G1 F1800.000 E1.00000
G1 X118.522 Y140.451 F540.000 E1.03813
G1 X118.398 Y140.110 E1.07626
G1 X118.335 Y139.753 E1.11438
G1 X118.342 Y139.347 E1.15708
G1 X118.398 Y139.033 E1.19058
G1 X118.522 Y138.693 E1.22871
G1 X118.703 Y138.379 E1.26684
G1 X118.936 Y138.101 E1.30497
G1 X119.214 Y137.868 E1.34309
G1 X119.528 Y137.687 E1.38123
G1 X119.868 Y137.563 E1.41936
G1 X120.225 Y137.500 E1.45749
G1 X120.631 Y137.507 E1.50018
G1 X120.945 Y137.563 E1.53368
G1 X121.285 Y137.687 E1.57181
G1 X121.599 Y137.868 E1.60994
G1 X121.877 Y138.101 E1.64807
G1 X122.110 Y138.379 E1.68620
G1 X122.291 Y138.693 E1.72433
G1 X122.415 Y139.033 E1.76246
G1 X122.478 Y139.390 E1.80059
G1 X122.471 Y139.796 E1.84328
G1 X122.415 Y140.110 E1.87678
G1 X122.291 Y140.451 E1.91491
G1 X122.110 Y140.765 E1.95304
G1 X121.877 Y141.042 E1.99118
G1 X121.599 Y141.275 E2.02930
G1 X121.285 Y141.457 E2.06743
G1 X120.945 Y141.581 E2.10556
G1 X120.588 Y141.643 E2.14369
G1 X120.225 Y141.643 E2.18182
G1 X119.868 Y141.580 E2.21996
G1 X119.528 Y141.456 E2.25808
G1 X119.214 Y141.275 E2.29620
G1 X118.936 Y141.042 E2.33434
G1 X118.766 Y140.840 E2.36210
G1 X118.866 Y140.441 F7800.000
G1 F1800.000 E1.36210
G92 E0
G1 X122.314 Y136.339 F7800.000
G1 F1800.000 E1.00000
G1 X121.056 Y135.408 F540.000 E1.16465
G1 X119.707 Y134.663 E1.32667
G1 X118.273 Y134.102 E1.48869
G1 X116.752 Y133.729 E1.65337
G1 X116.593 Y133.670 E1.67125
G1 X116.441 Y133.546 E1.69180
G1 X116.383 Y133.468 E1.70211
G1 X116.310 Y133.286 E1.72264
G1 X116.298 Y133.189 E1.73295
G1 X116.323 Y132.995 E1.75349
G1 X116.359 Y132.904 E1.76380
G1 X116.466 Y132.758 E1.78288
G1 X121.333 Y128.069 E2.49363
G1 X121.485 Y127.967 E2.51290
G1 X121.676 Y127.918 E2.53365
G1 X121.872 Y127.935 E2.55440
G1 X122.052 Y128.017 E2.57516
G1 X122.193 Y128.155 E2.59590
G1 X122.244 Y128.240 E2.60632
G1 X122.297 Y128.415 E2.62551
G1 X122.629 Y131.185 E2.91901
G1 X123.243 Y135.816 E3.41031
G1 X123.236 Y136.000 E3.42970
G1 X123.207 Y136.096 E3.44020
G1 X123.163 Y136.185 E3.45070
G1 X123.031 Y136.334 E3.47162
G1 X122.857 Y136.430 E3.49253
G1 X122.760 Y136.455 E3.50303
G1 X122.562 Y136.452 E3.52395
G1 X122.397 Y136.392 E3.54237
G1 X122.343 Y135.683 F7800.000
G1 F1800.000 E2.54237
G92 E0
G1 X107.433 Y48.835 F7800.000
G1 F1800.000 E1.00000
G1 X107.070 Y48.835 F540.000 E1.03813
G1 X106.713 Y48.772 E1.07626
G1 X106.340 Y48.629 E1.11829
G1 X106.058 Y48.467 E1.15246
G1 X105.781 Y48.233 E1.19059
G1 X105.548 Y47.956 E1.22872
G1 X105.366 Y47.642 E1.26685
G1 X105.242 Y47.301 E1.30498
G1 X105.179 Y46.944 E1.34311
G1 X105.186 Y46.545 E1.38514
G1 X105.242 Y46.225 E1.41931
G1 X105.366 Y45.884 E1.45744
G1 X105.548 Y45.570 E1.49557
G1 X105.781 Y45.292 E1.53370
G1 X106.058 Y45.059 E1.57183
G1 X106.372 Y44.878 E1.60996
G1 X106.713 Y44.754 E1.64809
G1 X107.070 Y44.691 E1.68622
G1 X107.433 Y44.691 E1.72434
G1 X107.790 Y44.754 E1.76248
G1 X108.130 Y44.878 E1.80061
G1 X108.473 Y45.083 E1.84264
G1 X108.722 Y45.292 E1.87681
G1 X108.955 Y45.570 E1.91494
G1 X109.136 Y45.884 E1.95307
G1 X109.260 Y46.225 E1.99120
G1 X109.323 Y46.582 E2.02933
G1 X109.323 Y46.944 E2.06746
G1 X109.260 Y47.301 E2.10559
G1 X109.136 Y47.642 E2.14372
G1 X108.955 Y47.956 E2.18184
G1 X108.722 Y48.233 E2.21998
G1 X108.444 Y48.467 E2.25811
G1 X108.130 Y48.648 E2.29623
G1 X107.790 Y48.772 E2.33436
G1 X107.530 Y48.818 E2.36213
G1 X107.233 Y48.532 F7800.000
G1 F1800.000 E1.36213
G92 E0
G1 X120.178 Y47.103 F7800.000
G1 F1800.000 E1.00000
G1 X120.184 Y46.703 F540.000 E1.04203
G1 X120.241 Y46.383 E1.07620
G1 X120.365 Y46.043 E1.11433
G1 X120.546 Y45.729 E1.15246
G1 X120.779 Y45.451 E1.19059
G1 X121.057 Y45.218 E1.22872
G1 X121.371 Y45.037 E1.26685
G1 X121.711 Y44.913 E1.30498
G1 X122.068 Y44.850 E1.34311
G1 X122.431 Y44.850 E1.38123
G1 X122.788 Y44.913 E1.41937
G1 X123.129 Y45.037 E1.45749
G1 X123.471 Y45.242 E1.49953
G1 X123.720 Y45.451 E1.53370
G1 X123.953 Y45.729 E1.57183
G1 X124.135 Y46.043 E1.60996
G1 X124.259 Y46.383 E1.64809
G1 X124.322 Y46.740 E1.68622
G1 X124.322 Y47.103 E1.72435
G1 X124.259 Y47.460 E1.76248
G1 X124.135 Y47.801 E1.80060
G1 X123.953 Y48.115 E1.83874
G1 X123.720 Y48.392 E1.87687
G1 X123.443 Y48.625 E1.91500
G1 X123.129 Y48.807 E1.95312
G1 X122.788 Y48.931 E1.99125
G1 X122.431 Y48.994 E2.02938
G1 X122.068 Y48.994 E2.06751
G1 X121.711 Y48.931 E2.10564
G1 X121.371 Y48.807 E2.14377
G1 X121.057 Y48.625 E2.18190
G1 X120.779 Y48.392 E2.22003
G1 X120.546 Y48.115 E2.25816
G1 X120.365 Y47.801 E2.29629
G1 X120.241 Y47.460 E2.33442
G1 X120.195 Y47.200 E2.36218
G1 X120.514 Y46.887 F7800.000
G1 F1800.000 E1.36218
G92 E0
G1 X115.629 Y59.343 F7800.000
G1 F1800.000 E1.00000
G1 X115.943 Y59.525 F540.000 E1.03813
G1 X116.220 Y59.758 E1.07626
G1 X116.453 Y60.036 E1.11439
G1 X116.635 Y60.349 E1.15251
G1 X116.759 Y60.690 E1.19065
G1 X116.822 Y61.047 E1.22878
G1 X116.822 Y61.410 E1.26691
G1 X116.759 Y61.767 E1.30503
G1 X116.635 Y62.107 E1.34316
G1 X116.453 Y62.421 E1.38129
G1 X116.220 Y62.699 E1.41942
G1 X115.943 Y62.932 E1.45755
G1 X115.629 Y63.113 E1.49568
G1 X115.288 Y63.237 E1.53381
G1 X114.931 Y63.300 E1.57194
G1 X114.568 Y63.300 E1.61007
G1 X114.211 Y63.237 E1.64820
G1 X113.871 Y63.113 E1.68633
G1 X113.557 Y62.932 E1.72446
G1 X113.279 Y62.699 E1.76259
G1 X113.046 Y62.421 E1.80072
G1 X112.865 Y62.107 E1.83885
G1 X112.741 Y61.767 E1.87698
G1 X112.678 Y61.410 E1.91510
G1 X112.678 Y61.047 E1.95323
G1 X112.741 Y60.690 E1.99136
G1 X112.865 Y60.349 E2.02949
G1 X113.046 Y60.036 E2.06762
G1 X113.279 Y59.758 E2.10575
G1 X113.557 Y59.525 E2.14388
G1 X113.871 Y59.343 E2.18201
G1 X114.211 Y59.219 E2.22014
G1 X114.568 Y59.157 E2.25827
G1 X114.931 Y59.157 E2.29640
G1 X115.288 Y59.219 E2.33453
G1 X115.536 Y59.310 E2.36229
G1 X115.650 Y59.705 F7800.000
G1 F1800.000 E1.36229
G92 E0
G1 X109.004 Y68.246 F7800.000
G1 F1800.000 E1.00000
G1 X113.400 Y72.632 F540.000 E1.65312
G1 X113.498 Y72.768 E1.67083
G1 X113.533 Y72.852 E1.68039
G1 X113.561 Y73.032 E1.69947
G1 X113.533 Y73.211 E1.71854
G1 X113.498 Y73.295 E1.72810
G1 X113.400 Y73.431 E1.74582
G1 X109.646 Y77.186 E2.30421
G1 X109.502 Y77.287 E2.32271
G1 X109.414 Y77.322 E2.33271
G1 X109.226 Y77.346 E2.35264
G1 X109.040 Y77.309 E2.37256
G1 X108.877 Y77.213 E2.39249
G1 X108.752 Y77.070 E2.41242
G1 X108.709 Y76.985 E2.42241
G1 X108.670 Y76.816 E2.44069
G1 X108.093 Y68.753 E3.29087
G1 X108.111 Y68.570 E3.31029
G1 X108.146 Y68.475 E3.32091
G1 X108.197 Y68.387 E3.33153
G1 X108.339 Y68.245 E3.35268
G1 X108.427 Y68.195 E3.36330
G1 X108.621 Y68.143 E3.38446
G1 X108.821 Y68.161 E3.40562
G1 X108.918 Y68.197 E3.41649
G1 X108.909 Y68.896 F7800.000
G1 X109.795 Y67.128
G1 X109.692 Y66.980 F540.000 E3.43546
G1 X109.638 Y66.793 E3.45588
G1 X109.649 Y66.599 E3.47631
G1 X109.679 Y66.507 E3.48656
G1 X109.723 Y66.420 E3.49681
G1 X109.853 Y66.275 E3.51723
G1 X110.023 Y66.181 E3.53766
G1 X110.117 Y66.157 E3.54791
G1 X113.513 Y66.150 E3.90502
G1 X113.679 Y66.177 E3.92273
G1 X113.840 Y66.260 E3.94180
G1 X113.909 Y66.319 E3.95137
G1 X114.016 Y66.465 E3.97044
G1 X114.051 Y66.549 E3.98000
G1 X114.078 Y66.716 E3.99771
G1 X114.078 Y70.028 E4.34606
G1 X114.047 Y70.205 E4.36503
G1 X113.953 Y70.375 E4.38546
G1 X113.808 Y70.505 E4.40589
G1 X113.629 Y70.579 E4.42631
G1 X113.532 Y70.593 E4.43656
G1 X113.339 Y70.571 E4.45699
G1 X113.164 Y70.487 E4.47741
G1 X109.865 Y67.197 E4.96738
G1 X109.862 Y66.960 F7800.000
G1 F1800.000 E3.96738
G92 E0
G1 X115.421 Y66.716 F7800.000
G1 F1800.000 E1.00000
G1 X115.448 Y66.549 F540.000 E1.01772
G1 X115.483 Y66.465 E1.02728
G1 X115.590 Y66.319 E1.04635
G1 X115.737 Y66.212 E1.06542
G1 X115.821 Y66.177 E1.07499
G1 X115.987 Y66.150 E1.09270
G1 X119.382 Y66.157 E1.44980
G1 X119.565 Y66.221 E1.47023
G1 X119.717 Y66.342 E1.49066
G1 X119.821 Y66.507 E1.51108
G1 X119.864 Y66.696 E1.53151
G1 X119.842 Y66.889 E1.55194
G1 X119.807 Y66.980 E1.56218
G1 X119.704 Y67.128 E1.58116
G1 X116.399 Y70.433 E2.07273
G1 X116.251 Y70.536 E2.09170
G1 X116.160 Y70.571 E2.10195
G1 X115.967 Y70.593 E2.12238
G1 X115.778 Y70.549 E2.14280
G1 X115.613 Y70.446 E2.16323
G1 X115.492 Y70.294 E2.18365
G1 X115.428 Y70.111 E2.20408
G1 X115.421 Y66.814 E2.55082
G1 X115.575 Y66.648 F7800.000
G1 F1800.000 E1.55082
G92 E0
G1 X120.429 Y68.302 F7800.000
G1 F1800.000 E1.00000
G1 X120.583 Y68.195 F540.000 E1.01965
G1 X120.777 Y68.143 E1.04081
G1 X120.978 Y68.161 E1.06197
G1 X121.073 Y68.195 E1.07259
G1 X121.238 Y68.310 E1.09374
G1 X121.303 Y68.387 E1.10436
G1 X121.388 Y68.570 E1.12552
G1 X121.406 Y68.754 E1.14498
G1 X120.829 Y76.816 E1.99508
G1 X120.790 Y76.985 E2.01339
G1 X120.747 Y77.070 E2.02338
G1 X120.623 Y77.213 E2.04331
G1 X120.459 Y77.309 E2.06324
G1 X120.273 Y77.346 E2.08317
G1 X120.086 Y77.322 E2.10309
G1 X119.997 Y77.287 E2.11309
G1 X119.853 Y77.186 E2.13160
G1 X116.099 Y73.432 E2.68999
G1 X116.001 Y73.295 E2.70770
G1 X115.966 Y73.211 E2.71726
G1 X115.938 Y73.032 E2.73634
G1 X115.966 Y72.852 E2.75541
G1 X116.001 Y72.768 E2.76497
G1 X116.099 Y72.632 E2.78269
G1 X120.360 Y68.371 E3.41637
G1 X120.603 Y68.371 F7800.000
G1 F1800.000 E2.41637
G92 E0
G1 X120.066 Y80.720 F7800.000
G1 F1800.000 E1.00000
G1 X120.258 Y80.767 F540.000 E1.02080
G1 X120.423 Y80.877 E1.04159
G1 X120.541 Y81.035 E1.06238
G1 X120.578 Y81.127 E1.07282
G1 X120.603 Y81.307 E1.09194
G1 X120.388 Y88.131 E1.81006
G1 X120.354 Y88.299 E1.82805
G1 X120.313 Y88.387 E1.83821
G1 X120.191 Y88.535 E1.85846
G1 X120.027 Y88.636 E1.87871
G1 X119.839 Y88.677 E1.89897
G1 X119.648 Y88.655 E1.91922
G1 X119.557 Y88.620 E1.92938
G1 X119.411 Y88.517 E1.94819
G1 X116.099 Y85.205 E2.44079
G1 X116.001 Y85.068 E2.45850
G1 X115.966 Y84.984 E2.46807
G1 X115.938 Y84.805 E2.48714
G1 X115.966 Y84.626 E2.50621
G1 X116.001 Y84.542 E2.51577
G1 X116.099 Y84.405 E2.53349
G1 X119.625 Y80.879 E3.05797
G1 X119.776 Y80.774 E3.07728
G1 X119.967 Y80.721 E3.09814
G1 X120.147 Y80.900 F7800.000
G1 X119.135 Y79.471
G1 X116.335 Y82.260 F540.000 E3.51380
G1 X116.160 Y82.345 E3.53423
G1 X116.065 Y82.364 E3.54448
G1 X115.871 Y82.353 E3.56490
G1 X115.691 Y82.278 E3.58533
G1 X115.546 Y82.149 E3.60577
G1 X115.452 Y81.979 E3.62618
G1 X115.421 Y81.801 E3.64516
G1 X115.421 Y76.035 E4.25158
G1 X115.452 Y75.858 E4.27055
G1 X115.492 Y75.769 E4.28080
G1 X115.613 Y75.617 E4.30122
G1 X115.778 Y75.514 E4.32165
G1 X115.967 Y75.470 E4.34208
G1 X116.160 Y75.492 E4.36250
G1 X116.335 Y75.577 E4.38293
G1 X119.288 Y78.519 E4.82140
G1 X119.394 Y78.673 E4.84107
G1 X119.429 Y78.768 E4.85170
G1 X119.446 Y78.969 E4.87288
G1 X119.394 Y79.163 E4.89406
G1 X119.344 Y79.251 E4.90469
G1 X119.204 Y79.401 E4.92623
G1 X118.499 Y79.305 F7800.000
G1 F1800.000 E3.92623
G92 E0
G1 X114.078 Y77.281 F7800.000
G1 F1800.000 E1.00000
G1 X114.071 Y81.885 F540.000 E1.48418
G1 X114.007 Y82.068 E1.50461
G1 X113.886 Y82.220 E1.52503
G1 X113.808 Y82.278 E1.53528
G1 X113.629 Y82.353 E1.55571
G1 X113.435 Y82.364 E1.57614
G1 X113.248 Y82.310 E1.59656
G1 X113.100 Y82.206 E1.61553
G1 X110.211 Y79.317 E2.04525
G1 X110.105 Y79.163 E2.06492
G1 X110.071 Y79.068 E2.07555
G1 X110.053 Y78.868 E2.09672
G1 X110.105 Y78.673 E2.11790
G1 X110.211 Y78.519 E2.13757
G1 X113.100 Y75.630 E2.56728
G1 X113.248 Y75.527 E2.58625
G1 X113.435 Y75.473 E2.60668
G1 X113.629 Y75.484 E2.62711
G1 X113.722 Y75.514 E2.63736
G1 X113.886 Y75.617 E2.65778
