; generated by Slic3r 0.9.10b on 2014-03-28 at 16:27:07

; layer_height = 0.4
; perimeters = 3
; top_solid_layers = 3
; bottom_solid_layers = 3
; fill_density = 0.4
; perimeter_speed = 30
; infill_speed = 60
; travel_speed = 130
; nozzle_diameter = 0.5
; filament_diameter = 3
; extrusion_multiplier = 1
; perimeters extrusion width = 0.53mm
; infill extrusion width = 0.53mm
; solid infill extrusion width = 0.53mm
; top infill extrusion width = 0.53mm
; first layer extrusion width = 0.70mm

G21 ; set units to millimeters
M107
M104 S200 ; set temperature
G28 ; home all axes
G1 Z5 F5000 ; lift nozzle

M109 S200 ; wait for temperature to be reached
G90 ; use absolute coordinates
G92 E0
M82 ; use absolute distances for extrusion
G1 F1800.000 E-1.00000
G92 E0
G1 Z0.350 F7800.000
G1 X82.614 Y83.193
G1 F1800.000 E1.00000
G1 X84.534 Y81.413 F540.000 E1.08518
G1 X85.314 Y80.793 E1.11760
G1 X87.484 Y79.313 E1.20306
G1 X88.364 Y78.813 E1.23599
G1 X90.724 Y77.683 E1.32112
G1 X91.594 Y77.333 E1.35163
G1 X94.144 Y76.543 E1.43849
G1 X95.104 Y76.333 E1.47046
G1 X97.694 Y75.943 E1.55567
G1 X98.684 Y75.863 E1.58799
G1 X101.304 Y75.863 E1.67323
G1 X102.294 Y75.943 E1.70555
G1 X104.884 Y76.333 E1.79076
G1 X105.854 Y76.553 E1.82312
G1 X108.354 Y77.323 E1.90823
G1 X109.264 Y77.683 E1.94007
G1 X111.624 Y78.813 E2.02520
G1 X112.504 Y79.313 E2.05813
G1 X114.674 Y80.793 E2.14359
G1 X115.454 Y81.413 E2.17601
G1 X117.374 Y83.193 E2.26119
G1 X118.054 Y83.933 E2.29389
G1 X119.684 Y85.983 E2.37910
G1 X120.244 Y86.793 E2.41114
G1 X121.554 Y89.063 E2.49641
G1 X121.974 Y89.953 E2.52843
G1 X122.934 Y92.393 E2.61374
G1 X123.234 Y93.353 E2.64646
G1 X123.814 Y95.903 E2.73154
G1 X123.964 Y96.873 E2.76348
G1 X124.164 Y99.483 E2.84864
G1 X124.164 Y100.503 E2.88183
G1 X123.964 Y103.113 E2.96700
G1 X123.814 Y104.073 E2.99861
G1 X123.234 Y106.633 E3.08401
G1 X122.944 Y107.593 E3.11664
G1 X121.974 Y110.043 E3.20237
G1 X121.544 Y110.943 E3.23482
G1 X120.234 Y113.203 E3.31981
G1 X119.684 Y114.003 E3.35140
G1 X118.054 Y116.053 E3.43661
G1 X117.374 Y116.793 E3.46931
G1 X115.454 Y118.573 E3.55449
G1 X114.674 Y119.193 E3.58691
G1 X112.504 Y120.673 E3.67236
G1 X111.654 Y121.163 E3.70429
G1 X109.294 Y122.303 E3.78956
G1 X108.354 Y122.673 E3.82242
G1 X105.854 Y123.443 E3.90753
G1 X104.884 Y123.663 E3.93989
G1 X102.294 Y124.053 E4.02511
G1 X101.304 Y124.133 E4.05742
G1 X98.684 Y124.133 E4.14267
G1 X97.694 Y124.053 E4.17498
G1 X95.104 Y123.663 E4.26020
G1 X94.094 Y123.433 E4.29390
G1 X91.644 Y122.683 E4.37726
G1 X90.694 Y122.303 E4.41055
G1 X88.334 Y121.163 E4.49582
G1 X87.484 Y120.673 E4.52774
G1 X85.314 Y119.193 E4.61320
G1 X84.534 Y118.573 E4.64562
G1 X82.614 Y116.793 E4.73080
G1 X81.934 Y116.053 E4.76350
G1 X80.304 Y114.003 E4.84871
G1 X79.754 Y113.203 E4.88030
G1 X78.444 Y110.943 E4.96529
G1 X78.004 Y110.033 E4.99817
G1 X77.054 Y107.603 E5.08306
G1 X76.754 Y106.633 E5.11610
G1 X76.174 Y104.073 E5.20150
G1 X76.024 Y103.083 E5.23407
G1 X75.834 Y100.473 E5.31922
G1 X75.834 Y99.513 E5.35045
G1 X76.024 Y96.903 E5.43559
G1 X76.174 Y95.903 E5.46849
G1 X76.754 Y93.353 E5.55357
G1 X77.054 Y92.393 E5.58630
G1 X78.014 Y89.953 E5.67161
G1 X78.434 Y89.063 E5.70363
G1 X79.744 Y86.793 E5.78890
G1 X80.334 Y85.933 E5.82283
G1 X81.924 Y83.943 E5.90570
G1 X82.547 Y83.266 E5.93565
G1 F1800.000 E4.93565
G92 E0
G1 X88.424 Y91.016 F7800.000
G1 F1800.000 E1.00000
G1 X88.659 Y90.859 F540.000 E1.00919
G1 X88.923 Y90.759 E1.01837
G1 X89.202 Y90.721 E1.02756
G1 X89.484 Y90.747 E1.03675
G1 X89.752 Y90.836 E1.04593
G1 X89.945 Y90.953 E1.05329
G1 X93.071 Y93.378 E1.18201
G1 X93.378 Y93.071 E1.19614
G1 X90.953 Y89.945 E1.32486
G1 X90.836 Y89.752 E1.33221
G1 X90.747 Y89.484 E1.34140
G1 X90.721 Y89.202 E1.35059
G1 X90.759 Y88.923 E1.35977
G1 X90.859 Y88.659 E1.36896
G1 X91.016 Y88.424 E1.37815
G1 X91.211 Y88.241 E1.38683
G1 X93.281 Y86.948 E1.46625
G1 X95.522 Y86.020 E1.54516
G1 X97.900 Y85.470 E1.62458
G1 X98.167 Y85.462 E1.63326
G1 X98.444 Y85.517 E1.64245
G1 X98.701 Y85.633 E1.65164
G1 X98.926 Y85.804 E1.66082
G1 X99.107 Y86.021 E1.67001
G1 X99.234 Y86.273 E1.67920
G1 X99.287 Y86.493 E1.68655
G1 X99.783 Y90.418 E1.81528
G1 X100.217 Y90.418 E1.82940
G1 X100.713 Y86.493 E1.95812
G1 X100.766 Y86.273 E1.96548
G1 X100.893 Y86.021 E1.97466
G1 X101.074 Y85.804 E1.98385
G1 X101.299 Y85.633 E1.99304
G1 X101.556 Y85.517 E2.00222
G1 X101.833 Y85.462 E2.01141
G1 X102.100 Y85.470 E2.02010
G1 X104.478 Y86.020 E2.09951
G1 X106.719 Y86.948 E2.17843
G1 X108.789 Y88.241 E2.25784
G1 X108.984 Y88.424 E2.26653
G1 X109.141 Y88.659 E2.27571
G1 X109.241 Y88.923 E2.28490
G1 X109.279 Y89.202 E2.29409
G1 X109.253 Y89.484 E2.30327
G1 X109.164 Y89.752 E2.31246
G1 X109.047 Y89.945 E2.31981
G1 X106.622 Y93.071 E2.44854
G1 X106.929 Y93.378 E2.46266
G1 X110.055 Y90.953 E2.59139
G1 X110.248 Y90.836 E2.59874
G1 X110.516 Y90.747 E2.60793
G1 X110.798 Y90.721 E2.61711
G1 X111.077 Y90.759 E2.62630
G1 X111.341 Y90.859 E2.63549
G1 X111.576 Y91.016 E2.64467
G1 X111.759 Y91.211 E2.65336
G1 X113.052 Y93.281 E2.73277
G1 X113.980 Y95.522 E2.81169
G1 X114.530 Y97.900 E2.89110
G1 X114.538 Y98.167 E2.89979
G1 X114.483 Y98.444 E2.90898
G1 X114.367 Y98.701 E2.91816
G1 X114.196 Y98.926 E2.92735
G1 X113.979 Y99.107 E2.93654
G1 X113.727 Y99.234 E2.94572
G1 X113.507 Y99.287 E2.95307
G1 X109.582 Y99.783 E3.08180
G1 X109.582 Y100.217 E3.09592
G1 X113.507 Y100.713 E3.22465
G1 X113.727 Y100.766 E3.23200
G1 X113.979 Y100.893 E3.24119
G1 X114.196 Y101.074 E3.25037
G1 X114.367 Y101.299 E3.25956
G1 X114.483 Y101.556 E3.26875
G1 X114.538 Y101.833 E3.27794
G1 X114.530 Y102.100 E3.28662
G1 X113.980 Y104.478 E3.36604
G1 X113.052 Y106.719 E3.44495
G1 X111.759 Y108.789 E3.52437
G1 X111.576 Y108.984 E3.53305
G1 X111.341 Y109.141 E3.54224
G1 X111.077 Y109.241 E3.55143
G1 X110.798 Y109.279 E3.56061
G1 X110.516 Y109.253 E3.56980
G1 X110.248 Y109.164 E3.57899
G1 X110.055 Y109.047 E3.58634
G1 X106.929 Y106.622 E3.71506
G1 X106.622 Y106.929 E3.72919
G1 X109.047 Y110.055 E3.85791
G1 X109.164 Y110.248 E3.86527
G1 X109.253 Y110.516 E3.87445
G1 X109.279 Y110.798 E3.88364
G1 X109.241 Y111.077 E3.89282
G1 X109.141 Y111.341 E3.90201
G1 X108.984 Y111.576 E3.91120
G1 X108.789 Y111.759 E3.91988
G1 X106.719 Y113.052 E3.99930
G1 X104.478 Y113.980 E4.07821
G1 X102.100 Y114.530 E4.15763
G1 X101.833 Y114.538 E4.16631
G1 X101.556 Y114.483 E4.17550
G1 X101.299 Y114.367 E4.18469
G1 X101.074 Y114.196 E4.19388
G1 X100.893 Y113.979 E4.20306
G1 X100.766 Y113.727 E4.21225
G1 X100.713 Y113.507 E4.21960
G1 X100.217 Y109.582 E4.34833
G1 X99.783 Y109.582 E4.36245
G1 X99.287 Y113.507 E4.49118
G1 X99.234 Y113.727 E4.49853
G1 X99.107 Y113.979 E4.50771
G1 X98.926 Y114.196 E4.51690
G1 X98.701 Y114.367 E4.52609
G1 X98.444 Y114.483 E4.53528
G1 X98.167 Y114.538 E4.54446
G1 X97.900 Y114.530 E4.55315
G1 X95.522 Y113.980 E4.63256
G1 X93.281 Y113.052 E4.71148
G1 X91.211 Y111.759 E4.79089
G1 X91.016 Y111.576 E4.79958
G1 X90.859 Y111.341 E4.80876
G1 X90.759 Y111.077 E4.81795
G1 X90.721 Y110.798 E4.82714
G1 X90.747 Y110.516 E4.83633
G1 X90.836 Y110.248 E4.84551
G1 X90.953 Y110.055 E4.85286
G1 X93.378 Y106.929 E4.98159
G1 X93.071 Y106.622 E4.99571
G1 X89.945 Y109.047 E5.12444
G1 X89.752 Y109.164 E5.13179
G1 X89.483 Y109.253 E5.14098
G1 X89.202 Y109.279 E5.15017
G1 X88.923 Y109.241 E5.15935
G1 X88.659 Y109.141 E5.16854
G1 X88.424 Y108.984 E5.17772
G1 X88.241 Y108.789 E5.18641
G1 X86.948 Y106.719 E5.26583
G1 X86.020 Y104.478 E5.34474
G1 X85.470 Y102.100 E5.42415
G1 X85.462 Y101.833 E5.43284
G1 X85.517 Y101.556 E5.44203
G1 X85.633 Y101.299 E5.45122
G1 X85.804 Y101.074 E5.46040
G1 X86.021 Y100.893 E5.46959
G1 X86.273 Y100.766 E5.47877
G1 X86.493 Y100.713 E5.48613
G1 X90.418 Y100.217 E5.61485
G1 X90.418 Y99.783 E5.62898
G1 X86.493 Y99.287 E5.75770
G1 X86.273 Y99.234 E5.76505
G1 X86.021 Y99.107 E5.77424
G1 X85.804 Y98.926 E5.78343
G1 X85.633 Y98.701 E5.79261
G1 X85.517 Y98.444 E5.80180
G1 X85.462 Y98.167 E5.81099
G1 X85.470 Y97.900 E5.81967
G1 X86.020 Y95.522 E5.89909
G1 X86.948 Y93.281 E5.97800
G1 X88.241 Y91.211 E6.05742
G1 X88.356 Y91.088 E6.06290
G1 F1800.000 E5.06290
G92 E0
G1 X104.691 Y96.037 F7800.000
G1 F1800.000 E1.00000
G1 X104.766 Y95.908 F540.000 E1.00485
G1 X104.856 Y95.818 E1.00900
G1 X110.428 Y91.495 E1.23846
G1 X110.526 Y91.436 E1.24216
G1 X110.651 Y91.394 E1.24647
G1 X110.783 Y91.382 E1.25079
G1 X110.915 Y91.400 E1.25510
G1 X111.039 Y91.447 E1.25941
G1 X111.149 Y91.521 E1.26372
G1 X111.236 Y91.613 E1.26786
G1 X112.465 Y93.583 E1.34340
G1 X113.352 Y95.723 E1.41877
G1 X113.875 Y97.985 E1.49431
G1 X113.879 Y98.112 E1.49845
G1 X113.853 Y98.242 E1.50276
G1 X113.799 Y98.363 E1.50707
G1 X113.719 Y98.469 E1.51138
G1 X113.617 Y98.553 E1.51569
G1 X113.498 Y98.613 E1.52000
G1 X113.388 Y98.640 E1.52370
G1 X106.391 Y99.524 E1.75316
G1 X106.263 Y99.524 E1.75732
G1 X106.119 Y99.486 E1.76217
G1 X105.989 Y99.413 E1.76701
G1 X105.882 Y99.309 E1.77186
G1 X105.804 Y99.182 E1.77671
G1 X105.552 Y98.179 E1.81035
G1 X105.213 Y97.362 E1.83915
G1 X104.683 Y96.474 E1.87279
G1 X104.648 Y96.329 E1.87763
G1 X104.664 Y96.132 E1.88408
G1 X104.838 Y96.019 F7800.000
G1 X104.092 Y95.234
G1 X103.963 Y95.309 F540.000 E1.88893
G1 X103.820 Y95.350 E1.89377
G1 X103.671 Y95.352 E1.89862
G1 X103.526 Y95.317 E1.90346
G1 X102.638 Y94.787 E1.93710
G1 X101.821 Y94.448 E1.96591
G1 X100.818 Y94.196 E1.99955
G1 X100.691 Y94.118 E2.00439
G1 X100.587 Y94.011 E2.00924
G1 X100.514 Y93.881 E2.01408
G1 X100.476 Y93.737 E2.01893
G1 X100.476 Y93.609 E2.02309
G1 X101.360 Y86.612 E2.25255
G1 X101.387 Y86.502 E2.25625
G1 X101.447 Y86.383 E2.26056
G1 X101.531 Y86.281 E2.26487
G1 X101.637 Y86.201 E2.26918
G1 X101.758 Y86.147 E2.27349
G1 X101.888 Y86.121 E2.27780
G1 X102.015 Y86.125 E2.28195
G1 X104.277 Y86.648 E2.35748
G1 X106.417 Y87.535 E2.43285
G1 X108.386 Y88.764 E2.50839
G1 X108.479 Y88.851 E2.51254
G1 X108.553 Y88.961 E2.51685
G1 X108.600 Y89.085 E2.52116
G1 X108.618 Y89.217 E2.52547
G1 X108.606 Y89.349 E2.52978
G1 X108.564 Y89.474 E2.53409
G1 X108.505 Y89.572 E2.53779
G1 X104.162 Y95.165 E2.76819
G1 X103.954 Y95.177 F7800.000
G1 X99.486 Y93.881
G1 X99.413 Y94.011 F540.000 E2.77304
G1 X99.309 Y94.118 E2.77788
G1 X99.182 Y94.196 E2.78273
G1 X98.179 Y94.448 E2.81637
G1 X97.362 Y94.787 E2.84517
G1 X96.474 Y95.317 E2.87881
G1 X96.329 Y95.352 E2.88366
G1 X96.180 Y95.350 E2.88850
G1 X96.037 Y95.309 E2.89335
G1 X95.908 Y95.234 E2.89820
G1 X95.818 Y95.144 E2.90235
G1 X91.495 Y89.572 E3.13181
G1 X91.436 Y89.474 E3.13551
G1 X91.394 Y89.349 E3.13982
G1 X91.382 Y89.217 E3.14414
G1 X91.400 Y89.085 E3.14845
G1 X91.447 Y88.961 E3.15276
G1 X91.521 Y88.851 E3.15707
G1 X91.613 Y88.764 E3.16121
G1 X93.583 Y87.535 E3.23675
G1 X95.723 Y86.648 E3.31212
G1 X97.985 Y86.125 E3.38766
G1 X98.112 Y86.121 E3.39180
G1 X98.242 Y86.147 E3.39611
G1 X98.363 Y86.201 E3.40042
G1 X98.469 Y86.281 E3.40473
G1 X98.553 Y86.383 E3.40904
G1 X98.613 Y86.502 E3.41335
G1 X98.640 Y86.612 E3.41705
G1 X99.524 Y93.609 E3.64651
G1 X99.511 Y93.786 E3.65227
G1 X99.338 Y93.901 F7800.000
G1 X95.309 Y96.037
G1 X95.350 Y96.180 F540.000 E3.65712
G1 X95.352 Y96.329 E3.66197
G1 X95.317 Y96.474 E3.66681
G1 X94.787 Y97.362 E3.70045
G1 X94.448 Y98.179 E3.72925
G1 X94.196 Y99.182 E3.76289
G1 X94.118 Y99.309 E3.76774
G1 X94.011 Y99.413 E3.77259
G1 X93.881 Y99.486 E3.77743
G1 X93.737 Y99.524 E3.78228
G1 X93.609 Y99.524 E3.78644
G1 X86.612 Y98.640 E4.01590
G1 X86.502 Y98.613 E4.01960
G1 X86.383 Y98.553 E4.02391
G1 X86.281 Y98.469 E4.02822
G1 X86.201 Y98.363 E4.03253
G1 X86.147 Y98.242 E4.03684
G1 X86.121 Y98.112 E4.04115
G1 X86.125 Y97.985 E4.04529
G1 X86.648 Y95.723 E4.12083
G1 X87.535 Y93.583 E4.19620
G1 X88.764 Y91.614 E4.27174
G1 X88.851 Y91.521 E4.27588
G1 X88.961 Y91.447 E4.28019
G1 X89.085 Y91.400 E4.28450
G1 X89.217 Y91.382 E4.28881
G1 X89.349 Y91.394 E4.29312
G1 X89.474 Y91.436 E4.29744
G1 X89.572 Y91.495 E4.30113
G1 X95.144 Y95.818 E4.53060
G1 X95.260 Y95.952 E4.53635
G1 X95.219 Y96.155 F7800.000
G1 X96.180 Y104.650
G1 X96.329 Y104.648 F540.000 E4.54120
G1 X96.474 Y104.683 E4.54605
G1 X97.362 Y105.213 E4.57969
G1 X98.179 Y105.552 E4.60849
G1 X99.182 Y105.804 E4.64213
G1 X99.309 Y105.882 E4.64697
G1 X99.413 Y105.989 E4.65182
G1 X99.486 Y106.119 E4.65667
G1 X99.524 Y106.263 E4.66151
G1 X99.524 Y106.391 E4.66567
G1 X98.640 Y113.388 E4.89513
G1 X98.613 Y113.498 E4.89883
G1 X98.553 Y113.617 E4.90314
G1 X98.469 Y113.719 E4.90745
G1 X98.363 Y113.799 E4.91176
G1 X98.242 Y113.853 E4.91607
G1 X98.112 Y113.879 E4.92038
G1 X97.985 Y113.875 E4.92453
G1 X95.723 Y113.352 E5.00006
G1 X93.583 Y112.465 E5.07544
G1 X91.613 Y111.236 E5.15097
G1 X91.521 Y111.149 E5.15512
G1 X91.447 Y111.039 E5.15943
G1 X91.400 Y110.915 E5.16374
G1 X91.382 Y110.783 E5.16805
G1 X91.394 Y110.651 E5.17236
G1 X91.436 Y110.526 E5.17667
G1 X91.495 Y110.428 E5.18037
G1 X95.818 Y104.856 E5.40983
G1 X95.908 Y104.766 E5.41399
G1 X96.085 Y104.677 E5.42043
G1 X96.273 Y104.767 F7800.000
G1 X95.234 Y104.092
G1 X95.144 Y104.182 F540.000 E5.42459
G1 X89.572 Y108.505 E5.65405
G1 X89.474 Y108.564 E5.65775
G1 X89.349 Y108.606 E5.66206
G1 X89.217 Y108.618 E5.66637
G1 X89.085 Y108.600 E5.67068
G1 X88.961 Y108.553 E5.67499
G1 X88.851 Y108.479 E5.67930
G1 X88.764 Y108.386 E5.68345
G1 X87.535 Y106.417 E5.75899
G1 X86.648 Y104.277 E5.83436
G1 X86.125 Y102.015 E5.90989
G1 X86.121 Y101.888 E5.91404
G1 X86.147 Y101.758 E5.91835
G1 X86.201 Y101.637 E5.92266
G1 X86.281 Y101.531 E5.92697
G1 X86.383 Y101.447 E5.93128
G1 X86.502 Y101.387 E5.93559
G1 X86.612 Y101.360 E5.93929
G1 X93.609 Y100.476 E6.16875
G1 X93.737 Y100.476 E6.17291
G1 X93.881 Y100.514 E6.17776
G1 X94.011 Y100.587 E6.18260
G1 X94.118 Y100.691 E6.18745
G1 X94.196 Y100.818 E6.19229
G1 X94.448 Y101.821 E6.22593
G1 X94.787 Y102.638 E6.25474
G1 X95.317 Y103.526 E6.28838
G1 X95.352 Y103.671 E6.29322
G1 X95.350 Y103.820 E6.29807
G1 X95.284 Y104.007 E6.30451
G1 X95.108 Y104.075 F7800.000
G1 X96.799 Y103.201
G1 X96.079 Y102.264 F540.000 E6.34297
G1 X95.627 Y101.172 E6.38142
G1 X95.473 Y100.000 E6.41987
G1 X95.627 Y98.828 E6.45832
G1 X96.079 Y97.736 E6.49678
G1 X96.799 Y96.799 E6.53524
G1 X97.736 Y96.079 E6.57369
G1 X98.828 Y95.627 E6.61214
G1 X100.000 Y95.473 E6.65059
G1 X101.172 Y95.627 E6.68905
G1 X102.132 Y96.024 E6.72285
G1 X102.264 Y96.079 E6.72750
G1 X103.201 Y96.799 E6.76596
G1 X103.917 Y97.731 E6.80421
G1 X104.373 Y98.827 E6.84283
G1 X104.519 Y100.000 E6.88128
G1 X104.373 Y101.173 E6.91973
G1 X103.917 Y102.269 E6.95835
G1 X103.201 Y103.201 E6.99660
G1 X102.264 Y103.921 E7.03505
G1 X101.172 Y104.373 E7.07351
G1 X100.000 Y104.527 E7.11196
G1 X98.828 Y104.373 E7.15042
G1 X97.736 Y103.921 E7.18887
G1 X96.877 Y103.261 E7.22412
G1 X97.267 Y102.733 F7800.000
G1 X96.653 Y101.932 F540.000 E7.25694
G1 X96.267 Y101.000 E7.28976
G1 X96.135 Y100.000 E7.32259
G1 X96.267 Y99.000 E7.35541
G1 X96.653 Y98.068 E7.38824
G1 X97.267 Y97.267 E7.42106
G1 X98.068 Y96.653 E7.45389
G1 X99.000 Y96.267 E7.48671
G1 X100.000 Y96.135 E7.51954
G1 X101.000 Y96.267 E7.55236
G1 X101.880 Y96.631 E7.58335
G1 X101.932 Y96.653 E7.58519
G1 X102.733 Y97.267 E7.61801
G1 X103.346 Y98.066 E7.65077
G1 X103.730 Y98.992 E7.68339
G1 X103.862 Y100.000 E7.71647
G1 X103.730 Y101.008 E7.74954
G1 X103.346 Y101.934 E7.78216
G1 X102.733 Y102.733 E7.81492
G1 X101.932 Y103.347 E7.84774
G1 X101.000 Y103.733 E7.88057
G1 X100.000 Y103.865 E7.91339
G1 X99.000 Y103.733 E7.94622
G1 X98.068 Y103.347 E7.97904
G1 X97.345 Y102.793 E8.00866
G1 X97.465 Y102.106 F7800.000
G1 F1800.000 E7.00866
G92 E0
G1 X104.648 Y103.671 F7800.000
G1 F1800.000 E1.00000
G1 X104.683 Y103.526 F540.000 E1.00485
G1 X104.737 Y103.424 E1.00860
G1 X105.213 Y102.638 E1.03849
G1 X105.552 Y101.821 E1.06729
G1 X105.804 Y100.818 E1.10093
G1 X105.882 Y100.691 E1.10578
G1 X105.989 Y100.587 E1.11062
G1 X106.119 Y100.514 E1.11547
G1 X106.263 Y100.476 E1.12032
G1 X106.391 Y100.476 E1.12447
G1 X113.388 Y101.360 E1.35394
G1 X113.498 Y101.387 E1.35763
G1 X113.617 Y101.447 E1.36195
G1 X113.719 Y101.531 E1.36626
G1 X113.799 Y101.637 E1.37057
G1 X113.853 Y101.758 E1.37488
G1 X113.879 Y101.888 E1.37919
G1 X113.875 Y102.015 E1.38333
G1 X113.352 Y104.277 E1.45887
G1 X112.465 Y106.417 E1.53424
