; generated by Slic3r 0.9.10b on 2014-03-12 at 12:24:13

; layer_height = 0.4
; perimeters = 2
; top_solid_layers = 3
; bottom_solid_layers = 3
; fill_density = 0.3
; perimeter_speed = 30
; infill_speed = 60
; travel_speed = 130
; nozzle_diameter = 0.4
; filament_diameter = 1.75
; extrusion_multiplier = 1.07
; perimeters extrusion width = 0.42mm
; infill extrusion width = 0.42mm
; solid infill extrusion width = 0.42mm
; top infill extrusion width = 0.42mm
; first layer extrusion width = 0.70mm

G21 ; set units to millimeters
M107 ; disable fan
M190 S60 ; wait for bed temperature to be reached
M104 S175 ; set temperature
G28 ; home all axes
G1 Z5 F5000 ; lift nozzle
M109 S175 ; wait for temperature to be reached
G90 ; use absolute coordinates
G92 E0 ; reset extrusion distance
M82 ; use absolute distances for extrusion
G1 F1800.000 E-1.00000 ; retract
G92 E0 ; reset extrusion distance
G1 Z-0.150 F7800.000 ; move to next layer (0)
G1 X67.480 Y53.130 ; move to first skirt point
G1 F1800.000 E1.00000 ; compensate retraction
G1 X68.150 Y52.270 F540.000 E1.10789 ; skirt
G1 X69.030 Y51.270 E1.23972 ; skirt
G1 X69.810 Y50.490 E1.34889 ; skirt
G1 X70.780 Y49.640 E1.47652 ; skirt
G1 X71.630 Y48.980 E1.58303 ; skirt
G1 X72.710 Y48.250 E1.71203 ; skirt
G1 X73.770 Y47.640 E1.83307 ; skirt
G1 X74.950 Y47.070 E1.96276 ; skirt
G1 X75.930 Y46.670 E2.06751 ; skirt
G1 X77.170 Y46.250 E2.19708 ; skirt
G1 X78.210 Y45.970 E2.30367 ; skirt
G1 X79.490 Y45.710 E2.43293 ; skirt
G1 X80.670 Y45.550 E2.55078 ; skirt
G1 X81.970 Y45.470 E2.67967 ; skirt
G1 X82.490 Y45.460 E2.73115 ; skirt
G1 X117.490 Y45.460 E6.19493 ; skirt
G1 X118.010 Y45.470 E6.24640 ; skirt
G1 X119.320 Y45.550 E6.37629 ; skirt
G1 X120.500 Y45.710 E6.49414 ; skirt
G1 X121.780 Y45.970 E6.62340 ; skirt
G1 X122.820 Y46.250 E6.72999 ; skirt
G1 X124.060 Y46.670 E6.85955 ; skirt
G1 X125.060 Y47.080 E6.96651 ; skirt
G1 X126.230 Y47.650 E7.09531 ; skirt
G1 X127.240 Y48.230 E7.21058 ; skirt
G1 X128.330 Y48.960 E7.34041 ; skirt
G1 X129.180 Y49.610 E7.44630 ; skirt
G1 X130.170 Y50.470 E7.57608 ; skirt
G1 X131.020 Y51.320 E7.69505 ; skirt
G1 X131.880 Y52.310 E7.82483 ; skirt
G1 X132.510 Y53.130 E7.92717 ; skirt
G1 X133.240 Y54.210 E8.05618 ; skirt
G1 X133.850 Y55.270 E8.17721 ; skirt
G1 X134.420 Y56.450 E8.30690 ; skirt
G1 X134.820 Y57.430 E8.41165 ; skirt
G1 X135.240 Y58.670 E8.54122 ; skirt
G1 X135.520 Y59.710 E8.64781 ; skirt
G1 X135.780 Y60.990 E8.77707 ; skirt
G1 X135.930 Y62.100 E8.88792 ; skirt
G1 X136.020 Y63.410 E9.01787 ; skirt
G1 X136.040 Y64.000 E9.07629 ; skirt
G1 X136.040 Y135.990 E16.20081 ; skirt
G1 X136.020 Y136.580 E16.25923 ; skirt
G1 X135.930 Y137.890 E16.38918 ; skirt
G1 X135.780 Y139.000 E16.50003 ; skirt
G1 X135.520 Y140.280 E16.62929 ; skirt
G1 X135.240 Y141.320 E16.73588 ; skirt
G1 X134.820 Y142.560 E16.86545 ; skirt
G1 X134.410 Y143.560 E16.97241 ; skirt
G1 X133.840 Y144.730 E17.10121 ; skirt
G1 X133.260 Y145.740 E17.21647 ; skirt
G1 X132.530 Y146.830 E17.34630 ; skirt
G1 X131.880 Y147.680 E17.45220 ; skirt
G1 X131.020 Y148.670 E17.58198 ; skirt
G1 X130.170 Y149.520 E17.70094 ; skirt
G1 X129.180 Y150.380 E17.83072 ; skirt
G1 X128.360 Y151.010 E17.93306 ; skirt
G1 X127.280 Y151.740 E18.06207 ; skirt
G1 X126.240 Y152.340 E18.18089 ; skirt
G1 X125.050 Y152.920 E18.31190 ; skirt
G1 X124.010 Y153.340 E18.42290 ; skirt
G1 X122.780 Y153.750 E18.55122 ; skirt
G1 X121.780 Y154.020 E18.65372 ; skirt
G1 X120.500 Y154.280 E18.78299 ; skirt
G1 X119.390 Y154.430 E18.89384 ; skirt
G1 X118.080 Y154.520 E19.02379 ; skirt
G1 X117.490 Y154.540 E19.08221 ; skirt
G1 X82.500 Y154.540 E22.54501 ; skirt
G1 X81.910 Y154.520 E22.60343 ; skirt
G1 X80.600 Y154.430 E22.73338 ; skirt
G1 X79.490 Y154.280 E22.84423 ; skirt
G1 X78.210 Y154.020 E22.97349 ; skirt
G1 X77.170 Y153.740 E23.08008 ; skirt
G1 X75.930 Y153.320 E23.20965 ; skirt
G1 X74.950 Y152.920 E23.31440 ; skirt
G1 X73.770 Y152.350 E23.44409 ; skirt
G1 X72.710 Y151.740 E23.56512 ; skirt
G1 X71.630 Y151.010 E23.69413 ; skirt
G1 X70.810 Y150.380 E23.79647 ; skirt
G1 X69.820 Y149.520 E23.92625 ; skirt
G1 X68.970 Y148.670 E24.04521 ; skirt
G1 X68.110 Y147.680 E24.17499 ; skirt
G1 X67.460 Y146.830 E24.28089 ; skirt
G1 X66.730 Y145.740 E24.41072 ; skirt
G1 X66.150 Y144.730 E24.52599 ; skirt
G1 X65.580 Y143.560 E24.65478 ; skirt
G1 X65.170 Y142.560 E24.76175 ; skirt
G1 X64.750 Y141.320 E24.89131 ; skirt
G1 X64.470 Y140.310 E24.99504 ; skirt
G1 X64.210 Y139.050 E25.12236 ; skirt
G1 X64.050 Y137.830 E25.24413 ; skirt
G1 X63.970 Y136.500 E25.37599 ; skirt
G1 X63.960 Y63.990 E32.55197 ; skirt
G1 X63.970 Y63.470 E32.60344 ; skirt
G1 X64.050 Y62.170 E32.73234 ; skirt
G1 X64.210 Y60.990 E32.85018 ; skirt
G1 X64.470 Y59.710 E32.97945 ; skirt
G1 X64.740 Y58.710 E33.08196 ; skirt
G1 X65.150 Y57.480 E33.21027 ; skirt
G1 X65.570 Y56.440 E33.32127 ; skirt
G1 X66.150 Y55.250 E33.45228 ; skirt
G1 X66.750 Y54.210 E33.57111 ; skirt
G1 X67.427 Y53.209 E33.69068 ; skirt
G1 X68.010 Y53.480 F7800.000 ; move to first skirt point
G1 X68.620 Y52.690 F540.000 E33.78946 ; skirt
G1 X69.500 Y51.690 E33.92128 ; skirt
G1 X70.230 Y50.960 E34.02345 ; skirt
G1 X71.200 Y50.110 E34.15109 ; skirt
G1 X71.980 Y49.510 E34.24848 ; skirt
G1 X73.060 Y48.780 E34.37749 ; skirt
G1 X74.050 Y48.210 E34.49054 ; skirt
G1 X75.230 Y47.640 E34.62023 ; skirt
G1 X76.130 Y47.270 E34.71654 ; skirt
G1 X77.370 Y46.850 E34.84610 ; skirt
G1 X78.340 Y46.590 E34.94549 ; skirt
G1 X79.620 Y46.330 E35.07475 ; skirt
G1 X80.700 Y46.190 E35.18252 ; skirt
G1 X82.490 Y46.090 E35.35995 ; skirt
G1 X117.490 Y46.090 E38.82374 ; skirt
G1 X119.280 Y46.190 E39.00116 ; skirt
G1 X120.370 Y46.330 E39.10992 ; skirt
G1 X121.650 Y46.590 E39.23918 ; skirt
G1 X122.620 Y46.850 E39.33857 ; skirt
G1 X123.860 Y47.270 E39.46813 ; skirt
G1 X124.780 Y47.650 E39.56664 ; skirt
G1 X125.950 Y48.220 E39.69544 ; skirt
G1 X126.890 Y48.760 E39.80272 ; skirt
G1 X127.980 Y49.490 E39.93255 ; skirt
G1 X128.770 Y50.090 E40.03073 ; skirt
G1 X129.760 Y50.950 E40.16051 ; skirt
G1 X130.540 Y51.730 E40.26968 ; skirt
G1 X131.400 Y52.720 E40.39946 ; skirt
G1 X131.980 Y53.480 E40.49407 ; skirt
G1 X132.710 Y54.560 E40.62308 ; skirt
G1 X133.280 Y55.550 E40.73613 ; skirt
G1 X133.850 Y56.730 E40.86582 ; skirt
G1 X134.220 Y57.630 E40.96213 ; skirt
G1 X134.640 Y58.870 E41.09169 ; skirt
G1 X134.900 Y59.840 E41.19108 ; skirt
G1 X135.160 Y61.120 E41.32034 ; skirt
G1 X135.300 Y62.150 E41.42321 ; skirt
G1 X135.410 Y64.000 E41.60662 ; skirt
G1 X135.410 Y135.990 E48.73113 ; skirt
G1 X135.390 Y136.530 E48.78461 ; skirt
G1 X135.300 Y137.840 E48.91456 ; skirt
G1 X135.160 Y138.870 E49.01743 ; skirt
G1 X134.900 Y140.150 E49.14670 ; skirt
G1 X134.640 Y141.120 E49.24608 ; skirt
G1 X134.220 Y142.360 E49.37565 ; skirt
G1 X133.840 Y143.280 E49.47415 ; skirt
G1 X133.270 Y144.450 E49.60295 ; skirt
G1 X132.730 Y145.390 E49.71024 ; skirt
G1 X132.000 Y146.480 E49.84007 ; skirt
G1 X131.400 Y147.270 E49.93824 ; skirt
G1 X130.540 Y148.260 E50.06802 ; skirt
G1 X129.760 Y149.040 E50.17719 ; skirt
G1 X128.770 Y149.900 E50.30697 ; skirt
G1 X128.010 Y150.480 E50.40159 ; skirt
G1 X126.930 Y151.210 E50.53059 ; skirt
G1 X125.960 Y151.770 E50.64144 ; skirt
G1 X124.770 Y152.350 E50.77245 ; skirt
G1 X123.810 Y152.740 E50.87500 ; skirt
G1 X122.580 Y153.150 E51.00331 ; skirt
G1 X121.650 Y153.400 E51.09862 ; skirt
G1 X120.370 Y153.660 E51.22788 ; skirt
G1 X119.340 Y153.800 E51.33075 ; skirt
G1 X118.030 Y153.890 E51.46070 ; skirt
G1 X117.490 Y153.910 E51.51418 ; skirt
G1 X82.500 Y153.910 E54.97698 ; skirt
G1 X80.650 Y153.800 E55.16038 ; skirt
G1 X79.620 Y153.660 E55.26326 ; skirt
G1 X78.340 Y153.400 E55.39252 ; skirt
G1 X77.370 Y153.140 E55.49190 ; skirt
G1 X76.130 Y152.720 E55.62147 ; skirt
G1 X75.230 Y152.350 E55.71777 ; skirt
G1 X74.050 Y151.780 E55.84746 ; skirt
G1 X73.060 Y151.210 E55.96052 ; skirt
G1 X71.980 Y150.480 E56.08952 ; skirt
G1 X71.220 Y149.900 E56.18414 ; skirt
G1 X70.230 Y149.040 E56.31392 ; skirt
G1 X69.450 Y148.260 E56.42309 ; skirt
G1 X68.590 Y147.270 E56.55287 ; skirt
G1 X67.990 Y146.480 E56.65104 ; skirt
G1 X67.260 Y145.390 E56.78087 ; skirt
G1 X66.720 Y144.450 E56.88816 ; skirt
G1 X66.150 Y143.280 E57.01696 ; skirt
G1 X65.770 Y142.360 E57.11546 ; skirt
G1 X65.350 Y141.120 E57.24503 ; skirt
G1 X65.100 Y140.180 E57.34129 ; skirt
G1 X64.840 Y138.920 E57.46861 ; skirt
G1 X64.690 Y137.790 E57.58143 ; skirt
G1 X64.590 Y135.990 E57.75984 ; skirt
G1 X64.590 Y63.990 E64.88534 ; skirt
G1 X64.690 Y62.200 E65.06277 ; skirt
G1 X64.830 Y61.120 E65.17054 ; skirt
G1 X65.090 Y59.840 E65.29981 ; skirt
G1 X65.340 Y58.910 E65.39511 ; skirt
G1 X65.750 Y57.680 E65.52342 ; skirt
G1 X66.140 Y56.720 E65.62597 ; skirt
G1 X66.720 Y55.530 E65.75698 ; skirt
G1 X67.280 Y54.560 E65.86783 ; skirt
G1 X67.957 Y53.559 E65.98740 ; skirt
G1 X68.540 Y53.840 F7800.000 ; move to first skirt point
G1 X69.100 Y53.110 F540.000 E66.07845 ; skirt
G1 X69.980 Y52.110 E66.21028 ; skirt
G1 X70.650 Y51.440 E66.30405 ; skirt
G1 X71.620 Y50.590 E66.43169 ; skirt
G1 X72.340 Y50.040 E66.52136 ; skirt
G1 X73.420 Y49.310 E66.65037 ; skirt
G1 X74.330 Y48.780 E66.75459 ; skirt
G1 X75.510 Y48.210 E66.88428 ; skirt
G1 X76.340 Y47.870 E66.97304 ; skirt
G1 X77.580 Y47.450 E67.10261 ; skirt
G1 X78.460 Y47.210 E67.19288 ; skirt
G1 X79.740 Y46.950 E67.32214 ; skirt
G1 X80.740 Y46.820 E67.42194 ; skirt
G1 X82.040 Y46.740 E67.55084 ; skirt
G1 X82.490 Y46.730 E67.59538 ; skirt
G1 X117.490 Y46.730 E71.05917 ; skirt
G1 X117.930 Y46.740 E71.10272 ; skirt
G1 X119.240 Y46.820 E71.23261 ; skirt
G1 X120.250 Y46.950 E71.33339 ; skirt
G1 X121.530 Y47.210 E71.46265 ; skirt
G1 X122.410 Y47.450 E71.55292 ; skirt
G1 X123.650 Y47.870 E71.68249 ; skirt
G1 X124.500 Y48.220 E71.77346 ; skirt
G1 X125.670 Y48.790 E71.90226 ; skirt
G1 X126.540 Y49.290 E72.00157 ; skirt
G1 X127.630 Y50.020 E72.13140 ; skirt
G1 X128.350 Y50.570 E72.22106 ; skirt
G1 X129.340 Y51.430 E72.35084 ; skirt
G1 X130.060 Y52.150 E72.45161 ; skirt
G1 X130.920 Y53.140 E72.58139 ; skirt
G1 X131.450 Y53.840 E72.66828 ; skirt
G1 X132.180 Y54.920 E72.79729 ; skirt
G1 X132.710 Y55.830 E72.90151 ; skirt
G1 X133.280 Y57.010 E73.03120 ; skirt
G1 X133.620 Y57.840 E73.11997 ; skirt
G1 X134.040 Y59.080 E73.24953 ; skirt
G1 X134.280 Y59.960 E73.33980 ; skirt
G1 X134.540 Y61.240 E73.46907 ; skirt
G1 X134.660 Y62.190 E73.56383 ; skirt
G1 X134.770 Y64.000 E73.74329 ; skirt
G1 X134.770 Y135.990 E80.86780 ; skirt
G1 X134.750 Y136.490 E80.91732 ; skirt
G1 X134.660 Y137.800 E81.04727 ; skirt
G1 X134.540 Y138.750 E81.14204 ; skirt
G1 X134.280 Y140.030 E81.27130 ; skirt
G1 X134.040 Y140.910 E81.36157 ; skirt
G1 X133.620 Y142.150 E81.49114 ; skirt
G1 X133.270 Y143.000 E81.58211 ; skirt
G1 X132.700 Y144.170 E81.71091 ; skirt
G1 X132.200 Y145.040 E81.81021 ; skirt
G1 X131.470 Y146.130 E81.94004 ; skirt
G1 X130.920 Y146.850 E82.02971 ; skirt
G1 X130.060 Y147.840 E82.15949 ; skirt
G1 X129.340 Y148.560 E82.26026 ; skirt
G1 X128.350 Y149.420 E82.39004 ; skirt
G1 X127.650 Y149.950 E82.47693 ; skirt
G1 X126.570 Y150.680 E82.60594 ; skirt
G1 X125.690 Y151.200 E82.70710 ; skirt
G1 X124.500 Y151.780 E82.83811 ; skirt
G1 X123.610 Y152.140 E82.93312 ; skirt
G1 X122.380 Y152.550 E83.06144 ; skirt
G1 X121.530 Y152.780 E83.14858 ; skirt
G1 X120.250 Y153.040 E83.27784 ; skirt
G1 X119.300 Y153.160 E83.37261 ; skirt
G1 X117.990 Y153.250 E83.50256 ; skirt
G1 X117.490 Y153.270 E83.55208 ; skirt
G1 X82.500 Y153.270 E87.01488 ; skirt
G1 X80.690 Y153.160 E87.19433 ; skirt
G1 X79.740 Y153.040 E87.28910 ; skirt
G1 X78.460 Y152.780 E87.41836 ; skirt
G1 X77.580 Y152.540 E87.50863 ; skirt
G1 X76.340 Y152.120 E87.63820 ; skirt
G1 X75.510 Y151.780 E87.72696 ; skirt
G1 X74.330 Y151.210 E87.85665 ; skirt
G1 X73.420 Y150.680 E87.96087 ; skirt
G1 X72.340 Y149.950 E88.08988 ; skirt
G1 X71.640 Y149.420 E88.17677 ; skirt
G1 X70.650 Y148.560 E88.30655 ; skirt
G1 X69.930 Y147.840 E88.40732 ; skirt
G1 X69.070 Y146.850 E88.53710 ; skirt
G1 X68.520 Y146.130 E88.62677 ; skirt
G1 X67.790 Y145.040 E88.75660 ; skirt
G1 X67.290 Y144.170 E88.85591 ; skirt
G1 X66.720 Y143.000 E88.98470 ; skirt
G1 X66.370 Y142.150 E89.07568 ; skirt
G1 X65.950 Y140.910 E89.20524 ; skirt
G1 X65.720 Y140.050 E89.29334 ; skirt
G1 X65.460 Y138.790 E89.42067 ; skirt
G1 X65.320 Y137.760 E89.52354 ; skirt
G1 X65.240 Y136.430 E89.65540 ; skirt
G1 X65.230 Y63.990 E96.82445 ; skirt
G1 X65.240 Y63.540 E96.86899 ; skirt
G1 X65.320 Y62.240 E96.99789 ; skirt
G1 X65.450 Y61.240 E97.09769 ; skirt
G1 X65.710 Y59.960 E97.22695 ; skirt
G1 X65.940 Y59.110 E97.31410 ; skirt
G1 X66.350 Y57.880 E97.44241 ; skirt
G1 X66.710 Y56.990 E97.53742 ; skirt
G1 X67.290 Y55.800 E97.66843 ; skirt
G1 X67.810 Y54.920 E97.76959 ; skirt
G1 X68.487 Y53.919 E97.88917 ; skirt
G1 X69.060 Y54.190 F7800.000 ; move to first skirt point
G1 X69.580 Y53.530 F540.000 E97.97232 ; skirt
G1 X70.460 Y52.530 E98.10415 ; skirt
G1 X71.070 Y51.920 E98.18952 ; skirt
G1 X72.040 Y51.070 E98.31716 ; skirt
G1 X72.690 Y50.560 E98.39893 ; skirt
G1 X73.770 Y49.830 E98.52793 ; skirt
G1 X74.600 Y49.350 E98.62282 ; skirt
G1 X75.780 Y48.780 E98.75251 ; skirt
G1 X76.540 Y48.480 E98.83337 ; skirt
G1 X77.780 Y48.060 E98.96294 ; skirt
G1 X78.590 Y47.840 E99.04600 ; skirt
G1 X79.870 Y47.580 E99.17527 ; skirt
G1 X80.780 Y47.460 E99.26611 ; skirt
G1 X82.490 Y47.360 E99.43563 ; skirt
G1 X117.490 Y47.360 E102.89941 ; skirt
G1 X119.200 Y47.460 E103.06893 ; skirt
G1 X120.120 Y47.580 E103.16075 ; skirt
G1 X121.400 Y47.840 E103.29001 ; skirt
G1 X122.210 Y48.060 E103.37308 ; skirt
G1 X123.450 Y48.480 E103.50264 ; skirt
G1 X124.230 Y48.790 E103.58571 ; skirt
G1 X125.400 Y49.360 E103.71451 ; skirt
G1 X126.180 Y49.820 E103.80413 ; skirt
G1 X127.270 Y50.550 E103.93396 ; skirt
G1 X127.930 Y51.050 E104.01590 ; skirt
G1 X128.920 Y51.910 E104.14568 ; skirt
G1 X129.580 Y52.570 E104.23805 ; skirt
G1 X130.440 Y53.560 E104.36783 ; skirt
G1 X130.930 Y54.190 E104.44682 ; skirt
G1 X131.660 Y55.270 E104.57583 ; skirt
G1 X132.140 Y56.100 E104.67072 ; skirt
G1 X132.710 Y57.280 E104.80041 ; skirt
G1 X133.010 Y58.040 E104.88127 ; skirt
G1 X133.430 Y59.280 E105.01083 ; skirt
G1 X133.650 Y60.090 E105.09390 ; skirt
G1 X133.910 Y61.370 E105.22316 ; skirt
G1 X134.030 Y62.240 E105.31008 ; skirt
G1 X134.140 Y64.000 E105.48460 ; skirt
G1 X134.140 Y135.990 E112.60911 ; skirt
G1 X134.120 Y136.440 E112.65369 ; skirt
G1 X134.030 Y137.750 E112.78364 ; skirt
G1 X133.910 Y138.620 E112.87055 ; skirt
G1 X133.650 Y139.900 E112.99982 ; skirt
G1 X133.430 Y140.710 E113.08288 ; skirt
G1 X133.010 Y141.950 E113.21245 ; skirt
G1 X132.700 Y142.730 E113.29551 ; skirt
G1 X132.130 Y143.900 E113.42431 ; skirt
G1 X131.670 Y144.680 E113.51393 ; skirt
G1 X130.940 Y145.770 E113.64376 ; skirt
G1 X130.440 Y146.430 E113.72570 ; skirt
G1 X129.580 Y147.420 E113.85548 ; skirt
G1 X128.920 Y148.080 E113.94786 ; skirt
G1 X127.930 Y148.940 E114.07764 ; skirt
G1 X127.300 Y149.430 E114.15662 ; skirt
G1 X126.220 Y150.160 E114.28563 ; skirt
G1 X125.410 Y150.620 E114.37782 ; skirt
G1 X124.220 Y151.200 E114.50883 ; skirt
G1 X123.410 Y151.540 E114.59577 ; skirt
G1 X122.180 Y151.950 E114.72408 ; skirt
G1 X121.400 Y152.150 E114.80377 ; skirt
G1 X120.120 Y152.410 E114.93303 ; skirt
G1 X119.250 Y152.530 E115.01995 ; skirt
G1 X117.940 Y152.620 E115.14990 ; skirt
G1 X117.490 Y152.640 E115.19448 ; skirt
G1 X82.500 Y152.640 E118.65727 ; skirt
G1 X80.740 Y152.530 E118.83179 ; skirt
G1 X79.870 Y152.410 E118.91871 ; skirt
G1 X78.590 Y152.150 E119.04797 ; skirt
G1 X77.780 Y151.930 E119.13103 ; skirt
G1 X76.540 Y151.510 E119.26060 ; skirt
G1 X75.780 Y151.210 E119.34146 ; skirt
G1 X74.600 Y150.640 E119.47115 ; skirt
G1 X73.770 Y150.160 E119.56604 ; skirt
G1 X72.690 Y149.430 E119.69505 ; skirt
G1 X72.060 Y148.940 E119.77403 ; skirt
G1 X71.070 Y148.080 E119.90381 ; skirt
G1 X70.410 Y147.420 E119.99619 ; skirt
G1 X69.550 Y146.430 E120.12597 ; skirt
G1 X69.050 Y145.770 E120.20791 ; skirt
G1 X68.320 Y144.680 E120.33774 ; skirt
G1 X67.860 Y143.900 E120.42736 ; skirt
G1 X67.290 Y142.730 E120.55616 ; skirt
G1 X66.980 Y141.950 E120.63922 ; skirt
G1 X66.560 Y140.710 E120.76879 ; skirt
G1 X66.340 Y139.920 E120.84995 ; skirt
