; generated by Slic3r 0.9.10b on 2014-03-26 at 12:02:48

; layer_height = 0.4
; perimeters = 2
; top_solid_layers = 3
; bottom_solid_layers = 3
; fill_density = 0.2
; perimeter_speed = 30
; infill_speed = 60
; travel_speed = 130
; nozzle_diameter = 0.4
; filament_diameter = 1.75
; extrusion_multiplier = 1.0
; perimeters extrusion width = 0.42mm
; infill extrusion width = 0.42mm
; solid infill extrusion width = 0.42mm
; top infill extrusion width = 0.42mm
; first layer extrusion width = 0.70mm

G21 ; set units to millimeters
M107 ; disable fan
M190 S60 ; wait for bed temperature to be reached
M104 S165 ; set temperature
G28 ; home all axes
G1 Z5 F5000 ; lift nozzle
M109 S165 ; wait for temperature to be reached
G90 ; use absolute coordinates
G92 E0 ; reset extrusion distance
M82 ; use absolute distances for extrusion
G1 F1800.000 E-1.00000 ; retract
G92 E0 ; reset extrusion distance
G1 Z-0.250 F7800.000 ; move to next layer (0)
G1 X87.390 Y86.410 ; move to first skirt point
G1 F1800.000 E1.00000 ; compensate retraction
G1 X88.590 Y85.390 F540.000 E1.14567 ; skirt
G1 X89.660 Y84.610 E1.26814 ; skirt
G1 X91.000 Y83.790 E1.41344 ; skirt
G1 X92.170 Y83.190 E1.53505 ; skirt
G1 X93.610 Y82.590 E1.67934 ; skirt
G1 X94.940 Y82.160 E1.80862 ; skirt
G1 X96.470 Y81.800 E1.95400 ; skirt
G1 X97.770 Y81.600 E2.07565 ; skirt
G1 X99.330 Y81.480 E2.22036 ; skirt
G1 X100.640 Y81.480 E2.34152 ; skirt
G1 X102.210 Y81.600 E2.48716 ; skirt
G1 X103.520 Y81.800 E2.60973 ; skirt
G1 X105.050 Y82.160 E2.75510 ; skirt
G1 X106.390 Y82.600 E2.88555 ; skirt
G1 X107.800 Y83.190 E3.02692 ; skirt
G1 X108.930 Y83.760 E3.14398 ; skirt
G1 X110.300 Y84.590 E3.29213 ; skirt
G1 X111.400 Y85.390 E3.41793 ; skirt
G1 X112.600 Y86.410 E3.56360 ; skirt
G1 X113.580 Y87.390 E3.69178 ; skirt
G1 X114.600 Y88.590 E3.83745 ; skirt
G1 X115.380 Y89.660 E3.95992 ; skirt
G1 X116.200 Y91.000 E4.10522 ; skirt
G1 X116.800 Y92.170 E4.22684 ; skirt
G1 X117.400 Y93.610 E4.37112 ; skirt
G1 X117.830 Y94.940 E4.50040 ; skirt
G1 X118.190 Y96.470 E4.64578 ; skirt
G1 X118.390 Y97.770 E4.76743 ; skirt
G1 X118.510 Y99.330 E4.91215 ; skirt
G1 X118.510 Y100.640 E5.03331 ; skirt
G1 X118.390 Y102.210 E5.17894 ; skirt
G1 X118.190 Y103.520 E5.30151 ; skirt
G1 X117.830 Y105.050 E5.44689 ; skirt
G1 X117.400 Y106.380 E5.57617 ; skirt
G1 X116.800 Y107.820 E5.72045 ; skirt
G1 X116.200 Y108.990 E5.84207 ; skirt
G1 X115.380 Y110.330 E5.98737 ; skirt
G1 X114.600 Y111.400 E6.10984 ; skirt
G1 X113.580 Y112.600 E6.25551 ; skirt
G1 X112.600 Y113.580 E6.38369 ; skirt
G1 X111.400 Y114.600 E6.52936 ; skirt
G1 X110.330 Y115.380 E6.65183 ; skirt
G1 X108.990 Y116.200 E6.79713 ; skirt
G1 X107.820 Y116.800 E6.91874 ; skirt
G1 X106.380 Y117.400 E7.06303 ; skirt
G1 X105.050 Y117.830 E7.19231 ; skirt
G1 X103.520 Y118.190 E7.33769 ; skirt
G1 X102.210 Y118.390 E7.46026 ; skirt
G1 X100.640 Y118.510 E7.60589 ; skirt
G1 X99.330 Y118.510 E7.72705 ; skirt
G1 X97.770 Y118.390 E7.87176 ; skirt
G1 X96.470 Y118.190 E7.99342 ; skirt
G1 X94.940 Y117.830 E8.13879 ; skirt
G1 X93.610 Y117.400 E8.26808 ; skirt
G1 X92.170 Y116.800 E8.41236 ; skirt
G1 X91.000 Y116.200 E8.53398 ; skirt
G1 X89.660 Y115.380 E8.67928 ; skirt
G1 X88.590 Y114.600 E8.80175 ; skirt
G1 X87.390 Y113.580 E8.94741 ; skirt
G1 X86.410 Y112.600 E9.07560 ; skirt
G1 X85.390 Y111.400 E9.22127 ; skirt
G1 X84.590 Y110.300 E9.34707 ; skirt
G1 X83.760 Y108.930 E9.49522 ; skirt
G1 X83.190 Y107.800 E9.61228 ; skirt
G1 X82.600 Y106.390 E9.75365 ; skirt
G1 X82.160 Y105.050 E9.88410 ; skirt
G1 X81.800 Y103.520 E10.02947 ; skirt
G1 X81.600 Y102.210 E10.15204 ; skirt
G1 X81.480 Y100.640 E10.29767 ; skirt
G1 X81.480 Y99.330 E10.41884 ; skirt
G1 X81.600 Y97.770 E10.56355 ; skirt
G1 X81.800 Y96.470 E10.68520 ; skirt
G1 X82.160 Y94.940 E10.83058 ; skirt
G1 X82.600 Y93.600 E10.96103 ; skirt
G1 X83.190 Y92.190 E11.10239 ; skirt
G1 X83.760 Y91.060 E11.21945 ; skirt
G1 X84.590 Y89.690 E11.36761 ; skirt
G1 X85.390 Y88.590 E11.49341 ; skirt
G1 X86.410 Y87.390 E11.63907 ; skirt
G1 X87.323 Y86.477 E11.75844 ; skirt
G1 X87.800 Y86.900 F7800.000 ; move to first skirt point
G1 X89.000 Y85.880 F540.000 E11.90411 ; skirt
G1 X89.990 Y85.160 E12.01733 ; skirt
G1 X91.330 Y84.340 E12.16263 ; skirt
G1 X92.420 Y83.780 E12.27597 ; skirt
G1 X93.860 Y83.180 E12.42026 ; skirt
G1 X95.090 Y82.780 E12.53989 ; skirt
G1 X96.620 Y82.420 E12.68526 ; skirt
G1 X97.820 Y82.240 E12.79749 ; skirt
G1 X99.380 Y82.120 E12.94221 ; skirt
G1 X100.590 Y82.120 E13.05412 ; skirt
G1 X102.160 Y82.240 E13.19976 ; skirt
G1 X103.370 Y82.420 E13.31290 ; skirt
G1 X104.900 Y82.780 E13.45828 ; skirt
G1 X106.140 Y83.190 E13.57907 ; skirt
G1 X107.550 Y83.780 E13.72044 ; skirt
G1 X108.600 Y84.310 E13.82923 ; skirt
G1 X109.970 Y85.140 E13.97738 ; skirt
G1 X110.990 Y85.880 E14.09393 ; skirt
G1 X112.190 Y86.900 E14.23960 ; skirt
G1 X113.090 Y87.800 E14.35732 ; skirt
G1 X114.110 Y89.000 E14.50299 ; skirt
G1 X114.830 Y89.990 E14.61621 ; skirt
G1 X115.650 Y91.330 E14.76151 ; skirt
G1 X116.210 Y92.420 E14.87485 ; skirt
G1 X116.810 Y93.860 E15.01914 ; skirt
G1 X117.210 Y95.090 E15.13877 ; skirt
G1 X117.570 Y96.620 E15.28414 ; skirt
G1 X117.750 Y97.820 E15.39637 ; skirt
G1 X117.870 Y99.380 E15.54109 ; skirt
G1 X117.870 Y100.590 E15.65300 ; skirt
G1 X117.750 Y102.160 E15.79864 ; skirt
G1 X117.570 Y103.370 E15.91178 ; skirt
G1 X117.210 Y104.900 E16.05716 ; skirt
G1 X116.810 Y106.130 E16.17678 ; skirt
G1 X116.210 Y107.570 E16.32107 ; skirt
G1 X115.650 Y108.660 E16.43441 ; skirt
G1 X114.830 Y110.000 E16.57971 ; skirt
G1 X114.110 Y110.990 E16.69294 ; skirt
G1 X113.090 Y112.190 E16.83860 ; skirt
G1 X112.190 Y113.090 E16.95632 ; skirt
G1 X110.990 Y114.110 E17.10199 ; skirt
G1 X110.000 Y114.830 E17.21521 ; skirt
G1 X108.660 Y115.650 E17.36051 ; skirt
G1 X107.570 Y116.210 E17.47386 ; skirt
G1 X106.130 Y116.810 E17.61814 ; skirt
G1 X104.900 Y117.210 E17.73777 ; skirt
G1 X103.370 Y117.570 E17.88315 ; skirt
G1 X102.160 Y117.750 E17.99629 ; skirt
G1 X100.590 Y117.870 E18.14193 ; skirt
G1 X99.380 Y117.870 E18.25384 ; skirt
G1 X97.820 Y117.750 E18.39855 ; skirt
G1 X96.620 Y117.570 E18.51078 ; skirt
G1 X95.090 Y117.210 E18.65616 ; skirt
G1 X93.860 Y116.810 E18.77579 ; skirt
G1 X92.420 Y116.210 E18.92007 ; skirt
G1 X91.330 Y115.650 E19.03341 ; skirt
G1 X89.990 Y114.830 E19.17872 ; skirt
G1 X89.000 Y114.110 E19.29194 ; skirt
G1 X87.800 Y113.090 E19.43760 ; skirt
G1 X86.900 Y112.190 E19.55533 ; skirt
G1 X85.880 Y110.990 E19.70099 ; skirt
G1 X85.140 Y109.970 E19.81755 ; skirt
G1 X84.310 Y108.600 E19.96570 ; skirt
G1 X83.780 Y107.550 E20.07449 ; skirt
G1 X83.190 Y106.140 E20.21585 ; skirt
G1 X82.780 Y104.900 E20.33665 ; skirt
G1 X82.420 Y103.370 E20.48203 ; skirt
G1 X82.240 Y102.160 E20.59517 ; skirt
G1 X82.120 Y100.590 E20.74081 ; skirt
G1 X82.120 Y99.380 E20.85272 ; skirt
G1 X82.240 Y97.820 E20.99743 ; skirt
G1 X82.420 Y96.620 E21.10966 ; skirt
G1 X82.780 Y95.090 E21.25504 ; skirt
G1 X83.190 Y93.850 E21.37583 ; skirt
G1 X83.780 Y92.440 E21.51720 ; skirt
G1 X84.310 Y91.390 E21.62599 ; skirt
G1 X85.140 Y90.020 E21.77414 ; skirt
G1 X85.880 Y89.000 E21.89070 ; skirt
G1 X86.900 Y87.800 E22.03636 ; skirt
G1 X87.733 Y86.967 E22.14527 ; skirt
G1 X88.210 Y87.380 F7800.000 ; move to first skirt point
G1 X89.410 Y86.360 F540.000 E22.29093 ; skirt
G1 X90.320 Y85.700 E22.39490 ; skirt
G1 X91.660 Y84.880 E22.54021 ; skirt
G1 X92.660 Y84.370 E22.64403 ; skirt
G1 X94.100 Y83.770 E22.78832 ; skirt
G1 X95.230 Y83.400 E22.89829 ; skirt
G1 X96.760 Y83.040 E23.04367 ; skirt
G1 X97.870 Y82.870 E23.14753 ; skirt
G1 X99.430 Y82.750 E23.29224 ; skirt
G1 X100.540 Y82.750 E23.39491 ; skirt
G1 X102.110 Y82.870 E23.54054 ; skirt
G1 X103.230 Y83.040 E23.64532 ; skirt
G1 X104.760 Y83.400 E23.79069 ; skirt
G1 X105.900 Y83.770 E23.90155 ; skirt
G1 X107.310 Y84.360 E24.04292 ; skirt
G1 X108.270 Y84.850 E24.14261 ; skirt
G1 X109.640 Y85.680 E24.29076 ; skirt
G1 X110.580 Y86.360 E24.39806 ; skirt
G1 X111.780 Y87.380 E24.54373 ; skirt
G1 X112.610 Y88.210 E24.65230 ; skirt
G1 X113.630 Y89.410 E24.79796 ; skirt
G1 X114.290 Y90.320 E24.90194 ; skirt
G1 X115.110 Y91.660 E25.04724 ; skirt
G1 X115.620 Y92.660 E25.15106 ; skirt
G1 X116.220 Y94.100 E25.29535 ; skirt
G1 X116.590 Y95.230 E25.40532 ; skirt
G1 X116.950 Y96.760 E25.55070 ; skirt
G1 X117.120 Y97.870 E25.65456 ; skirt
G1 X117.240 Y99.430 E25.79927 ; skirt
G1 X117.240 Y100.540 E25.90194 ; skirt
G1 X117.120 Y102.110 E26.04757 ; skirt
G1 X116.950 Y103.230 E26.15235 ; skirt
G1 X116.590 Y104.760 E26.29773 ; skirt
G1 X116.220 Y105.890 E26.40770 ; skirt
G1 X115.620 Y107.330 E26.55199 ; skirt
G1 X115.110 Y108.330 E26.65581 ; skirt
G1 X114.290 Y109.670 E26.80111 ; skirt
G1 X113.630 Y110.580 E26.90509 ; skirt
G1 X112.610 Y111.780 E27.05075 ; skirt
G1 X111.780 Y112.610 E27.15932 ; skirt
G1 X110.580 Y113.630 E27.30499 ; skirt
G1 X109.670 Y114.290 E27.40896 ; skirt
G1 X108.330 Y115.110 E27.55426 ; skirt
G1 X107.330 Y115.620 E27.65809 ; skirt
G1 X105.890 Y116.220 E27.80237 ; skirt
G1 X104.760 Y116.590 E27.91235 ; skirt
G1 X103.230 Y116.950 E28.05772 ; skirt
G1 X102.110 Y117.120 E28.16250 ; skirt
G1 X100.540 Y117.240 E28.30813 ; skirt
G1 X99.430 Y117.240 E28.41080 ; skirt
G1 X97.870 Y117.120 E28.55551 ; skirt
G1 X96.760 Y116.950 E28.65937 ; skirt
G1 X95.230 Y116.590 E28.80475 ; skirt
G1 X94.100 Y116.220 E28.91472 ; skirt
G1 X92.660 Y115.620 E29.05901 ; skirt
G1 X91.660 Y115.110 E29.16283 ; skirt
G1 X90.320 Y114.290 E29.30813 ; skirt
G1 X89.410 Y113.630 E29.41211 ; skirt
G1 X88.210 Y112.610 E29.55777 ; skirt
G1 X87.380 Y111.780 E29.66634 ; skirt
G1 X86.360 Y110.580 E29.81201 ; skirt
G1 X85.680 Y109.640 E29.91931 ; skirt
G1 X84.850 Y108.270 E30.06747 ; skirt
G1 X84.360 Y107.310 E30.16715 ; skirt
G1 X83.770 Y105.900 E30.30852 ; skirt
G1 X83.400 Y104.760 E30.41938 ; skirt
G1 X83.040 Y103.230 E30.56475 ; skirt
G1 X82.870 Y102.110 E30.66953 ; skirt
G1 X82.750 Y100.540 E30.81516 ; skirt
G1 X82.750 Y99.430 E30.91783 ; skirt
G1 X82.870 Y97.870 E31.06254 ; skirt
G1 X83.040 Y96.760 E31.16640 ; skirt
G1 X83.400 Y95.230 E31.31178 ; skirt
G1 X83.770 Y94.090 E31.42263 ; skirt
G1 X84.360 Y92.680 E31.56400 ; skirt
G1 X84.850 Y91.720 E31.66369 ; skirt
G1 X85.680 Y90.350 E31.81184 ; skirt
G1 X86.360 Y89.410 E31.91915 ; skirt
G1 X87.380 Y88.210 E32.06482 ; skirt
G1 X88.143 Y87.447 E32.16456 ; skirt
G1 X88.620 Y87.860 F7800.000 ; move to first skirt point
G1 X89.820 Y86.840 F540.000 E32.31023 ; skirt
G1 X90.660 Y86.240 E32.40571 ; skirt
G1 X92.000 Y85.420 E32.55101 ; skirt
G1 X92.910 Y84.950 E32.64574 ; skirt
G1 X94.350 Y84.350 E32.79002 ; skirt
G1 X95.380 Y84.020 E32.89006 ; skirt
G1 X96.910 Y83.660 E33.03544 ; skirt
G1 X97.920 Y83.500 E33.13002 ; skirt
G1 X99.480 Y83.380 E33.27473 ; skirt
G1 X100.500 Y83.380 E33.36907 ; skirt
G1 X102.070 Y83.500 E33.51470 ; skirt
G1 X103.080 Y83.660 E33.60928 ; skirt
G1 X104.610 Y84.020 E33.75466 ; skirt
G1 X105.650 Y84.360 E33.85586 ; skirt
G1 X107.060 Y84.950 E33.99723 ; skirt
G1 X107.940 Y85.390 E34.08823 ; skirt
G1 X109.310 Y86.220 E34.23638 ; skirt
G1 X110.170 Y86.840 E34.33444 ; skirt
G1 X111.370 Y87.860 E34.48011 ; skirt
G1 X112.130 Y88.620 E34.57952 ; skirt
G1 X113.150 Y89.820 E34.72518 ; skirt
G1 X113.750 Y90.660 E34.82066 ; skirt
G1 X114.570 Y92.000 E34.96596 ; skirt
G1 X115.040 Y92.910 E35.06069 ; skirt
G1 X115.640 Y94.350 E35.20498 ; skirt
G1 X115.970 Y95.380 E35.30501 ; skirt
G1 X116.330 Y96.910 E35.45039 ; skirt
G1 X116.490 Y97.920 E35.54497 ; skirt
G1 X116.610 Y99.480 E35.68968 ; skirt
G1 X116.610 Y100.500 E35.78402 ; skirt
G1 X116.490 Y102.070 E35.92966 ; skirt
G1 X116.330 Y103.080 E36.02424 ; skirt
G1 X115.970 Y104.610 E36.16961 ; skirt
G1 X115.640 Y105.640 E36.26965 ; skirt
G1 X115.040 Y107.080 E36.41393 ; skirt
G1 X114.570 Y107.990 E36.50866 ; skirt
G1 X113.750 Y109.330 E36.65397 ; skirt
G1 X113.150 Y110.170 E36.74944 ; skirt
G1 X112.130 Y111.370 E36.89511 ; skirt
G1 X111.370 Y112.130 E36.99452 ; skirt
G1 X110.170 Y113.150 E37.14018 ; skirt
G1 X109.330 Y113.750 E37.23566 ; skirt
G1 X107.990 Y114.570 E37.38096 ; skirt
G1 X107.080 Y115.040 E37.47569 ; skirt
G1 X105.640 Y115.640 E37.61998 ; skirt
G1 X104.610 Y115.970 E37.72001 ; skirt
G1 X103.080 Y116.330 E37.86539 ; skirt
G1 X102.070 Y116.490 E37.95997 ; skirt
G1 X100.500 Y116.610 E38.10561 ; skirt
G1 X99.480 Y116.610 E38.19995 ; skirt
G1 X97.920 Y116.490 E38.34466 ; skirt
G1 X96.910 Y116.330 E38.43924 ; skirt
G1 X95.380 Y115.970 E38.58461 ; skirt
G1 X94.350 Y115.640 E38.68465 ; skirt
G1 X92.910 Y115.040 E38.82894 ; skirt
G1 X92.000 Y114.570 E38.92367 ; skirt
G1 X90.660 Y113.750 E39.06897 ; skirt
G1 X89.820 Y113.150 E39.16445 ; skirt
G1 X88.620 Y112.130 E39.31011 ; skirt
G1 X87.860 Y111.370 E39.40952 ; skirt
G1 X86.840 Y110.170 E39.55519 ; skirt
G1 X86.220 Y109.310 E39.65325 ; skirt
G1 X85.390 Y107.940 E39.80140 ; skirt
G1 X84.950 Y107.060 E39.89240 ; skirt
G1 X84.360 Y105.650 E40.03377 ; skirt
G1 X84.020 Y104.610 E40.13497 ; skirt
G1 X83.660 Y103.080 E40.28034 ; skirt
G1 X83.500 Y102.070 E40.37492 ; skirt
G1 X83.380 Y100.500 E40.52056 ; skirt
G1 X83.380 Y99.480 E40.61490 ; skirt
G1 X83.500 Y97.920 E40.75961 ; skirt
G1 X83.660 Y96.910 E40.85419 ; skirt
G1 X84.020 Y95.380 E40.99957 ; skirt
G1 X84.360 Y94.340 E41.10077 ; skirt
G1 X84.950 Y92.930 E41.24214 ; skirt
G1 X85.390 Y92.050 E41.33314 ; skirt
G1 X86.220 Y90.680 E41.48129 ; skirt
G1 X86.840 Y89.820 E41.57935 ; skirt
G1 X87.860 Y88.620 E41.72501 ; skirt
G1 X88.553 Y87.927 E41.81560 ; skirt
G1 F1800.000 E40.81560 ; retract
G92 E0 ; reset extrusion distance
G1 X97.378 Y97.378 F7800.000 ; move to first perimeter point
G1 F1800.000 E1.00000 ; compensate retraction
G1 X97.940 Y96.917 F540.000 E1.06723 ; perimeter
G1 X98.581 Y96.574 E1.13446 ; perimeter
G1 X99.277 Y96.363 E1.20170 ; perimeter
G1 X100.000 Y96.292 E1.26893 ; perimeter
G1 X100.723 Y96.363 E1.33616 ; perimeter
G1 X101.419 Y96.574 E1.40339 ; perimeter
G1 X102.060 Y96.917 E1.47062 ; perimeter
G1 X102.847 Y97.562 E1.56473 ; perimeter
G1 X102.847 Y96.197 E1.69105 ; perimeter
G1 X107.453 Y96.197 E2.11714 ; perimeter
G1 X107.453 Y103.803 E2.82071 ; perimeter
G1 X102.847 Y103.803 E3.24680 ; perimeter
G1 X102.847 Y102.438 E3.37312 ; perimeter
G1 X102.060 Y103.083 E3.46722 ; perimeter
G1 X101.419 Y103.426 E3.53446 ; perimeter
G1 X100.723 Y103.637 E3.60169 ; perimeter
G1 X100.000 Y103.708 E3.66892 ; perimeter
G1 X99.277 Y103.637 E3.73615 ; perimeter
G1 X98.581 Y103.426 E3.80338 ; perimeter
G1 X97.940 Y103.083 E3.87062 ; perimeter
G1 X97.378 Y102.622 E3.93785 ; perimeter
G1 X96.917 Y102.060 E4.00508 ; perimeter
G1 X96.574 Y101.419 E4.07231 ; perimeter
G1 X96.363 Y100.723 E4.13954 ; perimeter
G1 X96.292 Y100.000 E4.20678 ; perimeter
G1 X96.363 Y99.277 E4.27401 ; perimeter
G1 X96.574 Y98.581 E4.34124 ; perimeter
G1 X96.917 Y97.940 E4.40847 ; perimeter
G1 X97.318 Y97.452 E4.46689 ; perimeter
G1 X97.830 Y97.830 F7800.000 ; move to first perimeter point
G1 X98.295 Y97.448 F540.000 E4.52254 ; perimeter
G1 X98.825 Y97.164 E4.57819 ; perimeter
G1 X99.401 Y96.990 E4.63384 ; perimeter
G1 X100.000 Y96.931 E4.68949 ; perimeter
G1 X100.599 Y96.990 E4.74514 ; perimeter
G1 X101.175 Y97.164 E4.80080 ; perimeter
G1 X101.705 Y97.448 E4.85645 ; perimeter
G1 X102.170 Y97.830 E4.91210 ; perimeter
G1 X102.552 Y98.295 E4.96775 ; perimeter
G1 X102.836 Y98.825 E5.02340 ; perimeter
G1 X103.010 Y99.401 E5.07905 ; perimeter
G1 X103.069 Y100.000 E5.13471 ; perimeter
G1 X103.010 Y100.599 E5.19036 ; perimeter
G1 X102.836 Y101.175 E5.24601 ; perimeter
G1 X102.552 Y101.705 E5.30166 ; perimeter
G1 X102.170 Y102.170 E5.35731 ; perimeter
G1 X101.705 Y102.552 E5.41296 ; perimeter
G1 X101.175 Y102.836 E5.46861 ; perimeter
G1 X100.599 Y103.010 E5.52427 ; perimeter
G1 X100.000 Y103.069 E5.57992 ; perimeter
G1 X99.401 Y103.010 E5.63557 ; perimeter
G1 X98.825 Y102.836 E5.69122 ; perimeter
G1 X98.295 Y102.552 E5.74687 ; perimeter
G1 X97.830 Y102.170 E5.80252 ; perimeter
G1 X97.448 Y101.705 E5.85818 ; perimeter
G1 X97.164 Y101.175 E5.91383 ; perimeter
G1 X96.990 Y100.599 E5.96948 ; perimeter
G1 X96.931 Y100.000 E6.02513 ; perimeter
G1 X96.990 Y99.401 E6.08078 ; perimeter
