; generated by Slic3r 0.9.10b on 2014-01-21 at 02:20:24

; layer_height = 0.4
; perimeters = 5
; top_solid_layers = 3
; bottom_solid_layers = 3
; fill_density = 0.4
; perimeter_speed = 30
; infill_speed = 60
; travel_speed = 130
; nozzle_diameter = 0.5
; filament_diameter = 1.75
; extrusion_multiplier = 1.15
; perimeters extrusion width = 0.53mm
; infill extrusion width = 0.53mm
; solid infill extrusion width = 0.53mm
; top infill extrusion width = 0.53mm
; first layer extrusion width = 0.70mm

G21 ; set units to millimeters
M107
M104 S200 ; set temperature
G28 ; home all axes
G1 Z5 F5000 ; lift nozzle
M109 S200 ; wait for temperature to be reached
G90 ; use absolute coordinates
G92 E0
M82 ; use absolute distances for extrusion
G1 F1800.000 E-1.00000
G92 E0
G1 Z0.450 F7800.000
G1 X67.613 Y57.903
G1 F1800.000 E1.00000
G1 X68.263 Y57.323 F540.000 E1.09579
G1 X68.723 Y56.953 E1.16070
G1 X69.553 Y56.423 E1.26898
G1 X70.543 Y55.943 E1.38996
G1 X71.483 Y55.593 E1.50025
G1 X72.053 Y55.453 E1.56479
G1 X72.453 Y55.373 E1.60964
G1 X73.433 Y55.253 E1.71820
G1 X73.833 Y55.233 E1.76224
G1 X125.823 Y55.223 E7.47884
G1 X126.553 Y55.253 E7.55917
G1 X127.573 Y55.383 E7.67223
G1 X128.523 Y55.603 E7.77946
G1 X129.443 Y55.943 E7.88730
G1 X130.433 Y56.423 E8.00828
G1 X130.783 Y56.633 E8.05316
G1 X131.263 Y56.953 E8.11659
G1 X131.723 Y57.323 E8.18150
G1 X132.363 Y57.903 E8.27647
G1 X142.083 Y67.613 E9.78717
G1 X142.743 Y68.353 E9.89619
G1 X143.353 Y69.203 E10.01123
G1 X143.563 Y69.553 E10.05611
G1 X144.043 Y70.543 E10.17709
G1 X144.193 Y70.923 E10.22201
G1 X144.493 Y71.903 E10.33470
G1 X144.583 Y72.303 E10.37978
G1 X144.743 Y73.433 E10.50527
G1 X144.763 Y73.833 E10.54931
G1 X144.773 Y125.823 E16.26591
G1 X144.743 Y126.553 E16.34625
G1 X144.683 Y127.143 E16.41145
G1 X144.583 Y127.733 E16.47725
G1 X144.493 Y128.123 E16.52126
G1 X144.193 Y129.063 E16.62976
G1 X144.043 Y129.443 E16.67468
G1 X143.563 Y130.433 E16.79565
G1 X143.353 Y130.783 E16.84053
G1 X142.743 Y131.633 E16.95557
G1 X142.093 Y132.373 E17.06387
G1 X132.373 Y142.093 E18.57534
G1 X131.633 Y142.743 E18.68364
G1 X130.783 Y143.353 E18.79868
G1 X130.433 Y143.563 E18.84356
G1 X129.443 Y144.043 E18.96454
G1 X129.063 Y144.193 E19.00946
G1 X128.123 Y144.493 E19.11795
G1 X127.733 Y144.583 E19.16196
G1 X127.143 Y144.683 E19.22776
G1 X126.553 Y144.743 E19.29297
G1 X125.823 Y144.773 E19.37330
G1 X74.163 Y144.773 E25.05362
G1 X73.433 Y144.743 E25.13395
G1 X72.303 Y144.583 E25.25944
G1 X71.903 Y144.493 E25.30453
G1 X70.923 Y144.193 E25.41722
G1 X70.543 Y144.043 E25.46214
G1 X69.553 Y143.563 E25.58311
G1 X69.203 Y143.353 E25.62800
G1 X68.353 Y142.743 E25.74303
G1 X68.043 Y142.483 E25.78752
G1 X67.613 Y142.083 E25.85210
G1 X57.903 Y132.363 E27.36279
G1 X57.323 Y131.723 E27.45776
G1 X56.953 Y131.263 E27.52267
G1 X56.423 Y130.433 E27.63095
G1 X55.943 Y129.443 E27.75193
G1 X55.603 Y128.523 E27.85978
G1 X55.383 Y127.573 E27.96700
G1 X55.253 Y126.553 E28.08006
G1 X55.223 Y125.823 E28.16040
G1 X55.223 Y74.163 E33.84071
G1 X55.253 Y73.433 E33.92104
G1 X55.373 Y72.453 E34.02961
G1 X55.593 Y71.483 E34.13897
G1 X55.943 Y70.543 E34.24926
G1 X56.423 Y69.553 E34.37024
G1 X56.633 Y69.203 E34.41512
G1 X56.953 Y68.723 E34.47855
G1 X57.323 Y68.263 E34.54346
G1 X57.903 Y67.613 E34.63925
G1 X67.543 Y57.973 E36.13833
G1 F1800.000 E35.13833
G92 E0
G1 X111.735 Y82.721 F7800.000
G1 F1800.000 E1.00000
G1 X112.141 Y82.141 F540.000 E1.07779
G1 X112.641 Y81.641 E1.15558
G1 X113.221 Y81.235 E1.23335
G1 X113.427 Y81.139 E1.25841
G1 X113.862 Y80.936 E1.31115
G1 X114.545 Y80.753 E1.38894
G1 X115.250 Y80.691 E1.46673
G1 X115.955 Y80.753 E1.54451
G1 X116.638 Y80.936 E1.62231
G1 X117.279 Y81.235 E1.70010
G1 X117.859 Y81.641 E1.77787
G1 X118.359 Y82.141 E1.85567
G1 X118.765 Y82.721 E1.93346
G1 X119.064 Y83.362 E2.01123
G1 X119.247 Y84.045 E2.08904
G1 X119.309 Y84.750 E2.16684
G1 X119.247 Y85.455 E2.24463
G1 X119.064 Y86.138 E2.32240
G1 X118.765 Y86.779 E2.40019
G1 X118.359 Y87.359 E2.47797
G1 X117.859 Y87.859 E2.55577
G1 X117.155 Y88.352 E2.65029
G1 X117.904 Y88.702 E2.74125
G1 X118.448 Y89.083 E2.81425
G1 X118.918 Y89.552 E2.88723
G1 X119.298 Y90.096 E2.96021
G1 X119.579 Y90.697 E3.03321
G1 X119.751 Y91.339 E3.10621
G1 X119.800 Y91.900 E3.16814
G1 X119.800 Y108.101 E4.94953
G1 X119.751 Y108.661 E5.01142
G1 X119.579 Y109.302 E5.08441
G1 X119.484 Y109.506 E5.10906
G1 X119.298 Y109.904 E5.15742
G1 X118.918 Y110.448 E5.23042
G1 X118.448 Y110.918 E5.30342
G1 X117.904 Y111.298 E5.37643
G1 X117.155 Y111.648 E5.46736
G1 X117.859 Y112.141 E5.56188
G1 X118.359 Y112.641 E5.63968
G1 X118.765 Y113.221 E5.71746
G1 X119.064 Y113.862 E5.79524
G1 X119.247 Y114.545 E5.87305
G1 X119.309 Y115.250 E5.95085
G1 X119.247 Y115.955 E6.02863
G1 X119.064 Y116.638 E6.10641
G1 X118.765 Y117.279 E6.18419
G1 X118.359 Y117.859 E6.26198
G1 X117.859 Y118.359 E6.33978
G1 X117.279 Y118.765 E6.41757
G1 X116.638 Y119.064 E6.49533
G1 X115.955 Y119.247 E6.57315
G1 X115.250 Y119.309 E6.65094
G1 X114.545 Y119.247 E6.72873
G1 X113.862 Y119.064 E6.80651
G1 X113.221 Y118.765 E6.88429
G1 X112.641 Y118.359 E6.96209
G1 X112.141 Y117.859 E7.03986
G1 X111.735 Y117.279 E7.11766
G1 X111.436 Y116.638 E7.19545
G1 X111.253 Y115.955 E7.27323
G1 X111.191 Y115.250 E7.35101
G1 X111.253 Y114.545 E7.42882
G1 X111.436 Y113.862 E7.50661
G1 X111.735 Y113.221 E7.58438
G1 X112.141 Y112.641 E7.66218
G1 X112.641 Y112.141 E7.73996
G1 X113.221 Y111.735 E7.81775
G1 X114.120 Y111.316 E7.92691
G1 X113.552 Y110.918 E8.00321
G1 X113.083 Y110.448 E8.07622
G1 X112.702 Y109.904 E8.14923
G1 X112.421 Y109.303 E8.22222
G1 X112.249 Y108.661 E8.29520
G1 X112.200 Y108.100 E8.35713
G1 X112.200 Y91.900 E10.13849
G1 X112.249 Y91.339 E10.20041
G1 X112.421 Y90.697 E10.27342
G1 X112.702 Y90.096 E10.34642
G1 X113.082 Y89.552 E10.41940
G1 X113.552 Y89.082 E10.49241
G1 X114.120 Y88.684 E10.56872
G1 X113.221 Y88.265 E10.67789
G1 X112.641 Y87.859 E10.75568
G1 X112.141 Y87.359 E10.83344
G1 X111.735 Y86.779 E10.91125
G1 X111.436 Y86.138 E10.98904
G1 X111.253 Y85.455 E11.06682
G1 X111.191 Y84.750 E11.14460
G1 X111.253 Y84.045 E11.22240
G1 X111.436 Y83.362 E11.30019
G1 X111.694 Y82.810 E11.36714
G1 X112.306 Y83.050 F7800.000
G1 X112.646 Y82.565 F540.000 E11.43229
G1 X112.767 Y82.445 E11.45102
G1 X113.065 Y82.146 E11.49744
G1 X113.550 Y81.806 E11.56257
G1 X114.087 Y81.556 E11.62773
G1 X114.660 Y81.403 E11.69288
G1 X115.250 Y81.351 E11.75802
G1 X115.840 Y81.403 E11.82316
G1 X116.413 Y81.556 E11.88832
G1 X116.949 Y81.806 E11.95346
G1 X117.435 Y82.146 E12.01860
G1 X117.854 Y82.565 E12.08375
G1 X118.194 Y83.051 E12.14890
G1 X118.444 Y83.587 E12.21403
G1 X118.597 Y84.160 E12.27920
G1 X118.649 Y84.750 E12.34435
G1 X118.597 Y85.340 E12.40950
G1 X118.444 Y85.913 E12.47463
G1 X118.194 Y86.449 E12.53978
G1 X117.854 Y86.935 E12.60492
G1 X117.435 Y87.354 E12.67007
G1 X116.949 Y87.694 E12.73522
G1 X116.412 Y87.944 E12.80037
G1 X115.840 Y88.097 E12.86551
G1 X115.250 Y88.149 E12.93066
G1 X115.080 Y88.134 E12.94940
G1 X114.660 Y88.097 E12.99580
G1 X114.087 Y87.944 E13.06096
G1 X113.550 Y87.694 E13.12611
G1 X113.065 Y87.354 E13.19125
G1 X112.646 Y86.935 E13.25638
G1 X112.306 Y86.449 E13.32154
G1 X112.056 Y85.913 E13.38669
G1 X111.903 Y85.340 E13.45183
G1 X111.851 Y84.750 E13.51697
G1 X111.903 Y84.160 E13.58213
G1 X112.056 Y83.588 E13.64727
G1 X112.265 Y83.140 E13.70158
G1 X112.878 Y83.380 F7800.000
G1 X113.152 Y82.989 F540.000 E13.75409
G1 X113.231 Y82.909 E13.76650
G1 X113.489 Y82.651 E13.80660
G1 X113.880 Y82.378 E13.85909
G1 X114.313 Y82.176 E13.91160
G1 X114.774 Y82.052 E13.96411
G1 X115.250 Y82.011 E14.01661
G1 X115.726 Y82.052 E14.06911
G1 X116.187 Y82.176 E14.12162
G1 X116.620 Y82.378 E14.17412
G1 X117.011 Y82.651 E14.22662
G1 X117.348 Y82.989 E14.27913
G1 X117.622 Y83.380 E14.33164
G1 X117.824 Y83.813 E14.38413
G1 X117.948 Y84.274 E14.43665
G1 X117.989 Y84.750 E14.48916
G1 X117.948 Y85.226 E14.54166
G1 X117.824 Y85.687 E14.59416
G1 X117.622 Y86.120 E14.64666
G1 X117.349 Y86.511 E14.69916
G1 X117.011 Y86.848 E14.75167
G1 X116.620 Y87.122 E14.80418
G1 X116.187 Y87.324 E14.85669
G1 X115.726 Y87.448 E14.90918
G1 X115.250 Y87.489 E14.96169
G1 X115.137 Y87.480 E14.97411
G1 X114.774 Y87.448 E15.01419
G1 X114.313 Y87.324 E15.06670
G1 X113.880 Y87.122 E15.11921
G1 X113.489 Y86.848 E15.17171
G1 X113.152 Y86.511 E15.22421
G1 X112.878 Y86.120 E15.27672
G1 X112.676 Y85.687 E15.32922
G1 X112.552 Y85.226 E15.38173
G1 X112.511 Y84.750 E15.43423
G1 X112.552 Y84.274 E15.48674
G1 X112.676 Y83.813 E15.53924
G1 X112.836 Y83.470 E15.58091
G1 X113.449 Y83.710 F7800.000
G1 X113.696 Y83.374 F540.000 E15.62679
G1 X113.913 Y83.157 E15.66056
G1 X114.210 Y82.949 E15.70042
G1 X114.539 Y82.796 E15.74028
G1 X114.889 Y82.702 E15.78014
G1 X115.250 Y82.670 E15.82000
G1 X115.611 Y82.702 E15.85987
G1 X115.961 Y82.796 E15.89973
G1 X116.290 Y82.949 E15.93959
G1 X116.587 Y83.157 E15.97945
G1 X116.843 Y83.413 E16.01932
G1 X117.051 Y83.710 E16.05918
G1 X117.204 Y84.039 E16.09904
G1 X117.298 Y84.389 E16.13891
G1 X117.330 Y84.750 E16.17877
G1 X117.298 Y85.111 E16.21863
G1 X117.204 Y85.461 E16.25849
G1 X117.051 Y85.790 E16.29835
G1 X116.843 Y86.087 E16.33821
G1 X116.587 Y86.343 E16.37808
G1 X116.290 Y86.551 E16.41794
G1 X115.961 Y86.704 E16.45781
G1 X115.611 Y86.798 E16.49767
G1 X115.195 Y86.825 E16.54354
G1 X114.889 Y86.798 E16.57731
G1 X114.539 Y86.704 E16.61717
G1 X114.210 Y86.551 E16.65704
G1 X113.913 Y86.343 E16.69690
G1 X113.657 Y86.087 E16.73676
G1 X113.449 Y85.790 E16.77662
G1 X113.296 Y85.461 E16.81649
G1 X113.202 Y85.111 E16.85635
G1 X113.170 Y84.750 E16.89621
G1 X113.202 Y84.389 E16.93607
G1 X113.296 Y84.039 E16.97594
G1 X113.407 Y83.799 E17.00496
G1 X113.866 Y83.729 F7800.000
G1 F1800.000 E16.00496
G92 E0
G1 X115.084 Y88.998 F7800.000
G1 F1800.000 E1.00000
G1 X115.453 Y88.899 F540.000 E1.04203
G1 X116.000 Y88.851 E1.10239
G1 X116.547 Y88.899 E1.16274
G1 X117.077 Y89.041 E1.22310
G1 X117.575 Y89.273 E1.28345
G1 X118.024 Y89.588 E1.34381
G1 X118.412 Y89.976 E1.40416
G1 X118.727 Y90.425 E1.46450
G1 X118.959 Y90.923 E1.52486
G1 X119.101 Y91.453 E1.58521
G1 X119.143 Y91.928 E1.63766
G1 X119.143 Y108.072 E3.41274
G1 X119.101 Y108.547 E3.46516
G1 X118.959 Y109.077 E3.52551
G1 X118.727 Y109.574 E3.58587
G1 X118.412 Y110.024 E3.64623
G1 X118.024 Y110.412 E3.70659
G1 X117.574 Y110.727 E3.76695
G1 X117.077 Y110.959 E3.82729
G1 X116.547 Y111.101 E3.88764
G1 X116.000 Y111.149 E3.94801
G1 X115.453 Y111.101 E4.00835
G1 X114.923 Y110.959 E4.06871
G1 X114.426 Y110.727 E4.12906
G1 X113.976 Y110.412 E4.18941
G1 X113.588 Y110.024 E4.24977
G1 X113.273 Y109.574 E4.31014
G1 X113.041 Y109.077 E4.37049
G1 X112.899 Y108.547 E4.43083
G1 X112.857 Y108.072 E4.48328
G1 X112.857 Y91.928 E6.25833
G1 X112.899 Y91.453 E6.31078
G1 X113.041 Y90.923 E6.37114
G1 X113.273 Y90.425 E6.43150
G1 X113.588 Y89.976 E6.49184
G1 X113.976 Y89.588 E6.55220
G1 X114.426 Y89.273 E6.61256
G1 X114.989 Y89.023 E6.68030
G1 X115.149 Y89.661 F7800.000
G1 X115.568 Y89.548 F540.000 E6.72801
G1 X115.676 Y89.539 E6.74001
G1 X116.000 Y89.511 E6.77573
G1 X116.432 Y89.548 E6.82344
G1 X116.851 Y89.661 E6.87115
G1 X117.245 Y89.844 E6.91886
G1 X117.600 Y90.093 E6.96658
G1 X117.907 Y90.400 E7.01429
G1 X118.156 Y90.755 E7.06199
G1 X118.339 Y91.149 E7.10971
G1 X118.452 Y91.568 E7.15742
G1 X118.486 Y91.957 E7.20039
G1 X118.486 Y108.043 E8.96915
G1 X118.452 Y108.432 E9.01210
G1 X118.339 Y108.851 E9.05981
G1 X118.156 Y109.245 E9.10753
G1 X117.907 Y109.600 E9.15525
G1 X117.600 Y109.907 E9.20296
G1 X117.245 Y110.156 E9.25068
G1 X116.851 Y110.339 E9.29838
G1 X116.432 Y110.452 E9.34609
G1 X116.000 Y110.489 E9.39381
G1 X115.568 Y110.452 E9.44152
G1 X115.149 Y110.339 E9.48924
G1 X114.755 Y110.156 E9.53694
G1 X114.400 Y109.907 E9.58465
G1 X114.093 Y109.600 E9.63237
G1 X113.844 Y109.245 E9.68009
G1 X113.661 Y108.851 E9.72780
G1 X113.548 Y108.432 E9.77551
G1 X113.514 Y108.043 E9.81848
G1 X113.514 Y91.957 E11.58722
G1 X113.548 Y91.568 E11.63019
G1 X113.661 Y91.149 E11.67791
G1 X113.844 Y90.755 E11.72562
G1 X114.093 Y90.400 E11.77333
G1 X114.400 Y90.093 E11.82105
G1 X114.755 Y89.844 E11.86876
G1 X115.059 Y89.702 E11.90564
G1 X115.374 Y90.281 F7800.000
G1 X115.734 Y90.194 F378.000 E11.94631
G1 X116.000 Y90.170 E11.97571
G1 X116.318 Y90.198 E12.01078
G1 X116.626 Y90.281 E12.04585
G1 X116.915 Y90.415 E12.08092
G1 X117.176 Y90.598 E12.11599
G1 X117.402 Y90.824 E12.15106
G1 X117.585 Y91.085 E12.18613
G1 X117.719 Y91.374 E12.22120
G1 X117.802 Y91.682 E12.25627
G1 X117.829 Y91.986 E12.28976
G1 X117.829 Y108.014 E14.05221
G1 X117.802 Y108.318 E14.08569
G1 X117.719 Y108.626 E14.12076
G1 X117.585 Y108.915 E14.15583
G1 X117.402 Y109.176 E14.19091
G1 X117.176 Y109.402 E14.22598
G1 X116.915 Y109.585 E14.26105
G1 X116.626 Y109.719 E14.29612
G1 X116.318 Y109.802 E14.33119
G1 X116.000 Y109.830 E14.36626
G1 X115.682 Y109.802 E14.40133
G1 X115.374 Y109.719 E14.43640
G1 X115.085 Y109.585 E14.47147
G1 X114.824 Y109.402 E14.50654
G1 X114.598 Y109.176 E14.54161
G1 X114.415 Y108.915 E14.57669
G1 X114.281 Y108.626 E14.61175
G1 X114.198 Y108.318 E14.64682
G1 X114.171 Y108.014 E14.68031
G1 X114.171 Y91.986 E16.44276
G1 X114.198 Y91.682 E16.47625
G1 X114.281 Y91.374 E16.51132
G1 X114.415 Y91.085 E16.54639
G1 X114.598 Y90.824 E16.58146
G1 X114.824 Y90.598 E16.61653
G1 X115.085 Y90.415 E16.65160
G1 X115.285 Y90.322 E16.67584
G1 X115.646 Y90.531 F7800.000
G1 F1800.000 E15.67584
G92 E0
G1 X115.250 Y111.851 F7800.000
G1 F1800.000 E1.00000
G1 X115.840 Y111.903 F540.000 E1.06515
G1 X116.412 Y112.056 E1.13029
G1 X116.567 Y112.128 E1.14903
G1 X116.949 Y112.306 E1.19544
G1 X117.435 Y112.646 E1.26059
G1 X117.854 Y113.065 E1.32574
G1 X118.194 Y113.550 E1.39088
G1 X118.444 Y114.087 E1.45602
G1 X118.597 Y114.660 E1.52119
G1 X118.649 Y115.250 E1.58634
G1 X118.597 Y115.840 E1.65148
G1 X118.444 Y116.413 E1.71662
G1 X118.194 Y116.949 E1.78176
G1 X117.854 Y117.435 E1.84691
G1 X117.435 Y117.854 E1.91207
G1 X116.949 Y118.194 E1.97721
G1 X116.413 Y118.444 E2.04234
G1 X115.840 Y118.597 E2.10751
G1 X115.250 Y118.649 E2.17266
G1 X114.660 Y118.597 E2.23780
G1 X114.087 Y118.444 E2.30294
G1 X113.551 Y118.194 E2.36808
G1 X113.065 Y117.854 E2.43324
G1 X112.646 Y117.435 E2.49837
G1 X112.306 Y116.949 E2.56353
G1 X112.056 Y116.413 E2.62867
G1 X111.903 Y115.840 E2.69381
G1 X111.851 Y115.250 E2.75896
G1 X111.903 Y114.660 E2.82411
G1 X112.056 Y114.087 E2.88926
G1 X112.306 Y113.551 E2.95440
G1 X112.646 Y113.065 E3.01955
G1 X113.065 Y112.646 E3.08469
G1 X113.550 Y112.306 E3.14984
G1 X114.087 Y112.056 E3.21499
G1 X114.660 Y111.903 E3.28013
G1 X115.152 Y111.860 E3.33444
G1 X115.250 Y112.511 F7800.000
G1 X115.726 Y112.552 F540.000 E3.38695
G1 X116.187 Y112.676 E3.43945
G1 X116.289 Y112.724 E3.45187
G1 X116.620 Y112.878 E3.49195
G1 X117.011 Y113.151 E3.54446
G1 X117.349 Y113.489 E3.59697
G1 X117.622 Y113.880 E3.64947
G1 X117.824 Y114.313 E3.70197
G1 X117.948 Y114.774 E3.75448
G1 X117.989 Y115.250 E3.80699
G1 X117.948 Y115.726 E3.85949
G1 X117.824 Y116.187 E3.91199
G1 X117.622 Y116.620 E3.96450
G1 X117.349 Y117.011 E4.01700
G1 X117.011 Y117.349 E4.06951
G1 X116.620 Y117.622 E4.12201
G1 X116.187 Y117.824 E4.17451
G1 X115.726 Y117.948 E4.22703
G1 X115.250 Y117.989 E4.27953
G1 X114.774 Y117.948 E4.33203
G1 X114.313 Y117.824 E4.38454
G1 X113.880 Y117.622 E4.43704
G1 X113.489 Y117.348 E4.48955
G1 X113.152 Y117.011 E4.54204
G1 X112.878 Y116.620 E4.59456
G1 X112.676 Y116.187 E4.64706
G1 X112.552 Y115.726 E4.69956
G1 X112.511 Y115.250 E4.75206
G1 X112.552 Y114.774 E4.80457
G1 X112.676 Y114.313 E4.85708
G1 X112.878 Y113.880 E4.90958
G1 X113.152 Y113.489 E4.96209
G1 X113.489 Y113.152 E5.01458
G1 X113.880 Y112.878 E5.06709
G1 X114.313 Y112.676 E5.11960
G1 X114.774 Y112.552 E5.17210
G1 X115.152 Y112.519 E5.21377
G1 X115.250 Y113.170 F7800.000
G1 X115.611 Y113.202 F540.000 E5.25363
G1 X116.012 Y113.319 E5.29951
G1 X116.290 Y113.449 E5.33327
G1 X116.587 Y113.657 E5.37314
G1 X116.843 Y113.913 E5.41300
G1 X117.051 Y114.210 E5.45286
G1 X117.204 Y114.539 E5.49272
G1 X117.298 Y114.889 E5.53259
G1 X117.330 Y115.250 E5.57245
G1 X117.298 Y115.611 E5.61231
G1 X117.181 Y116.012 E5.65819
G1 X117.051 Y116.290 E5.69196
