; generated by Slic3r 0.9.10b on 2014-02-03 at 13:29:35

; layer_height = 0.4
; perimeters = 3
; top_solid_layers = 3
; bottom_solid_layers = 3
; fill_density = 0.2
; perimeter_speed = 30
; infill_speed = 60
; travel_speed = 130
; nozzle_diameter = 0.5
; filament_diameter = 1.75
; extrusion_multiplier = 1.15
; perimeters extrusion width = 0.53mm
; infill extrusion width = 0.53mm
; solid infill extrusion width = 0.53mm
; top infill extrusion width = 0.53mm
; first layer extrusion width = 0.70mm

G21 ; set units to millimeters
M107
M104 S190 ; set temperature
G28 ; home all axes
G1 Z5 F5000 ; lift nozzle
M109 S190 ; wait for temperature to be reached
G90 ; use absolute coordinates
G92 E0
M82 ; use absolute distances for extrusion
G1 F1800.000 E-1.00000
G92 E0
G1 Z0.700 F7800.000
G1 X80.479 Y82.707
G1 F1800.000 E1.00000
G1 X81.489 Y81.877 F540.000 E1.14374
G1 X82.639 Y81.267 E1.28688
G1 X83.889 Y80.887 E1.43054
G1 X85.189 Y80.757 E1.57419
G1 X116.559 Y80.757 E5.02350
G1 X117.859 Y80.887 E5.16716
G1 X119.109 Y81.267 E5.31081
G1 X120.259 Y81.877 E5.45395
G1 X121.269 Y82.707 E5.59769
G1 X122.589 Y84.027 E5.80296
G1 X123.419 Y85.037 E5.94670
G1 X124.029 Y86.187 E6.08984
G1 X124.409 Y87.437 E6.23349
G1 X124.539 Y88.737 E6.37715
G1 X124.539 Y111.257 E8.85335
G1 X124.409 Y112.557 E8.99701
G1 X124.029 Y113.807 E9.14066
G1 X123.419 Y114.957 E9.28380
G1 X122.589 Y115.967 E9.42754
G1 X121.269 Y117.287 E9.63280
G1 X120.259 Y118.117 E9.77655
G1 X119.109 Y118.727 E9.91968
G1 X117.859 Y119.107 E10.06334
G1 X116.559 Y119.237 E10.20699
G1 X85.189 Y119.237 E13.65631
G1 X83.889 Y119.107 E13.79996
G1 X82.639 Y118.727 E13.94362
G1 X81.489 Y118.117 E14.08675
G1 X80.479 Y117.287 E14.23050
G1 X79.159 Y115.967 E14.43576
G1 X78.329 Y114.957 E14.57950
G1 X77.719 Y113.807 E14.72264
G1 X77.339 Y112.557 E14.86629
G1 X77.209 Y111.257 E15.00995
G1 X77.209 Y88.737 E17.48615
G1 X77.339 Y87.437 E17.62981
G1 X77.719 Y86.187 E17.77346
G1 X78.329 Y85.037 E17.91660
G1 X79.159 Y84.027 E18.06034
G1 X80.409 Y82.777 E18.25477
G1 F1800.000 E17.25477
G92 E0
G1 X85.872 Y89.060 F7800.000
G1 F1800.000 E1.00000
G1 X115.881 Y89.060 F540.000 E4.29962
G1 X116.238 Y89.417 E4.35525
G1 X116.238 Y110.583 E6.68247
G1 X115.881 Y110.940 E6.73810
G1 X85.872 Y110.940 E10.03772
G1 X85.514 Y110.583 E10.09335
G1 X85.514 Y89.417 E12.42057
G1 X85.802 Y89.129 E12.46536
G1 F1800.000 E11.46536
G92 E0
G1 X85.600 Y111.597 F7800.000
G1 F1800.000 E1.00000
G1 X84.857 Y110.855 F540.000 E1.11548
G1 X84.857 Y89.145 E3.50255
G1 X85.600 Y88.403 E3.61803
G1 X116.153 Y88.403 E6.97751
G1 X116.896 Y89.145 E7.09299
G1 X116.896 Y110.855 E9.48006
G1 X116.153 Y111.597 E9.59554
G1 X85.699 Y111.597 E12.94418
G1 X85.182 Y112.109 F7800.000
G1 X84.200 Y111.127 F378.000 E13.09690
G1 X84.200 Y88.873 E15.54383
G1 X85.328 Y87.746 E15.71916
G1 X116.425 Y87.746 E19.13849
G1 X117.553 Y88.873 E19.31383
G1 X117.553 Y111.127 E21.76075
G1 X116.425 Y112.254 E21.93609
G1 X85.328 Y112.254 E25.35542
G1 X85.252 Y112.179 E25.36720
G1 X85.352 Y111.474 F7800.000
G1 X86.434 Y110.464
G1 X85.991 Y110.020 F1080.000 E25.43673
G1 X85.991 Y109.084 E25.54052
G1 X87.371 Y110.464 E25.75684
G1 X88.307 Y110.464 E25.86064
G1 X85.991 Y108.147 E26.22375
G1 X85.991 Y107.211 E26.32754
G1 X89.244 Y110.464 E26.83744
G1 X90.181 Y110.464 E26.94123
G1 X85.991 Y106.274 E27.59792
G1 X85.991 Y105.337 E27.70172
G1 X91.117 Y110.464 E28.50519
G1 X92.054 Y110.464 E28.60899
G1 X85.991 Y104.401 E29.55925
G1 X85.991 Y103.464 E29.66305
G1 X92.990 Y110.464 E30.76010
G1 X93.927 Y110.464 E30.86389
G1 X85.991 Y102.528 E32.10774
G1 X85.991 Y101.591 E32.21153
G1 X94.864 Y110.464 E33.60216
G1 X95.800 Y110.464 E33.70596
G1 X85.991 Y100.655 E35.24338
G1 X85.991 Y99.718 E35.34717
G1 X96.737 Y110.464 E37.03138
G1 X97.673 Y110.464 E37.13518
G1 X85.991 Y98.781 E38.96618
G1 X85.991 Y97.845 E39.06997
G1 X98.610 Y110.464 E41.04776
G1 X99.546 Y110.464 E41.15155
G1 X85.991 Y96.908 E43.27613
G1 X85.991 Y95.972 E43.37992
G1 X100.483 Y110.464 E45.65129
G1 X101.420 Y110.464 E45.75508
G1 X85.991 Y95.035 E48.17324
G1 X85.991 Y94.098 E48.27703
G1 X102.356 Y110.464 E50.84197
G1 X103.293 Y110.464 E50.94577
G1 X85.991 Y93.162 E53.65750
G1 X85.991 Y92.225 E53.76130
G1 X104.229 Y110.464 E56.61982
G1 X105.166 Y110.464 E56.72361
G1 X85.991 Y91.289 E59.72892
G1 X85.991 Y90.352 E59.83272
G1 X106.103 Y110.464 E62.98481
G1 X107.039 Y110.464 E63.08861
G1 X86.111 Y89.536 E66.36861
G1 X87.048 Y89.536 E66.47241
G1 X107.976 Y110.464 E69.75241
G1 X108.912 Y110.464 E69.85620
G1 X87.984 Y89.536 E73.13620
G1 X88.921 Y89.536 E73.24000
G1 X109.849 Y110.464 E76.52000
G1 X110.785 Y110.464 E76.62380
G1 X89.857 Y89.536 E79.90380
G1 X90.794 Y89.536 E80.00759
G1 X111.722 Y110.464 E83.28759
G1 X112.659 Y110.464 E83.39139
G1 X91.731 Y89.536 E86.67139
G1 X92.667 Y89.536 E86.77519
G1 X113.595 Y110.464 E90.05519
G1 X114.532 Y110.464 E90.15898
G1 X93.604 Y89.536 E93.43898
G1 X94.540 Y89.536 E93.54278
G1 X115.468 Y110.464 E96.82278
G1 X115.762 Y109.821 E96.90110
G1 X95.477 Y89.536 E100.08037
G1 X96.414 Y89.536 E100.18416
G1 X115.762 Y108.885 E103.21664
G1 X115.762 Y107.948 E103.32044
G1 X97.350 Y89.536 E106.20612
G1 X98.287 Y89.536 E106.30992
G1 X115.762 Y107.012 E109.04882
G1 X115.762 Y106.075 E109.15261
G1 X99.223 Y89.536 E111.74472
G1 X100.160 Y89.536 E111.84852
G1 X115.762 Y105.138 E114.29384
G1 X115.762 Y104.202 E114.39763
G1 X101.096 Y89.536 E116.69617
G1 X102.033 Y89.536 E116.79996
G1 X115.762 Y103.265 E118.95170
G1 X115.762 Y102.329 E119.05550
G1 X102.970 Y89.536 E121.06045
G1 X103.906 Y89.536 E121.16425
G1 X115.762 Y101.392 E123.02242
G1 X115.762 Y100.455 E123.12621
G1 X104.843 Y89.536 E124.83759
G1 X105.779 Y89.536 E124.94138
G1 X115.762 Y99.519 E126.50597
G1 X115.762 Y98.582 E126.60976
G1 X106.716 Y89.536 E128.02756
G1 X107.653 Y89.536 E128.13136
G1 X115.762 Y97.646 E129.40237
G1 X115.762 Y96.709 E129.50616
G1 X108.589 Y89.536 E130.63038
G1 X109.526 Y89.536 E130.73418
G1 X115.762 Y95.772 E131.71161
G1 X115.762 Y94.836 E131.81541
G1 X110.462 Y89.536 E132.64605
G1 X111.399 Y89.536 E132.74984
G1 X115.762 Y93.899 E133.43370
G1 X115.762 Y92.963 E133.53749
G1 X112.335 Y89.536 E134.07456
G1 X113.272 Y89.536 E134.17835
G1 X115.762 Y92.026 E134.56863
G1 X115.762 Y91.090 E134.67243
G1 X114.209 Y89.536 E134.91591
G1 X115.145 Y89.536 E135.01971
G1 X115.762 Y90.153 E135.11641
M106 S606
M104 S185 ; set temperature
G1 F1800.000 E134.11641
G92 E0
G1 Z1.100 F7800.000
G1 X116.582 Y89.275
G1 F1800.000 E1.00000
G1 X116.582 Y110.725 F1800.000 E3.13163
G1 X116.023 Y111.284 E3.21019
G1 X85.730 Y111.284 E6.22068
G1 X85.171 Y110.725 E6.29925
G1 X85.171 Y89.275 E8.43087
G1 X85.730 Y88.716 E8.50944
G1 X116.023 Y88.716 E11.51993
G1 X116.527 Y89.220 E11.59074
G1 F1800.000 E10.59074
G92 E0
G1 X85.515 Y88.197 F7800.000
G1 F1800.000 E1.00000
G1 X116.238 Y88.197 F1800.000 E4.05327
G1 X117.102 Y89.060 E4.17461
G1 X117.102 Y110.940 E6.34902
G1 X116.238 Y111.804 E6.47037
G1 X85.515 Y111.804 E9.52363
G1 X84.651 Y110.940 E9.64498
G1 X84.651 Y89.060 E11.81939
G1 X85.459 Y88.252 E11.93299
G1 X85.299 Y87.677 F7800.000
G1 X116.454 Y87.677 F1260.000 E15.02903
G1 X117.621 Y88.845 E15.19316
G1 X117.621 Y111.155 E17.41035
G1 X116.454 Y112.323 E17.57447
G1 X85.299 Y112.323 E20.67052
G1 X84.132 Y111.155 E20.83465
G1 X84.132 Y88.845 E23.05184
G1 X85.244 Y87.732 E23.20821
G1 X85.667 Y88.044 F7800.000
G1 X86.335 Y89.093
G1 X85.547 Y89.880 F3600.000 E23.31909
G1 X85.547 Y90.616 E23.39244
G1 X87.071 Y89.093 E23.60704
G1 X87.808 Y89.093 E23.68039
G1 X85.547 Y91.353 E23.99872
G1 X85.547 Y92.089 E24.07206
G1 X88.544 Y89.093 E24.49412
G1 X89.280 Y89.093 E24.56746
G1 X85.547 Y92.826 E25.09325
G1 X85.547 Y93.562 E25.16659
G1 X90.017 Y89.093 E25.79610
G1 X90.753 Y89.093 E25.86945
G1 X85.547 Y94.299 E26.60268
G1 X85.547 Y95.035 E26.67603
G1 X91.490 Y89.093 E27.51299
G1 X92.226 Y89.093 E27.58634
G1 X85.547 Y95.772 E28.52703
G1 X85.547 Y96.508 E28.60037
G1 X92.963 Y89.093 E29.64479
G1 X93.699 Y89.093 E29.71813
G1 X85.547 Y97.245 E30.86628
G1 X85.547 Y97.981 E30.93962
G1 X94.436 Y89.093 E32.19149
G1 X95.172 Y89.093 E32.26484
G1 X85.547 Y98.717 E33.62043
G1 X85.547 Y99.454 E33.69378
G1 X95.909 Y89.093 E35.15310
G1 X96.645 Y89.093 E35.22644
G1 X85.547 Y100.190 E36.78949
G1 X85.547 Y100.927 E36.86284
G1 X97.382 Y89.093 E38.52961
G1 X98.118 Y89.093 E38.60296
G1 X85.547 Y101.663 E40.37346
G1 X85.547 Y102.400 E40.44681
G1 X98.854 Y89.093 E42.32103
G1 X99.591 Y89.093 E42.39438
G1 X85.547 Y103.136 E44.37233
G1 X85.547 Y103.873 E44.44568
G1 X100.327 Y89.093 E46.52736
G1 X101.064 Y89.093 E46.60071
G1 X85.547 Y104.609 E48.78611
G1 X85.547 Y105.346 E48.85946
G1 X101.800 Y89.093 E51.14859
G1 X102.537 Y89.093 E51.22194
G1 X85.547 Y106.082 E53.61480
G1 X85.547 Y106.819 E53.68815
G1 X103.273 Y89.093 E56.18473
G1 X104.010 Y89.093 E56.25808
G1 X85.547 Y107.555 E58.85839
G1 X85.547 Y108.291 E58.93174
G1 X104.746 Y89.093 E61.63578
G1 X105.483 Y89.093 E61.70912
G1 X85.547 Y109.028 E64.51689
G1 X85.547 Y109.764 E64.59024
G1 X106.219 Y89.093 E67.50173
G1 X106.955 Y89.093 E67.57508
G1 X85.547 Y110.501 E70.59030
G1 X85.882 Y110.903 E70.64238
G1 X107.692 Y89.093 E73.71425
G1 X108.428 Y89.093 E73.78760
G1 X86.614 Y110.907 E76.86006
G1 X87.350 Y110.907 E76.93340
G1 X109.165 Y89.093 E80.00586
G1 X109.901 Y89.093 E80.07921
G1 X88.087 Y110.907 E83.15167
G1 X88.823 Y110.907 E83.22501
G1 X110.638 Y89.093 E86.29747
G1 X111.374 Y89.093 E86.37082
G1 X89.560 Y110.907 E89.44328
G1 X90.296 Y110.907 E89.51663
G1 X112.111 Y89.093 E92.58909
G1 X112.847 Y89.093 E92.66243
G1 X91.033 Y110.907 E95.73489
G1 X91.769 Y110.907 E95.80824
G1 X113.584 Y89.093 E98.88070
G1 X114.320 Y89.093 E98.95404
G1 X92.506 Y110.907 E102.02650
G1 X93.242 Y110.907 E102.09985
G1 X115.057 Y89.093 E105.17231
G1 X115.793 Y89.093 E105.24565
G1 X93.979 Y110.907 E108.31811
G1 X94.715 Y110.907 E108.39146
G1 X116.198 Y89.424 E111.41727
G1 X116.205 Y90.153 E111.48991
G1 X95.451 Y110.907 E114.41301
G1 X96.188 Y110.907 E114.48635
G1 X116.205 Y90.890 E117.30573
G1 X116.205 Y91.626 E117.37908
G1 X96.924 Y110.907 E120.09473
G1 X97.661 Y110.907 E120.16807
G1 X116.205 Y92.363 E122.77999
G1 X116.205 Y93.099 E122.85334
G1 X98.397 Y110.907 E125.36154
G1 X99.134 Y110.907 E125.43488
G1 X116.205 Y93.835 E127.83935
G1 X116.205 Y94.572 E127.91270
G1 X99.870 Y110.907 E130.21344
G1 X100.607 Y110.907 E130.28679
G1 X116.205 Y95.308 E132.48381
G1 X116.205 Y96.045 E132.55715
G1 X101.343 Y110.907 E134.65044
G1 X102.080 Y110.907 E134.72379
G1 X116.205 Y96.781 E136.71335
G1 X116.205 Y97.518 E136.78670
G1 X102.816 Y110.907 E138.67253
G1 X103.552 Y110.907 E138.74588
G1 X116.205 Y98.254 E140.52799
G1 X116.205 Y98.991 E140.60134
G1 X104.289 Y110.907 E142.27972
G1 X105.025 Y110.907 E142.35307
G1 X116.205 Y99.727 E143.92772
G1 X116.205 Y100.464 E144.00107
G1 X105.762 Y110.907 E145.47200
G1 X106.498 Y110.907 E145.54535
G1 X116.205 Y101.200 E146.91255
G1 X116.205 Y101.937 E146.98590
G1 X107.235 Y110.907 E148.24938
G1 X107.971 Y110.907 E148.32272
G1 X116.205 Y102.673 E149.48247
G1 X116.205 Y103.409 E149.55582
G1 X108.708 Y110.907 E150.61184
G1 X109.444 Y110.907 E150.68519
G1 X116.205 Y104.146 E151.63749
G1 X116.205 Y104.882 E151.71083
G1 X110.181 Y110.907 E152.55941
G1 X110.917 Y110.907 E152.63275
G1 X116.205 Y105.619 E153.37760
G1 X116.205 Y106.355 E153.45094
G1 X111.654 Y110.907 E154.09206
G1 X112.390 Y110.907 E154.16541
G1 X116.205 Y107.092 E154.70280
G1 X116.205 Y107.828 E154.77615
G1 X113.126 Y110.907 E155.20981
G1 X113.863 Y110.907 E155.28316
G1 X116.205 Y108.565 E155.61310
G1 X116.205 Y109.301 E155.68644
G1 X114.599 Y110.907 E155.91266
G1 X115.336 Y110.907 E155.98600
G1 X116.205 Y110.038 E156.10849
M106 S606
G1 F1800.000 E155.10849
G92 E0
G1 Z1.500 F7800.000
G1 X116.582 Y110.725
G1 F1800.000 E1.00000
G1 X116.023 Y111.284 F1800.000 E1.07856
G1 X85.730 Y111.284 E4.08905
G1 X85.171 Y110.725 E4.16762
G1 X85.171 Y89.275 E6.29925
G1 X85.730 Y88.716 E6.37781
G1 X116.023 Y88.716 E9.38830
G1 X116.582 Y89.275 E9.46686
G1 X116.582 Y110.647 E11.59075
G1 F1800.000 E10.59075
G92 E0
G1 X84.651 Y89.060 F7800.000
G1 F1800.000 E1.00000
G1 X85.515 Y88.197 F1800.000 E1.12134
G1 X116.238 Y88.197 E4.17461
G1 X117.102 Y89.060 E4.29596
G1 X117.102 Y110.940 E6.47037
G1 X116.238 Y111.804 E6.59171
G1 X85.515 Y111.804 E9.64498
G1 X84.651 Y110.940 E9.76632
G1 X84.651 Y89.138 E11.93299
G1 X84.132 Y88.845 F7800.000
G1 X85.299 Y87.677 F1260.000 E12.09711
G1 X116.454 Y87.677 E15.19316
G1 X117.621 Y88.845 E15.35728
G1 X117.621 Y111.155 E17.57447
G1 X116.454 Y112.323 E17.73860
G1 X85.299 Y112.323 E20.83465
G1 X84.132 Y111.155 E20.99877
G1 X84.132 Y88.923 E23.20821
G1 X84.651 Y88.845 F7800.000
G1 F1800.000 E22.20821
G92 E0
G1 X86.221 Y110.907 F7800.000
G1 F1800.000 E1.00000
G1 X85.547 Y110.233 F3600.000 E1.09490
G1 X85.547 Y109.497 E1.16824
G1 X86.958 Y110.907 E1.36686
G1 X87.694 Y110.907 E1.44021
G1 X85.547 Y108.761 E1.74256
G1 X85.547 Y108.024 E1.81590
G1 X88.431 Y110.907 E2.22198
G1 X89.167 Y110.907 E2.29532
G1 X85.547 Y107.288 E2.80513
G1 X85.547 Y106.551 E2.87847
G1 X89.903 Y110.907 E3.49200
G1 X90.640 Y110.907 E3.56535
G1 X85.547 Y105.815 E4.28260
G1 X85.547 Y105.078 E4.35595
G1 X91.376 Y110.907 E5.17693
G1 X92.113 Y110.907 E5.25027
G1 X85.547 Y104.342 E6.17498
G1 X85.547 Y103.605 E6.24833
G1 X92.849 Y110.907 E7.27676
G1 X93.586 Y110.907 E7.35011
G1 X85.547 Y102.869 E8.48227
G1 X85.547 Y102.132 E8.55562
G1 X94.322 Y110.907 E9.79150
G1 X95.059 Y110.907 E9.86485
G1 X85.547 Y101.396 E11.20446
G1 X85.547 Y100.660 E11.27781
G1 X95.795 Y110.907 E12.72115
G1 X96.532 Y110.907 E12.79450
G1 X85.547 Y99.923 E14.34156
G1 X85.547 Y99.187 E14.41491
G1 X97.268 Y110.907 E16.06570
G1 X98.005 Y110.907 E16.13905
G1 X85.547 Y98.450 E17.89357
G1 X85.547 Y97.714 E17.96691
G1 X98.741 Y110.907 E19.82516
G1 X99.477 Y110.907 E19.89851
G1 X85.547 Y96.977 E21.86048
G1 X85.547 Y96.241 E21.93383
G1 X100.214 Y110.907 E23.99953
G1 X100.950 Y110.907 E24.07287
G1 X85.547 Y95.504 E26.24230
G1 X85.547 Y94.768 E26.31564
G1 X101.687 Y110.907 E28.58880
G1 X102.423 Y110.907 E28.66214
G1 X85.547 Y94.031 E31.03902
G1 X85.547 Y93.295 E31.11237
G1 X103.160 Y110.907 E33.59297
G1 X103.896 Y110.907 E33.66632
G1 X85.547 Y92.558 E36.25065
G1 X85.547 Y91.822 E36.32400
G1 X104.633 Y110.907 E39.01206
G1 X105.369 Y110.907 E39.08540
G1 X85.547 Y91.086 E41.87719
G1 X85.547 Y90.349 E41.95054
G1 X106.106 Y110.907 E44.84605
G1 X106.842 Y110.907 E44.91939
G1 X85.547 Y89.613 E47.91863
G1 X85.825 Y89.154 E47.97205
G1 X107.578 Y110.907 E51.03593
G1 X108.315 Y110.907 E51.10928
G1 X86.500 Y89.093 E54.18174
G1 X87.237 Y89.093 E54.25508
G1 X109.051 Y110.907 E57.32754
G1 X109.788 Y110.907 E57.40089
G1 X87.973 Y89.093 E60.47335
G1 X88.710 Y89.093 E60.54669
G1 X110.524 Y110.907 E63.61915
G1 X111.261 Y110.907 E63.69250
G1 X89.446 Y89.093 E66.76496
G1 X90.183 Y89.093 E66.83830
G1 X111.997 Y110.907 E69.91076
G1 X112.734 Y110.907 E69.98411
G1 X90.919 Y89.093 E73.05657
G1 X91.656 Y89.093 E73.12991
G1 X113.470 Y110.907 E76.20237
G1 X114.207 Y110.907 E76.27572
G1 X92.392 Y89.093 E79.34818
G1 X93.129 Y89.093 E79.42152
G1 X114.943 Y110.907 E82.49398
G1 X115.680 Y110.907 E82.56733
G1 X93.865 Y89.093 E85.63979
G1 X94.602 Y89.093 E85.71314
G1 X116.142 Y110.633 E88.74694
G1 X116.205 Y109.960 E88.81422
G1 X95.338 Y89.093 E91.75330
G1 X96.074 Y89.093 E91.82665
G1 X116.205 Y109.224 E94.66200
G1 X116.205 Y108.487 E94.73535
G1 X96.811 Y89.093 E97.46698
G1 X97.547 Y89.093 E97.54033
G1 X116.205 Y107.751 E100.16823
G1 X116.205 Y107.014 E100.24158
G1 X98.284 Y89.093 E102.76575
G1 X99.020 Y89.093 E102.83910
G1 X116.205 Y106.278 E105.25955
G1 X116.205 Y105.542 E105.33290
G1 X99.757 Y89.093 E107.64962
G1 X100.493 Y89.093 E107.72297
G1 X116.205 Y104.805 E109.93596
G1 X116.205 Y104.069 E110.00931
G1 X101.230 Y89.093 E112.11858
G1 X101.966 Y89.093 E112.19193
G1 X116.205 Y103.332 E114.19747
G1 X116.205 Y102.596 E114.27082
G1 X102.703 Y89.093 E116.17263
G1 X103.439 Y89.093 E116.24598
G1 X116.205 Y101.859 E118.04407
G1 X116.205 Y101.123 E118.11742
G1 X104.175 Y89.093 E119.81178
G1 X104.912 Y89.093 E119.88513
G1 X116.205 Y100.386 E121.47577
G1 X116.205 Y99.650 E121.54911
