; generated by Slic3r 0.9.10b on 2014-02-08 at 02:02:08

; layer_height = 0.25
; perimeters = 3
; top_solid_layers = 3
; bottom_solid_layers = 3
; fill_density = 0.2
; perimeter_speed = 30
; infill_speed = 60
; travel_speed = 130
; nozzle_diameter = 0.35
; filament_diameter = 1.75
; extrusion_multiplier = 1.2
; perimeters extrusion width = 0.39mm
; infill extrusion width = 0.39mm
; solid infill extrusion width = 0.39mm
; top infill extrusion width = 0.39mm
; first layer extrusion width = 0.50mm

G21 ; set units to millimeters
M107
M104 S195 ; set temperature
G28 ; home all axes
G1 Z5 F5000 ; lift nozzle
M109 S195 ; wait for temperature to be reached
G90 ; use absolute coordinates
G92 E0
M82 ; use absolute distances for extrusion
G1 F1800.000 E-1.00000
G92 E0
G1 Z0.550 F7800.000
G1 X46.689 Y43.939
G1 F1800.000 E1.00000
G1 X47.159 Y43.509 F540.000 E1.03717
G1 X52.089 Y39.469 E1.40907
G1 X52.599 Y39.089 E1.44618
G1 X53.149 Y38.759 E1.48361
G1 X58.769 Y35.769 E1.85504
G1 X59.339 Y35.499 E1.89184
G1 X59.929 Y35.289 E1.92838
G1 X66.019 Y33.439 E2.29975
G1 X66.639 Y33.289 E2.33697
G1 X67.259 Y33.189 E2.37362
G1 X73.419 Y32.579 E2.73480
G1 X74.229 Y32.529 E2.78215
G1 X74.889 Y32.559 E2.82070
G1 X81.229 Y33.189 E3.19245
G1 X81.859 Y33.289 E3.22966
G1 X82.469 Y33.439 E3.26632
G1 X88.559 Y35.289 E3.63769
G1 X89.149 Y35.499 E3.67423
G1 X89.719 Y35.769 E3.71103
G1 X95.339 Y38.759 E4.08247
G1 X95.889 Y39.089 E4.11989
G1 X96.399 Y39.469 E4.15700
G1 X101.329 Y43.509 E4.52890
G1 X102.029 Y44.169 E4.58504
G1 X153.519 Y101.179 E9.06733
G1 X157.759 Y106.349 E9.45746
G1 X158.139 Y106.859 E9.49457
G1 X158.459 Y107.399 E9.53120
G1 X161.459 Y113.009 E9.90239
G1 X161.739 Y113.579 E9.93945
G1 X161.949 Y114.179 E9.97654
G1 X163.799 Y120.279 E10.34847
G1 X163.949 Y120.899 E10.38569
G1 X164.049 Y121.529 E10.42291
G1 X164.669 Y127.869 E10.79460
G1 X164.699 Y128.499 E10.83140
G1 X164.669 Y129.129 E10.86820
G1 X164.049 Y135.459 E11.23931
G1 X163.949 Y136.089 E11.27653
G1 X163.799 Y136.709 E11.31375
G1 X161.949 Y142.809 E11.68568
G1 X161.739 Y143.399 E11.72222
G1 X161.469 Y143.979 E11.75955
G1 X158.469 Y149.599 E12.13126
G1 X158.139 Y150.139 E12.16818
G1 X157.759 Y150.649 E12.20529
G1 X153.719 Y155.569 E12.57674
G1 X153.289 Y156.039 E12.61391
G1 X152.819 Y156.469 E12.65108
G1 X147.899 Y160.509 E13.02253
G1 X147.389 Y160.889 E13.05964
G1 X146.849 Y161.219 E13.09657
G1 X141.229 Y164.219 E13.46828
G1 X140.649 Y164.489 E13.50561
G1 X140.059 Y164.699 E13.54215
G1 X133.969 Y166.549 E13.91352
G1 X133.359 Y166.699 E13.95017
G1 X132.729 Y166.799 E13.98739
G1 X126.389 Y167.429 E14.35914
G1 X125.759 Y167.459 E14.39594
G1 X125.119 Y167.429 E14.43332
G1 X118.779 Y166.809 E14.80501
G1 X118.149 Y166.709 E14.84223
G1 X117.529 Y166.559 E14.87945
G1 X111.429 Y164.709 E15.25138
G1 X110.839 Y164.499 E15.28792
G1 X110.259 Y164.229 E15.32525
G1 X104.639 Y161.229 E15.69696
G1 X104.099 Y160.899 E15.73389
G1 X103.589 Y160.519 E15.77099
G1 X98.669 Y156.479 E16.14245
G1 X97.969 Y155.819 E16.19858
G1 X46.459 Y98.819 E20.68123
G1 X42.219 Y93.649 E21.07136
G1 X41.839 Y93.139 E21.10847
G1 X41.509 Y92.599 E21.14539
G1 X38.509 Y86.979 E21.51710
G1 X38.239 Y86.399 E21.55443
G1 X38.029 Y85.809 E21.59097
G1 X36.179 Y79.719 E21.96234
G1 X36.029 Y79.099 E21.99956
G1 X35.929 Y78.469 E22.03678
G1 X35.309 Y72.129 E22.40847
G1 X35.279 Y71.499 E22.44527
G1 X35.309 Y70.869 E22.48207
G1 X35.929 Y64.519 E22.85434
G1 X36.029 Y63.889 E22.89156
G1 X36.179 Y63.269 E22.92878
G1 X38.029 Y57.179 E23.30015
G1 X38.239 Y56.589 E23.33670
G1 X38.509 Y56.009 E23.37402
G1 X41.509 Y50.389 E23.74573
G1 X41.839 Y49.849 E23.78266
G1 X42.219 Y49.339 E23.81977
G1 X46.259 Y44.409 E24.19167
G1 X46.642 Y43.991 E24.22475
G1 X47.159 Y43.509 F7800.000 E24.02082
G1 X49.294 Y41.760 E23.22475
G92 E0
G1 X53.443 Y49.987
G1 F1800.000 E1.00000
G1 X57.902 Y46.328 F540.000 E1.33657
G1 X62.990 Y43.609 E1.67315
G1 X63.237 Y43.533 E1.68824
G1 X68.510 Y41.934 E2.00972
G1 X74.250 Y41.369 E2.34627
G1 X79.991 Y41.934 E2.68285
G1 X85.510 Y43.608 E3.01939
G1 X90.598 Y46.328 E3.35600
G1 X95.057 Y49.987 E3.69256
G1 X98.625 Y54.335 E4.02075
G1 X98.716 Y54.446 E4.02912
G1 X101.435 Y59.533 E4.36565
G1 X103.110 Y65.052 E4.70221
G1 X103.373 Y67.724 E4.85881
G1 X78.026 Y67.724 E6.33770
G1 X78.026 Y44.409 E7.69808
G1 X73.300 Y44.409 E7.97389
G1 X73.300 Y67.724 E9.33427
G1 X48.572 Y67.724 E10.77709
G1 X48.572 Y72.450 E11.05290
G1 X73.300 Y72.450 E12.49572
G1 X73.300 Y100.124 E14.11043
G1 X68.509 Y99.653 E14.39127
G1 X62.990 Y97.979 E14.72782
G1 X57.902 Y95.259 E15.06442
G1 X53.443 Y91.600 E15.40099
G1 X49.784 Y87.141 E15.73754
G1 X47.065 Y82.054 E16.07407
G1 X45.390 Y76.534 E16.41069
G1 X45.365 Y76.276 E16.42578
G1 X44.825 Y70.793 E16.74726
G1 X45.390 Y65.053 E17.08382
G1 X47.066 Y59.533 E17.42040
G1 X49.784 Y54.446 E17.75691
G1 X53.399 Y50.041 E18.08938
G1 X53.776 Y50.320 F7800.000
G1 X58.163 Y46.719 F540.000 E18.42057
G1 X63.170 Y44.043 E18.75179
G1 X63.373 Y43.981 E18.76418
G1 X68.601 Y42.395 E19.08297
G1 X74.250 Y41.839 E19.41415
G1 X79.899 Y42.395 E19.74534
G1 X85.330 Y44.043 E20.07651
G1 X90.337 Y46.719 E20.40774
G1 X94.724 Y50.320 E20.73893
G1 X98.264 Y54.632 E21.06443
G1 X98.325 Y54.707 E21.07011
G1 X101.000 Y59.713 E21.40126
G1 X102.648 Y65.144 E21.73244
G1 X102.856 Y67.256 E21.85624
G1 X78.494 Y67.256 E23.27772
G1 X78.494 Y43.941 E24.63810
G1 X72.832 Y43.941 E24.96850
G1 X72.832 Y67.256 E26.32888
G1 X48.104 Y67.256 E27.77170
G1 X48.104 Y72.918 E28.10210
G1 X72.832 Y72.918 E29.54493
G1 X72.832 Y99.608 E31.10222
G1 X68.601 Y99.192 E31.35026
G1 X63.170 Y97.544 E31.68143
G1 X58.163 Y94.868 E32.01265
G1 X53.776 Y91.267 E32.34384
G1 X50.175 Y86.880 E32.67503
G1 X47.500 Y81.874 E33.00617
G1 X45.851 Y76.442 E33.33742
G1 X45.831 Y76.230 E33.34981
G1 X45.295 Y70.793 E33.66861
G1 X45.851 Y65.144 E33.99979
G1 X47.500 Y59.713 E34.33099
G1 X50.175 Y54.707 E34.66213
G1 X53.731 Y50.374 E34.98922
G1 X54.083 Y50.682 F7800.000
G1 X58.424 Y47.109 F378.000 E35.31724
G1 X63.350 Y44.477 E35.64308
G1 X68.693 Y42.857 E35.96888
G1 X74.250 Y42.309 E36.29469
G1 X79.807 Y42.857 E36.62051
G1 X85.150 Y44.477 E36.94630
G1 X90.076 Y47.109 E37.27215
G1 X94.392 Y50.652 E37.59796
G1 X97.902 Y54.929 E37.92077
G1 X100.566 Y59.893 E38.24948
G1 X102.187 Y65.236 E38.57529
G1 X102.340 Y66.788 E38.66629
G1 X78.962 Y66.788 E40.03035
G1 X78.962 Y43.473 E41.39073
G1 X72.364 Y43.473 E41.77572
G1 X72.364 Y66.788 E43.13610
G1 X47.636 Y66.788 E44.57893
G1 X47.636 Y73.386 E44.96392
G1 X72.364 Y73.386 E46.40674
G1 X72.364 Y99.092 E47.90662
G1 X68.693 Y98.730 E48.12185
G1 X63.350 Y97.110 E48.44765
G1 X58.424 Y94.477 E48.77350
G1 X54.108 Y90.935 E49.09931
G1 X50.566 Y86.619 E49.42512
G1 X47.934 Y81.694 E49.75089
G1 X46.313 Y76.350 E50.07676
G1 X46.296 Y76.184 E50.08646
G1 X45.765 Y70.793 E50.40257
G1 X46.313 Y65.236 E50.72838
G1 X47.934 Y59.893 E51.05420
G1 X50.566 Y54.968 E51.37996
G1 X54.039 Y50.736 E51.69943
G1 X54.531 Y50.817 F7800.000
G1 X57.042 Y48.426 E50.69943
G92 E0
G1 X78.026 Y72.450
G1 F1800.000 E1.00000
G1 X103.512 Y72.450 F540.000 E2.48700
G1 X103.110 Y76.533 E2.72639
G1 X101.434 Y82.054 E3.06302
G1 X98.716 Y87.141 E3.39953
G1 X95.057 Y91.600 E3.73610
G1 X90.598 Y95.259 E4.07267
G1 X85.510 Y97.978 E4.40925
G1 X79.990 Y99.653 E4.74582
G1 X78.026 Y99.846 E4.86096
G1 X78.026 Y72.521 E6.45533
G1 X78.494 Y72.918 F7800.000
G1 X102.995 Y72.918 F540.000 E7.88493
G1 X102.649 Y76.442 E8.09151
G1 X101.000 Y81.874 E8.42276
G1 X98.325 Y86.880 E8.75390
G1 X94.724 Y91.267 E9.08509
G1 X90.337 Y94.868 E9.41628
G1 X85.330 Y97.544 E9.74749
G1 X79.899 Y99.192 E10.07867
G1 X78.494 Y99.330 E10.16102
G1 X78.494 Y72.988 E11.69798
G1 X78.962 Y73.386 F7800.000
G1 X102.479 Y73.386 F378.000 E13.07016
G1 X102.187 Y76.350 E13.24394
G1 X100.566 Y81.694 E13.56981
G1 X97.935 Y86.619 E13.89557
G1 X94.392 Y90.935 E14.22138
G1 X90.076 Y94.478 E14.54720
G1 X85.150 Y97.110 E14.87304
G1 X79.807 Y98.730 E15.19884
G1 X78.962 Y98.814 E15.24838
G1 X78.962 Y73.456 E16.72793
G1 X79.367 Y73.620 F7800.000
G1 X82.834 Y73.585 E15.72793
G92 E0
G1 X107.355 Y104.901
G1 F1800.000 E1.00000
G1 X109.610 Y102.937 F540.000 E1.17445
G1 X114.630 Y100.090 E1.51119
G1 X120.080 Y98.335 E1.84528
G1 X125.750 Y97.742 E2.17789
G1 X131.420 Y98.335 E2.51056
G1 X136.871 Y100.090 E2.84463
G1 X141.891 Y102.937 E3.18136
G1 X146.287 Y106.766 E3.52154
G1 X149.892 Y111.428 E3.86541
G1 X152.569 Y116.743 E4.21266
G1 X154.217 Y122.507 E4.56243
G1 X154.773 Y128.500 E4.91361
G1 X154.217 Y134.493 E5.26479
G1 X152.569 Y140.257 E5.61457
G1 X149.892 Y145.572 E5.96181
G1 X146.287 Y150.234 E6.30569
G1 X141.891 Y154.063 E6.64586
G1 X136.871 Y156.910 E6.98259
G1 X131.421 Y158.665 E7.31667
G1 X125.750 Y159.257 E7.64934
G1 X120.080 Y158.665 E7.98194
G1 X114.630 Y156.910 E8.31604
G1 X109.610 Y154.063 E8.65276
G1 X105.214 Y150.234 E8.99293
G1 X101.608 Y145.572 E9.33682
G1 X98.931 Y140.257 E9.68406
G1 X97.283 Y134.493 E10.03384
G1 X96.727 Y128.500 E10.38502
G1 X97.283 Y122.507 E10.73620
G1 X98.931 Y116.743 E11.08598
G1 X101.608 Y111.428 E11.43322
G1 X105.214 Y106.766 E11.77712
G1 X107.303 Y104.947 E11.93873
G1 X107.663 Y105.253 F7800.000
G1 X109.882 Y103.320 F378.000 E12.11044
G1 X114.819 Y100.520 E12.44163
G1 X120.178 Y98.796 E12.77008
G1 X125.750 Y98.212 E13.09700
G1 X131.323 Y98.796 E13.42397
G1 X136.682 Y100.520 E13.75241
G1 X141.619 Y103.320 E14.08359
G1 X145.945 Y107.088 E14.41834
G1 X149.495 Y111.678 E14.75690
G1 X152.131 Y116.914 E15.09895
G1 X153.755 Y122.594 E15.44360
G1 X154.303 Y128.500 E15.78971
G1 X153.755 Y134.406 E16.13581
G1 X152.131 Y140.086 E16.48047
G1 X149.495 Y145.321 E16.82251
G1 X145.945 Y149.912 E17.16107
G1 X141.619 Y153.680 E17.49582
G1 X136.682 Y156.480 E17.82700
G1 X131.323 Y158.204 E18.15544
G1 X125.750 Y158.787 E18.48241
G1 X120.178 Y158.204 E18.80932
G1 X114.819 Y156.480 E19.13778
G1 X109.882 Y153.680 E19.46896
G1 X105.556 Y149.912 E19.80369
G1 X102.006 Y145.322 E20.14228
G1 X99.369 Y140.086 E20.48432
G1 X97.745 Y134.406 E20.82899
G1 X97.197 Y128.500 E21.17509
G1 X97.745 Y122.594 E21.52118
G1 X99.369 Y116.914 E21.86585
G1 X102.006 Y111.679 E22.20789
G1 X105.556 Y107.088 E22.54648
G1 X107.610 Y105.299 E22.70540
G1 X108.105 Y105.405 F7800.000
G1 X109.882 Y103.320 E21.91527
G1 X110.515 Y102.961 E21.70540
G92 E0
G1 X96.779 Y134.431
G1 F1800.000 E1.00000
G1 X98.494 Y140.428 F540.000 E1.36394
G1 X101.210 Y145.823 E1.71639
G1 X104.872 Y150.557 E2.06558
G1 X109.338 Y154.447 E2.41117
G1 X112.859 Y156.444 E2.64736
G1 X112.642 Y156.838 E2.67364
G1 X108.348 Y154.544 E2.95771
G1 X103.601 Y150.649 E3.31600
G1 X99.705 Y145.903 E3.67429
G1 X96.810 Y140.487 E4.03259
G1 X96.433 Y139.247 E4.10822
G1 X96.495 Y134.469 E4.38703
G1 X96.709 Y134.440 E4.39967
G1 X97.699 Y137.762 F7800.000 E3.39967
G92 E0
G1 X96.782 Y122.560
G1 F1800.000 E1.00000
G1 X96.479 Y122.514 F540.000 E1.01788
G1 X96.540 Y119.795 E1.17654
G1 X96.440 Y117.733 E1.29703
G1 X96.810 Y116.513 E1.37141
G1 X99.705 Y111.097 E1.72970
G1 X103.601 Y106.351 E2.08800
G1 X108.348 Y102.456 E2.44628
G1 X112.633 Y100.166 E2.72977
G1 X112.850 Y100.561 E2.75605
G1 X109.338 Y102.553 E2.99165
G1 X104.872 Y106.443 E3.33723
G1 X101.210 Y111.177 E3.68644
G1 X98.494 Y116.572 E4.03888
G1 X96.801 Y122.492 E4.39814
G1 X96.479 Y122.514 F7800.000 E4.30498
G1 X96.540 Y119.795 E3.52061
G1 X96.519 Y119.371 E3.39814
G92 E0
G1 X109.449 Y107.471
G1 F1800.000 E1.00000
G1 X109.304 Y107.300 F540.000 E1.01305
G1 X111.315 Y105.549 E1.16862
G1 X115.808 Y103.001 E1.47004
G1 X120.682 Y101.432 E1.76877
G1 X125.750 Y100.902 E2.06609
G1 X130.818 Y101.432 E2.36342
G1 X135.692 Y103.001 E2.66218
G1 X140.185 Y105.549 E2.96355
G1 X142.212 Y107.315 E3.12040
G1 X142.068 Y107.486 E3.13346
G1 X140.598 Y106.279 E3.24443
G1 X135.977 Y103.809 E3.55014
G1 X130.963 Y102.288 E3.85584
G1 X125.750 Y101.775 E4.16150
G1 X120.537 Y102.288 E4.46717
G1 X115.523 Y103.809 E4.77287
G1 X110.902 Y106.279 E5.07857
G1 X109.503 Y107.427 E5.18417
G1 X109.304 Y107.300 F7800.000 E5.11625
G1 X111.315 Y105.549 E4.34714
G1 X111.806 Y105.271 E4.18417
G92 E0
G1 X138.842 Y100.670
G1 F1800.000 E1.00000
G1 X139.059 Y100.275 F540.000 E1.02629
G1 X143.148 Y102.462 E1.29688
G1 X147.893 Y106.357 E1.65507
G1 X151.787 Y111.103 E2.01326
G1 X154.680 Y116.517 E2.37142
G1 X156.461 Y122.391 E2.72952
G1 X157.063 Y128.500 E3.08773
G1 X156.461 Y134.609 E3.44591
G1 X154.680 Y140.483 E3.80402
G1 X151.787 Y145.897 E4.16219
G1 X147.893 Y150.642 E4.52037
G1 X143.148 Y154.538 E4.87856
G1 X139.068 Y156.720 E5.14854
G1 X138.851 Y156.325 E5.17484
G1 X142.162 Y154.447 E5.39700
G1 X146.629 Y150.557 E5.74260
G1 X150.290 Y145.823 E6.09179
G1 X153.007 Y140.428 E6.44422
G1 X154.679 Y134.580 E6.79912
G1 X155.243 Y128.500 E7.15538
G1 X154.679 Y122.420 E7.51164
G1 X153.007 Y116.572 E7.86653
G1 X150.290 Y111.177 E8.21898
G1 X146.629 Y106.443 E8.56816
G1 X142.162 Y102.553 E8.91376
G1 X138.903 Y100.704 E9.13242
G1 X139.059 Y100.275 F7800.000 E9.00062
G1 X141.713 Y101.695 E8.13242
G92 E0
G1 X142.064 Y149.518
G1 F1800.000 E1.00000
G1 X142.208 Y149.688 F540.000 E1.01306
G1 X140.185 Y151.451 E1.16961
G1 X135.692 Y153.999 E1.47098
G1 X130.818 Y155.568 E1.76974
G1 X125.750 Y156.098 E2.06707
G1 X120.682 Y155.568 E2.36439
G1 X115.808 Y153.999 E2.66312
G1 X111.315 Y151.451 E2.96454
G1 X109.296 Y149.692 E3.12080
G1 X109.440 Y149.521 E3.13385
G1 X110.902 Y150.721 E3.24423
G1 X115.523 Y153.191 E3.54994
G1 X120.537 Y154.712 E3.85564
G1 X125.750 Y155.225 E4.16130
G1 X130.963 Y154.712 E4.46696
G1 X135.977 Y153.191 E4.77266
G1 X140.598 Y150.721 E5.07837
G1 X142.010 Y149.562 E5.18495
G1 X142.208 Y149.688 F7800.000 E5.11703
G1 X140.185 Y151.451 E4.34305
G1 X139.708 Y151.721 E4.18495
G92 E0
G1 X95.965 Y139.313
G1 F1800.000 E1.00000
G1 X96.072 Y130.969 F540.000 E1.48688
G1 X95.966 Y124.516 E1.86349
G1 X96.072 Y119.801 E2.13863
G1 X95.968 Y117.674 E2.26289
G1 X96.375 Y116.333 E2.34468
G1 X99.314 Y110.836 E2.70836
G1 X103.269 Y106.019 E3.07203
G1 X108.087 Y102.065 E3.43569
G1 X113.584 Y99.128 E3.79936
G1 X119.548 Y97.320 E4.16298
G1 X125.750 Y96.710 E4.52658
G1 X131.952 Y97.323 E4.89020
G1 X137.915 Y99.132 E5.25379
G1 X143.409 Y102.071 E5.61738
G1 X148.225 Y106.025 E5.98095
G1 X152.178 Y110.842 E6.34451
G1 X155.114 Y116.337 E6.70805
G1 X156.922 Y122.299 E7.07153
G1 X157.533 Y128.500 E7.43511
G1 X156.922 Y134.701 E7.79867
G1 X155.114 Y140.663 E8.16215
G1 X152.178 Y146.158 E8.52570
G1 X148.225 Y150.975 E8.88925
G1 X143.409 Y154.929 E9.25282
G1 X137.915 Y157.868 E9.61642
G1 X131.952 Y159.677 E9.98000
G1 X125.750 Y160.290 E10.34364
G1 X119.548 Y159.680 E10.70722
G1 X113.584 Y157.872 E11.07085
G1 X108.087 Y154.935 E11.43452
G1 X103.269 Y150.981 E11.79818
G1 X99.314 Y146.164 E12.16185
G1 X96.375 Y140.667 E12.52552
G1 X95.985 Y139.380 E12.60398
G1 X95.496 Y139.380 F7800.000
G1 X95.604 Y130.970 F378.000 E13.09469
G1 X95.498 Y124.514 E13.47143
G1 X95.604 Y119.808 E13.74613
G1 X95.497 Y117.616 E13.87415
G1 X95.941 Y116.153 E13.96337
G1 X98.923 Y110.575 E14.33241
G1 X102.936 Y105.686 E14.70146
G1 X107.826 Y101.675 E15.07050
G1 X113.404 Y98.694 E15.43954
G1 X119.457 Y96.859 E15.80855
G1 X125.750 Y96.240 E16.17752
G1 X132.044 Y96.862 E16.54652
G1 X138.095 Y98.698 E16.91549
G1 X143.671 Y101.681 E17.28446
G1 X148.558 Y105.693 E17.65340
G1 X152.569 Y110.581 E18.02234
G1 X155.548 Y116.158 E18.39125
G1 X157.383 Y122.207 E18.76011
G1 X158.003 Y128.500 E19.12906
G1 X157.383 Y134.793 E19.49800
G1 X155.548 Y140.842 E19.86686
G1 X152.569 Y146.419 E20.23577
G1 X148.558 Y151.307 E20.60471
G1 X143.671 Y155.319 E20.97365
G1 X138.095 Y158.302 E21.34262
G1 X132.044 Y160.138 E21.71159
G1 X125.750 Y160.760 E22.08060
G1 X119.457 Y160.141 E22.44956
G1 X113.404 Y158.306 E22.81857
G1 X107.826 Y155.325 E23.18761
G1 X102.936 Y151.314 E23.55665
G1 X98.923 Y146.425 E23.92570
G1 X95.941 Y140.847 E24.29475
G1 X95.516 Y139.447 E24.38012
G1 X95.878 Y139.110 F7800.000
G1 X95.761 Y135.646 E23.38012
G92 E0
G1 X86.172 Y100.461
G1 F1800.000 E1.00000
G1 X80.362 Y102.223 F540.000 E1.35430
G1 X74.250 Y102.826 E1.71263
G1 X68.138 Y102.223 E2.07096
G1 X62.263 Y100.441 E2.42921
G1 X56.847 Y97.546 E2.78754
G1 X52.100 Y93.650 E3.14585
G1 X48.204 Y88.903 E3.50416
