; generated by Slic3r 0.9.10b on 2014-02-02 at 17:46:04

; layer_height = 0.4
; perimeters = 3
; top_solid_layers = 3
; bottom_solid_layers = 3
; fill_density = 0.2
; perimeter_speed = 30
; infill_speed = 60
; travel_speed = 130
; nozzle_diameter = 0.5
; filament_diameter = 1.75
; extrusion_multiplier = 1.1
; perimeters extrusion width = 0.53mm
; infill extrusion width = 0.53mm
; solid infill extrusion width = 0.53mm
; top infill extrusion width = 0.53mm
; support material extrusion width = 0.53mm
; first layer extrusion width = 0.70mm

G21 ; set units to millimeters
M107
M104 S190 ; set temperature
G28 ; home all axes
G1 Z5 F5000 ; lift nozzle
M109 S190 ; wait for temperature to be reached
G90 ; use absolute coordinates
G92 E0
M82 ; use absolute distances for extrusion
G1 F1800.000 E-1.00000
G92 E0
G1 Z0.550 F7800.000
G1 X88.200 Y28.850
G1 F1800.000 E1.00000
G1 X89.020 Y27.750 F540.000 E1.14430
G1 X90.050 Y26.830 E1.28955
G1 X91.250 Y26.150 E1.43462
G1 X92.560 Y25.730 E1.57931
G1 X93.930 Y25.580 E1.72426
G1 X106.460 Y25.580 E3.04210
G1 X107.830 Y25.730 E3.18705
G1 X109.140 Y26.150 E3.33174
G1 X110.340 Y26.830 E3.47680
G1 X111.370 Y27.750 E3.62206
G1 X112.190 Y28.860 E3.76720
G1 X188.190 Y157.650 E19.49531
G1 X188.880 Y159.280 E19.68147
G1 X189.120 Y161.030 E19.86725
G1 X189.120 Y166.290 E20.42047
G1 X188.960 Y167.720 E20.57181
G1 X188.500 Y169.080 E20.72281
G1 X187.770 Y170.310 E20.87324
G1 X186.780 Y171.360 E21.02502
G1 X185.590 Y172.160 E21.17583
G1 X184.260 Y172.700 E21.32681
G1 X182.840 Y172.940 E21.47827
G1 X142.580 Y175.250 E25.71959
G1 X57.800 Y175.260 E34.63633
G1 X17.420 Y172.940 E38.89030
G1 X16.000 Y172.700 E39.04177
G1 X14.670 Y172.160 E39.19274
G1 X13.480 Y171.360 E39.34355
G1 X12.490 Y170.310 E39.49533
G1 X11.760 Y169.080 E39.64577
G1 X11.300 Y167.720 E39.79676
G1 X11.140 Y166.290 E39.94810
G1 X11.140 Y161.030 E40.50132
G1 X11.380 Y159.270 E40.68814
G1 X12.070 Y157.640 E40.87431
G1 X88.150 Y28.935 E56.59900
G1 F1800.000 E55.59900
G92 E0
G1 X106.463 Y32.249 F7800.000
G1 F1800.000 E1.00000
G1 X93.937 Y32.249 F1080.000 E2.31738
G1 X93.937 Y33.563 E2.45560
G1 X106.463 Y33.563 E3.77298
G1 X106.463 Y34.877 E3.91119
G1 X93.937 Y34.877 E5.22858
G1 X93.937 Y36.191 E5.36679
G1 X106.463 Y36.191 E6.68417
G1 X106.463 Y37.505 E6.82239
G1 X93.937 Y37.505 E8.13977
G1 X93.937 Y38.819 E8.27799
G1 X106.463 Y38.819 E9.59537
G1 X106.463 Y40.134 E9.73358
G1 X93.937 Y40.134 E11.05097
G1 X93.937 Y41.448 E11.18918
G1 X106.463 Y41.448 E12.50656
G1 F1800.000 E11.50656
G92 E0
G1 X104.463 Y42.762 F7800.000
G1 F1800.000 E1.00000
G1 X95.937 Y42.762 F1080.000 E1.89672
G1 X95.937 Y44.076 E2.03494
G1 X104.463 Y44.076 E2.93166
G1 X104.463 Y45.390 E3.06988
G1 X95.937 Y45.390 E3.96660
G1 X95.937 Y46.704 E4.10482
G1 X104.463 Y46.704 E5.00154
G1 X104.463 Y48.019 E5.13976
G1 X95.937 Y48.019 E6.03648
G1 X95.937 Y49.333 E6.17470
G1 X104.463 Y49.333 E7.07142
G1 X104.463 Y50.647 E7.20964
G1 X95.937 Y50.647 E8.10636
G1 X95.937 Y51.961 E8.24458
G1 X104.463 Y51.961 E9.14130
G1 X104.463 Y53.275 E9.27951
G1 X95.937 Y53.275 E10.17624
G1 X95.937 Y54.589 E10.31445
G1 X104.463 Y54.589 E11.21118
G1 X103.463 Y55.904 F7800.000
G1 X96.937 Y55.904 F1080.000 E11.89751
G1 X96.937 Y57.218 E12.03572
G1 X103.463 Y57.218 E12.72205
G1 X103.463 Y58.532 E12.86027
G1 X96.937 Y58.532 E13.54660
G1 X96.937 Y59.846 E13.68482
G1 X103.463 Y59.846 E14.37115
G1 X103.463 Y61.160 E14.50936
G1 X96.937 Y61.160 E15.19570
G1 X96.937 Y62.474 E15.33391
G1 X103.463 Y62.474 E16.02024
G1 X103.463 Y63.789 E16.15846
G1 X96.937 Y63.789 E16.84479
G1 X96.937 Y65.103 E16.98301
G1 X103.463 Y65.103 E17.66934
G1 X103.463 Y66.417 E17.80755
G1 X96.937 Y66.417 E18.49388
G1 X96.937 Y67.731 E18.63210
G1 X103.463 Y67.731 E19.31843
G1 X103.463 Y69.045 E19.45665
G1 X96.937 Y69.045 E20.14298
G1 X96.937 Y70.359 E20.28119
G1 X103.463 Y70.359 E20.96753
G1 X103.463 Y71.673 E21.10574
G1 X96.937 Y71.673 E21.79207
G1 X96.937 Y72.988 E21.93029
G1 X103.463 Y72.988 E22.61662
G1 F1800.000 E21.61662
G92 E0
G1 X105.063 Y78.244 F7800.000
G1 F1800.000 E1.00000
G1 X95.337 Y78.244 F1080.000 E2.02291
G1 X95.337 Y79.558 E2.16113
G1 X105.063 Y79.558 E3.18404
G1 X105.063 Y80.873 E3.32225
G1 X95.337 Y80.873 E4.34515
G1 X95.337 Y82.187 E4.48337
G1 X105.063 Y82.187 E5.50626
G1 F1800.000 E4.50626
G92 E0
G1 X103.463 Y83.501 F7800.000
G1 F1800.000 E1.00000
G1 X96.937 Y83.501 F1080.000 E1.68633
G1 X96.937 Y84.815 E1.82455
G1 X103.463 Y84.815 E2.51088
G1 X103.463 Y86.129 E2.64909
G1 X96.937 Y86.129 E3.33542
G1 X96.937 Y87.443 E3.47364
G1 X103.463 Y87.443 E4.15997
G1 X103.463 Y88.758 E4.29819
G1 X96.937 Y88.758 E4.98452
G1 X96.937 Y90.072 E5.12274
G1 X103.463 Y90.072 E5.80907
G1 X103.463 Y91.386 E5.94728
G1 X96.937 Y91.386 E6.63361
G1 X96.937 Y92.700 E6.77183
G1 X103.463 Y92.700 E7.45816
G1 X103.463 Y94.014 E7.59638
G1 X96.937 Y94.014 E8.28271
G1 X96.937 Y95.328 E8.42092
G1 X103.463 Y95.328 E9.10725
G1 X103.463 Y96.642 E9.24547
G1 X96.937 Y96.642 E9.93180
G1 X96.937 Y97.957 E10.07002
G1 X103.463 Y97.957 E10.75635
G1 X103.463 Y99.271 E10.89457
G1 X96.937 Y99.271 E11.58090
G1 X96.937 Y100.585 E11.71911
G1 X103.463 Y100.585 E12.40544
G1 X103.463 Y101.899 E12.54366
G1 X96.937 Y101.899 E13.22999
G1 X96.937 Y103.213 E13.36821
G1 X103.463 Y103.213 E14.05454
G1 X103.463 Y104.527 E14.19275
G1 X96.937 Y104.527 E14.87908
G1 X96.937 Y105.842 E15.01730
G1 X103.463 Y105.842 E15.70363
G1 F1800.000 E14.70363
G92 E0
G1 X108.063 Y107.156 F7800.000
G1 F1800.000 E1.00000
G1 X91.537 Y107.156 F1080.000 E2.73808
G1 X91.537 Y108.470 E2.87630
G1 X108.063 Y108.470 E4.61437
G1 X108.063 Y109.784 E4.75258
G1 X91.537 Y109.784 E6.49064
G1 X91.537 Y111.098 E6.62886
G1 X108.062 Y111.098 E8.36691
G1 X108.062 Y112.412 E8.50512
G1 X91.537 Y112.412 E10.24316
G1 X91.537 Y113.727 E10.38138
G1 X108.062 Y113.727 E12.11940
G1 X108.062 Y115.041 E12.25762
G1 X91.537 Y115.041 E13.99564
G1 X91.537 Y116.355 E14.13385
G1 X108.062 Y116.355 E15.87186
G1 X108.062 Y117.669 E16.01007
G1 X91.537 Y117.669 E17.74807
G1 X91.538 Y118.983 E17.88629
G1 X108.062 Y118.983 E19.62427
G1 X108.062 Y120.297 E19.76249
G1 X91.538 Y120.297 E21.50046
G1 X91.538 Y121.612 E21.63868
G1 X108.062 Y121.612 E23.37664
G1 X108.062 Y122.926 E23.51486
G1 X91.538 Y122.926 E25.25281
G1 X91.538 Y124.240 E25.39103
G1 X108.062 Y124.240 E27.12897
G1 X108.062 Y125.554 E27.26718
G1 X91.538 Y125.554 E29.00512
G1 X91.538 Y126.868 E29.14333
G1 X108.062 Y126.868 E30.88125
G1 X108.062 Y128.182 E31.01947
G1 X91.538 Y128.182 E32.75738
G1 X91.538 Y129.496 E32.89560
G1 X108.062 Y129.496 E34.63349
G1 X108.062 Y130.811 E34.77171
G1 X91.538 Y130.811 E36.50960
G1 X91.538 Y132.125 E36.64782
G1 X108.062 Y132.125 E38.38569
G1 X108.062 Y133.439 E38.52391
G1 X91.538 Y133.439 E40.26178
G1 X91.538 Y134.753 E40.40000
G1 X108.062 Y134.753 E42.13785
G1 X108.062 Y136.067 E42.27607
G1 X91.538 Y136.067 E44.01391
G1 X91.538 Y137.381 E44.15213
G1 X108.062 Y137.381 E45.88997
G1 X108.062 Y138.696 E46.02818
G1 X91.538 Y138.696 E47.76601
G1 X91.538 Y140.010 E47.90423
G1 X108.062 Y140.010 E49.64204
G1 X108.061 Y141.324 E49.78026
G1 X91.539 Y141.324 E51.51806
G1 X91.539 Y142.638 E51.65628
G1 X108.061 Y142.638 E53.39407
G1 X108.092 Y143.952 E53.53232
G1 X91.508 Y143.952 E55.27661
G1 X91.391 Y145.266 E55.41537
G1 X108.209 Y145.266 E57.18418
G1 X108.438 Y146.581 E57.32448
G1 X91.162 Y146.581 E59.14151
G1 X90.829 Y147.895 E59.28409
G1 X108.771 Y147.895 E61.17114
G1 X109.239 Y149.209 E61.31785
G1 X90.362 Y149.209 E63.30326
G1 X89.730 Y150.523 E63.45663
G1 X109.871 Y150.523 E65.57500
G1 X110.721 Y151.837 E65.73959
G1 X88.880 Y151.837 E68.03670
G1 X87.668 Y153.151 E68.22472
G1 X111.933 Y153.151 E70.77677
G1 X114.170 Y154.465 E71.04969
G1 X85.431 Y154.465 E74.07237
G1 X83.537 Y155.780 E74.31475
G1 X116.063 Y155.780 E77.73564
G1 X116.063 Y157.094 E77.87385
G1 X83.537 Y157.094 E81.29473
G1 X83.537 Y158.408 E81.43295
G1 X116.063 Y158.408 E84.85383
G1 X116.063 Y159.722 E84.99205
G1 X83.537 Y159.722 E88.41293
G1 F1800.000 E87.41293
G92 E0
G1 X66.063 Y159.722 F7800.000
G1 F1800.000 E1.00000
G1 X60.188 Y159.722 F1080.000 E1.61788
G1 X60.188 Y161.036 E1.75610
G1 X139.812 Y161.036 E10.13060
G1 X139.812 Y162.350 E10.26882
G1 X60.188 Y162.350 E18.64332
G1 X60.188 Y163.665 E18.78153
G1 X139.812 Y163.665 E27.15604
G1 X139.812 Y164.979 E27.29425
G1 X60.188 Y164.979 E35.66875
G1 X60.188 Y166.293 E35.80697
G1 X139.812 Y166.293 E44.18147
G1 X133.937 Y167.607 E44.81462
G1 X139.812 Y167.607 E45.43251
G1 F1800.000 E44.43251
G92 E0
G1 X142.988 Y161.036 F7800.000
G1 F1800.000 E1.00000
G1 X182.463 Y161.036 F1080.000 E5.15176
G1 X182.463 Y162.350 E5.28998
G1 X142.988 Y162.350 E9.44175
G1 X142.988 Y163.665 E9.57996
G1 X182.463 Y163.665 E13.73173
G1 X182.463 Y164.979 E13.86994
G1 X142.988 Y164.979 E18.02171
G1 X142.988 Y166.293 E18.15992
G1 X182.463 Y166.293 E22.31169
G1 F1800.000 E21.31169
G92 E0
G1 X139.812 Y159.722 F7800.000
G1 F1800.000 E1.00000
G1 X133.937 Y159.722 F1080.000 E1.61788
G1 F1800.000 E0.61788
G92 E0
G1 X66.063 Y167.607 F7800.000
G1 F1800.000 E1.00000
G1 X60.188 Y167.607 F1080.000 E1.61788
G1 F1800.000 E0.61788
G92 E0
G1 X57.013 Y166.293 F7800.000
G1 F1800.000 E1.00000
G1 X17.800 Y166.293 F1080.000 E5.12419
G1 X17.800 Y164.979 E5.26240
G1 X57.013 Y164.979 E9.38659
G1 X57.013 Y163.665 E9.52481
G1 X17.800 Y163.665 E13.64900
G1 X17.800 Y162.350 E13.78721
G1 X57.013 Y162.350 E17.91140
G1 X57.013 Y161.036 E18.04962
G1 X17.800 Y161.036 E22.17380
G1 F1800.000 E21.17380
G92 E0
G1 X140.928 Y159.728 F7800.000
G1 F1800.000 E1.00000
G1 X141.872 Y159.728 F540.000 E1.09926
G1 X141.872 Y168.271 E1.99784
G1 X140.928 Y168.271 E2.09710
G1 X140.928 Y159.826 E2.98532
G1 X141.497 Y160.056 F7800.000
G1 F1800.000 E1.98532
G92 E0
G1 X59.072 Y159.728 F7800.000
G1 F1800.000 E1.00000
G1 X59.072 Y168.271 F540.000 E1.89859
G1 X58.129 Y168.271 E1.99780
G1 X58.129 Y159.728 E2.89639
G1 X58.973 Y159.728 E2.98523
G1 X58.743 Y160.297 F7800.000
G1 F1800.000 E1.98523
G92 E0
G1 X95.928 Y75.871 F7800.000
G1 F1800.000 E1.00000
G1 X95.928 Y74.928 F540.000 E1.09921
G1 X104.472 Y74.928 E1.99780
G1 X104.472 Y75.871 E2.09701
G1 X96.027 Y75.871 E2.98523
G1 X96.257 Y75.302 F7800.000
G1 F1800.000 E1.98523
G92 E0
G1 X141.403 Y167.493 F7800.000
G1 F1800.000 E1.00000
G1 X141.397 Y160.540 F360.000 E1.36448
G1 F1800.000 E0.36448
G92 E0
G1 X58.603 Y167.590 F7800.000
G1 F1800.000 E1.00000
G1 X58.597 Y160.637 F360.000 E1.36417
G1 F1800.000 E0.36417
G92 E0
G1 X96.551 Y75.403 F7800.000
G1 F1800.000 E1.00000
G1 X103.961 Y75.403 F360.000 E1.38809
M106 S650
M104 S185 ; set temperature
G1 F1800.000 E0.38809
G92 E0
G1 Z0.950 F7800.000
G1 X102.800 Y77.250
G1 F1800.000 E1.00000
G1 X102.800 Y167.000 F2683.248 E9.53137
G1 X100.300 Y166.999 E9.76901
G1 X100.300 Y77.250 E18.30034
G1 X97.800 Y77.250 E18.53798
G1 X97.800 Y167.000 E27.06935
G1 X95.300 Y167.000 E27.30699
G1 X95.300 Y106.999 E33.01048
G1 X92.800 Y106.999 E33.24812
G1 X92.800 Y167.000 E38.95161
G1 X90.300 Y149.992 F7800.000
G1 X90.300 Y167.000 F2683.248 E40.56829
G1 X87.800 Y167.000 E40.80593
G1 X87.800 Y153.383 E42.10028
G1 X85.300 Y154.784 E42.37270
G1 X85.300 Y167.000 E43.53388
G1 X82.800 Y161.000 E44.15177
G1 X82.800 Y167.000 E44.72213
G1 X80.300 Y167.000 E44.95977
G1 X80.300 Y161.000 E45.53013
G1 X77.800 Y161.000 E45.76778
G1 X77.800 Y167.000 E46.33814
G1 X75.300 Y167.000 E46.57578
G1 X75.300 Y161.000 E47.14615
G1 X72.800 Y161.000 E47.38379
G1 X72.800 Y167.000 E47.95415
G1 X70.300 Y167.000 E48.19179
G1 X70.300 Y161.000 E48.76216
G1 X67.800 Y161.000 E48.99980
G1 X67.800 Y167.000 E49.57016
G1 F1800.000 E48.57016
G92 E0
G1 X65.300 Y168.600 F7800.000
G1 F1800.000 E1.00000
G1 X65.300 Y159.399 F2683.248 E1.87459
G1 X62.800 Y159.399 E2.11223
G1 X62.800 Y168.600 E2.98683
G1 F1800.000 E1.98683
G92 E0
G1 X55.300 Y167.000 F7800.000
G1 F1800.000 E1.00000
G1 X55.300 Y161.000 F2683.248 E1.57036
G1 X52.800 Y161.000 E1.80801
G1 X52.800 Y167.000 E2.37837
G1 X50.300 Y167.000 E2.61601
G1 X50.300 Y161.000 E3.18637
G1 X47.800 Y161.000 E3.42402
G1 X47.800 Y167.000 E3.99438
G1 X45.300 Y167.000 E4.23202
G1 X45.300 Y161.000 E4.80238
G1 X42.800 Y161.000 E5.04003
G1 X42.800 Y167.000 E5.61039
G1 X40.300 Y167.000 E5.84803
G1 X40.300 Y161.000 E6.41839
G1 X37.800 Y161.000 E6.65604
G1 X37.800 Y167.000 E7.22640
G1 X35.300 Y167.000 E7.46404
G1 X35.300 Y161.000 E8.03440
G1 X32.800 Y161.000 E8.27205
G1 X32.800 Y167.000 E8.84241
G1 X30.300 Y167.000 E9.08005
G1 X30.300 Y161.000 E9.65042
G1 X27.800 Y161.000 E9.88806
G1 X27.800 Y167.000 E10.45842
G1 X25.300 Y167.000 E10.69606
G1 X25.300 Y161.000 E11.26643
G1 X22.800 Y161.000 E11.50407
G1 X22.800 Y167.000 E12.07443
G1 X20.300 Y167.000 E12.31207
G1 X20.300 Y161.000 E12.88244
G1 X17.800 Y161.000 E13.12008
G1 X17.800 Y167.000 E13.69044
G1 F1800.000 E12.69044
G92 E0
G1 X107.800 Y143.420 F7800.000
G1 F1800.000 E1.00000
G1 X107.800 Y167.000 F2683.248 E3.24140
G1 X105.300 Y167.000 E3.47904
G1 X105.300 Y106.999 E9.18253
G1 X107.800 Y106.999 F7800.000
G1 X107.800 Y110.002 F2683.248 E9.46800
G1 F1800.000 E8.46800
G92 E0
G1 X102.800 Y73.550 F7800.000
G1 F1800.000 E1.00000
G1 X102.800 Y31.400 F2683.248 E5.00667
G1 X100.300 Y31.400 E5.24431
G1 X100.300 Y73.550 E9.25098
G1 X97.800 Y73.550 E9.48863
G1 X97.800 Y31.400 E13.49530
G1 X95.300 Y31.400 E13.73294
G1 X95.300 Y41.400 E14.68352
G1 X105.300 Y41.400 F7800.000
G1 X105.300 Y31.400 F2683.248 E15.63410
G1 F1800.000 E14.63410
G92 E0
G1 X110.300 Y151.703 F7800.000
G1 F1800.000 E1.00000
G1 X110.300 Y167.000 F2683.248 E2.45405
G1 X112.800 Y167.000 E2.69169
G1 X112.800 Y154.115 E3.91651
G1 X115.300 Y154.971 E4.16770
G1 X115.300 Y167.000 E5.31112
G1 X117.800 Y167.000 E5.54877
G1 X117.800 Y161.000 E6.11913
G1 X120.300 Y161.000 E6.35677
G1 X120.300 Y167.000 E6.92713
G1 X122.800 Y167.000 E7.16478
G1 X122.800 Y161.000 E7.73514
G1 X125.300 Y161.000 E7.97278
G1 X125.300 Y167.000 E8.54314
G1 X127.800 Y167.000 E8.78079
G1 X127.800 Y161.000 E9.35115
G1 X130.300 Y161.000 E9.58879
G1 X130.300 Y167.000 E10.15915
G1 X132.800 Y167.000 E10.39680
G1 X132.800 Y161.000 E10.96716
G1 F1800.000 E9.96716
G92 E0
G1 X135.300 Y159.399 F7800.000
G1 F1800.000 E1.00000
G1 X135.300 Y168.600 F2683.248 E1.87459
G1 X137.800 Y168.600 E2.11223
G1 X137.800 Y159.399 E2.98683
G1 F1800.000 E1.98683
G92 E0
G1 X145.300 Y167.000 F7800.000
G1 F1800.000 E1.00000
G1 X145.300 Y161.000 F2683.248 E1.57036
G1 X147.800 Y161.000 E1.80801
G1 X147.800 Y167.000 E2.37837
G1 X150.300 Y167.000 E2.61601
G1 X150.300 Y161.000 E3.18637
G1 X152.800 Y161.000 E3.42402
G1 X152.800 Y167.000 E3.99438
G1 X155.300 Y167.000 E4.23202
G1 X155.300 Y161.000 E4.80238
G1 X157.800 Y161.000 E5.04003
G1 X157.800 Y167.000 E5.61039
G1 X160.300 Y167.000 E5.84803
G1 X160.300 Y161.000 E6.41839
G1 X162.800 Y161.000 E6.65604
G1 X162.800 Y167.000 E7.22640
G1 X165.300 Y167.000 E7.46404
G1 X165.300 Y161.000 E8.03440
G1 X167.800 Y161.000 E8.27205
G1 X167.800 Y167.000 E8.84241
G1 X170.300 Y167.000 E9.08005
G1 X170.300 Y161.000 E9.65042
G1 X172.800 Y161.000 E9.88806
G1 X172.800 Y167.000 E10.45842
G1 X175.300 Y167.000 E10.69606
G1 X175.300 Y161.000 E11.26643
G1 X177.800 Y161.000 E11.50407
G1 X177.800 Y167.000 E12.07443
G1 X180.300 Y167.000 E12.31207
G1 X180.300 Y161.000 E12.88244
G1 F1800.000 E11.88244
G92 E0
G1 X141.941 Y159.659 F7800.000
G1 F1800.000 E1.00000
G1 X141.941 Y168.340 F1341.624 E1.82521
G1 X140.859 Y168.340 E1.92798
G1 X140.859 Y159.659 E2.75319
G1 X141.863 Y159.659 E2.84855
G1 X141.681 Y160.109 F7800.000
G1 F1800.000 E1.84855
G92 E0
G1 X59.141 Y159.659 F7800.000
G1 F1800.000 E1.00000
G1 X59.141 Y168.340 F1341.624 E1.82521
G1 X58.060 Y168.340 E1.92794
G1 X58.060 Y159.659 E2.75315
G1 X59.063 Y159.659 E2.84847
G1 X58.881 Y160.109 F7800.000
G1 F1800.000 E1.84847
G92 E0
G1 X95.859 Y75.940 F7800.000
G1 F1800.000 E1.00000
G1 X95.859 Y74.859 F1341.624 E1.10273
G1 X104.541 Y74.859 E1.92794
G1 X104.541 Y75.940 E2.03068
G1 X95.937 Y75.940 E2.84848
G1 X96.119 Y75.490 F7800.000
G1 F1800.000 E1.84848
G92 E0
G1 X58.618 Y167.810 F7800.000
G1 F1800.000 E1.00000
G1 X58.582 Y167.111 F894.416 E1.06659
G1 X58.618 Y167.075 E1.07147
G1 X58.582 Y166.376 E1.13806
G1 X58.618 Y166.340 E1.14295
