; generated by Slic3r 0.9.10b on 2014-02-15 at 04:31:45

; layer_height = 0.2
; perimeters = 2
; top_solid_layers = 3
; bottom_solid_layers = 3
; fill_density = 1.0
; perimeter_speed = 30
; infill_speed = 60
; travel_speed = 130
; nozzle_diameter = 0.5
; filament_diameter = 1.75
; extrusion_multiplier = 1.2
; perimeters extrusion width = 0.85mm
; infill extrusion width = 1.02mm
; solid infill extrusion width = 0.85mm
; top infill extrusion width = 0.85mm
; first layer extrusion width = 0.40mm

G21 ; set units to millimeters
M107 ; disable fan
M104 S190 ; set temperature
G28 ; home all axes
G1 Z5 F5000 ; lift nozzle
M109 S190 ; wait for temperature to be reached
G90 ; use absolute coordinates
G92 E0 ; reset extrusion distance
M82 ; use absolute distances for extrusion
G1 F1800.000 E-1.00000 ; retract
G92 E0 ; reset extrusion distance
G1 Z0.200 F7800.000 ; move to next layer (0)
G1 X73.824 Y31.429 ; move to first skirt point
G1 F1800.000 E1.00000 ; compensate retraction
G1 X74.294 Y30.379 F540.000 E1.04838 ; skirt
G1 X74.994 Y29.219 E1.10535 ; skirt
G1 X75.924 Y28.229 E1.16248 ; skirt
G1 X77.044 Y27.469 E1.21940 ; skirt
G1 X78.294 Y26.949 E1.27633 ; skirt
G1 X79.624 Y26.709 E1.33316 ; skirt
G1 X80.974 Y26.749 E1.38996 ; skirt
G1 X82.284 Y27.069 E1.44667 ; skirt
G1 X92.124 Y30.619 E1.88658 ; skirt
G1 X92.664 Y30.839 E1.91110 ; skirt
G1 X93.174 Y31.099 E1.93518 ; skirt
G1 X93.924 Y31.549 E1.97196 ; skirt
G1 X94.404 Y31.929 E1.99771 ; skirt
G1 X94.984 Y32.449 E2.03046 ; skirt
G1 X108.774 Y46.229 E2.85029 ; skirt
G1 X109.244 Y46.759 E2.88008 ; skirt
G1 X109.924 Y47.699 E2.92887 ; skirt
G1 X110.284 Y48.349 E2.96012 ; skirt
G1 X138.434 Y105.449 E5.63732 ; skirt
G1 X139.344 Y107.349 E5.72591 ; skirt
G1 X140.214 Y109.279 E5.81494 ; skirt
G1 X141.034 Y111.299 E5.90662 ; skirt
G1 X141.804 Y113.389 E6.00029 ; skirt
G1 X142.534 Y115.619 E6.09897 ; skirt
G1 X143.104 Y117.629 E6.18683 ; skirt
G1 X143.704 Y120.149 E6.29576 ; skirt
G1 X143.974 Y121.549 E6.35572 ; skirt
G1 X144.244 Y123.209 E6.42645 ; skirt
G1 X144.544 Y125.469 E6.52232 ; skirt
G1 X145.904 Y137.269 E7.02184 ; skirt
G1 X146.004 Y138.929 E7.09178 ; skirt
G1 X146.014 Y139.419 E7.11239 ; skirt
G1 X145.984 Y140.789 E7.17001 ; skirt
G1 X145.964 Y141.209 E7.18770 ; skirt
G1 X145.844 Y142.589 E7.24595 ; skirt
G1 X145.584 Y144.399 E7.32285 ; skirt
G1 X142.544 Y164.279 E8.16859 ; skirt
G1 X142.444 Y164.839 E8.19251 ; skirt
G1 X142.244 Y165.729 E8.23087 ; skirt
G1 X142.014 Y166.509 E8.26507 ; skirt
G1 X141.554 Y167.779 E8.32187 ; skirt
G1 X141.324 Y168.319 E8.34656 ; skirt
G1 X141.164 Y168.659 E8.36236 ; skirt
G1 X140.284 Y170.039 E8.43119 ; skirt
G1 X139.094 Y171.149 E8.49962 ; skirt
G1 X137.654 Y171.929 E8.56849 ; skirt
G1 X136.114 Y172.519 E8.63784 ; skirt
G1 X135.244 Y172.779 E8.67603 ; skirt
G1 X134.284 Y172.999 E8.71745 ; skirt
G1 X133.524 Y173.139 E8.74995 ; skirt
G1 X112.624 Y176.339 E9.63911 ; skirt
G1 X110.904 Y176.509 E9.71179 ; skirt
G1 X109.764 Y176.569 E9.75980 ; skirt
G1 X108.194 Y176.569 E9.82582 ; skirt
G1 X106.314 Y176.439 E9.90507 ; skirt
G1 X95.544 Y175.189 E10.36103 ; skirt
G1 X93.254 Y174.899 E10.45810 ; skirt
G1 X91.214 Y174.579 E10.54494 ; skirt
G1 X88.484 Y174.029 E10.66205 ; skirt
G1 X86.354 Y173.489 E10.75446 ; skirt
G1 X84.634 Y172.979 E10.82990 ; skirt
G1 X82.554 Y172.289 E10.92206 ; skirt
G1 X80.254 Y171.419 E11.02547 ; skirt
G1 X78.574 Y170.719 E11.10201 ; skirt
G1 X76.614 Y169.849 E11.19219 ; skirt
G1 X74.264 Y168.699 E11.30221 ; skirt
G1 X71.144 Y166.999 E11.45163 ; skirt
G1 X69.324 Y165.869 E11.54172 ; skirt
G1 X66.714 Y164.179 E11.67248 ; skirt
G1 X65.534 Y163.379 E11.73243 ; skirt
G1 X62.464 Y161.219 E11.89029 ; skirt
G1 X60.224 Y159.549 E12.00779 ; skirt
G1 X58.444 Y158.109 E12.10407 ; skirt
G1 X57.914 Y157.659 E12.13331 ; skirt
G1 X56.924 Y156.729 E12.19043 ; skirt
G1 X56.464 Y156.259 E12.21809 ; skirt
G1 X56.064 Y155.799 E12.24372 ; skirt
G1 X55.564 Y155.149 E12.27821 ; skirt
G1 X55.174 Y154.559 E12.30795 ; skirt
G1 X54.684 Y153.639 E12.35179 ; skirt
G1 X54.314 Y152.529 E12.40099 ; skirt
G1 X54.124 Y151.239 E12.45583 ; skirt
G1 X54.204 Y149.939 E12.51060 ; skirt
G1 X72.894 Y34.669 E17.42141 ; skirt
G1 X73.074 Y33.789 E17.45918 ; skirt
G1 X73.304 Y32.929 E17.49662 ; skirt
G1 X73.624 Y31.949 E17.53997 ; skirt
G1 X73.802 Y31.488 E17.56074 ; skirt
G1 F1800.000 E16.56074 ; retract
G92 E0 ; reset extrusion distance
G1 X121.420 Y93.719 F7800.000 ; move to first perimeter point
G1 F1800.000 E1.00000 ; compensate retraction
G1 X121.634 Y93.589 F540.000 E1.01055 ; perimeter
G1 X122.167 Y94.220 E1.04528 ; perimeter
G1 X122.845 Y95.066 E1.09089 ; perimeter
G1 X124.012 Y96.597 E1.17187 ; perimeter
G1 X125.553 Y98.741 E1.28290 ; perimeter
G1 X127.417 Y101.471 E1.42188 ; perimeter
G1 X128.955 Y103.844 E1.54082 ; perimeter
G1 X130.063 Y105.644 E1.62970 ; perimeter
G1 X131.506 Y108.313 E1.75731 ; perimeter
G1 X132.548 Y110.447 E1.85717 ; perimeter
G1 X133.297 Y112.119 E1.93419 ; perimeter
G1 X134.111 Y114.110 E2.02468 ; perimeter
G1 X134.716 Y115.744 E2.09795 ; perimeter
G1 X135.354 Y117.683 E2.18381 ; perimeter
G1 X135.909 Y119.646 E2.26959 ; perimeter
G1 X136.366 Y121.589 E2.35353 ; perimeter
G1 X136.633 Y122.962 E2.41232 ; perimeter
G1 X136.925 Y124.815 E2.49122 ; perimeter
G1 X137.133 Y126.425 E2.55950 ; perimeter
G1 X137.222 Y127.291 E2.59610 ; perimeter
G1 X137.538 Y130.891 E2.74808 ; perimeter
G1 X137.781 Y134.570 E2.90313 ; perimeter
G1 X138.122 Y135.802 E2.95690 ; perimeter
G1 X138.343 Y136.931 E3.00528 ; perimeter
G1 X138.483 Y138.100 E3.05477 ; perimeter
G1 X138.541 Y139.304 E3.10546 ; perimeter
G1 X138.517 Y140.588 E3.15948 ; perimeter
G1 X138.405 Y141.906 E3.21510 ; perimeter
G1 X138.206 Y143.241 E3.27186 ; perimeter
G1 X138.059 Y143.985 E3.30375 ; perimeter
G1 X137.712 Y145.400 E3.36502 ; perimeter
G1 X137.308 Y146.721 E3.42310 ; perimeter
G1 X136.607 Y148.823 E3.51630 ; perimeter
G1 X136.170 Y150.256 E3.57930 ; perimeter
G1 X135.828 Y151.651 E3.63971 ; perimeter
G1 X135.616 Y152.743 E3.68649 ; perimeter
G1 X135.339 Y154.461 E3.75965 ; perimeter
G1 X135.091 Y156.529 E3.84725 ; perimeter
G1 X134.998 Y158.071 E3.91222 ; perimeter
G1 X134.996 Y159.679 E3.97983 ; perimeter
G1 X135.096 Y162.494 E4.09830 ; perimeter
G1 X135.158 Y163.095 E4.12370 ; perimeter
G1 X135.021 Y163.457 E4.14000 ; perimeter
G1 X134.959 Y163.697 E4.15042 ; perimeter
G1 X134.915 Y164.163 E4.17008 ; perimeter
G1 X134.570 Y165.110 E4.21248 ; perimeter
G1 X133.609 Y165.478 E4.25575 ; perimeter
G1 X133.032 Y165.549 E4.28023 ; perimeter
G1 X132.713 Y165.645 E4.29424 ; perimeter
G1 X132.526 Y165.727 E4.30279 ; perimeter
G1 X131.927 Y165.665 E4.32811 ; perimeter
G1 X130.177 Y165.597 E4.40178 ; perimeter
G1 X128.593 Y165.556 E4.46840 ; perimeter
G1 X127.075 Y165.583 E4.53227 ; perimeter
G1 X126.579 Y165.611 E4.55315 ; perimeter
G1 X124.824 Y165.781 E4.62729 ; perimeter
G1 X122.824 Y166.073 E4.71229 ; perimeter
G1 X121.074 Y166.398 E4.78714 ; perimeter
G1 X119.706 Y166.732 E4.84636 ; perimeter
G1 X118.256 Y167.175 E4.91011 ; perimeter
G1 X115.312 Y168.143 E5.04046 ; perimeter
G1 X113.919 Y168.514 E5.10108 ; perimeter
G1 X112.811 Y168.749 E5.14872 ; perimeter
G1 X111.520 Y168.951 E5.20364 ; perimeter
G1 X110.237 Y169.073 E5.25787 ; perimeter
G1 X109.433 Y169.108 E5.29171 ; perimeter
G1 X108.286 Y169.098 E5.33995 ; perimeter
G1 X107.167 Y169.017 E5.38712 ; perimeter
G1 X106.089 Y168.866 E5.43290 ; perimeter
G1 X105.039 Y168.644 E5.47803 ; perimeter
G1 X104.006 Y168.350 E5.52321 ; perimeter
G1 X99.613 Y168.053 E5.70838 ; perimeter
G1 X96.401 Y167.763 E5.84399 ; perimeter
G1 X94.202 Y167.490 E5.93716 ; perimeter
G1 X92.395 Y167.202 E6.01411 ; perimeter
G1 X90.295 Y166.775 E6.10425 ; perimeter
G1 X88.469 Y166.315 E6.18342 ; perimeter
G1 X86.788 Y165.821 E6.25711 ; perimeter
G1 X85.176 Y165.285 E6.32857 ; perimeter
G1 X82.917 Y164.433 E6.43009 ; perimeter
G1 X81.615 Y163.893 E6.48933 ; perimeter
G1 X79.883 Y163.119 E6.56914 ; perimeter
G1 X77.900 Y162.159 E6.66177 ; perimeter
G1 X75.075 Y160.631 E6.79683 ; perimeter
G1 X73.279 Y159.526 E6.88552 ; perimeter
G1 X70.901 Y157.985 E7.00471 ; perimeter
G1 X68.615 Y156.424 E7.12109 ; perimeter
G1 X66.051 Y154.597 E7.25350 ; perimeter
G1 X64.905 Y153.731 E7.31391 ; perimeter
G1 X63.675 Y152.748 E7.38013 ; perimeter
G1 X63.032 Y152.209 E7.41542 ; perimeter
G1 X63.156 Y152.000 E7.42563 ; perimeter
G1 X63.921 Y152.301 E7.46020 ; perimeter
G1 X65.698 Y153.090 E7.54198 ; perimeter
G1 X68.293 Y154.383 E7.66389 ; perimeter
G1 X75.631 Y158.290 E8.01351 ; perimeter
G1 X78.541 Y159.759 E8.15059 ; perimeter
G1 X80.171 Y160.536 E8.22653 ; perimeter
G1 X82.137 Y161.407 E8.31694 ; perimeter
G1 X84.281 Y162.293 E8.41452 ; perimeter
G1 X85.554 Y162.765 E8.47160 ; perimeter
G1 X87.489 Y163.429 E8.55763 ; perimeter
G1 X89.517 Y164.035 E8.64666 ; perimeter
G1 X90.870 Y164.391 E8.70550 ; perimeter
G1 X93.283 Y164.915 E8.80931 ; perimeter
G1 X95.386 Y165.261 E8.89894 ; perimeter
G1 X97.493 Y165.509 E8.98815 ; perimeter
G1 X100.419 Y165.728 E9.11157 ; perimeter
G1 X135.160 Y130.987 E11.17771 ; perimeter
G1 X135.010 Y128.846 E11.26798 ; perimeter
G1 X134.771 Y126.560 E11.36463 ; perimeter
G1 X134.547 Y125.023 E11.42995 ; perimeter
G1 X134.188 Y123.072 E11.51339 ; perimeter
G1 X133.822 Y121.436 E11.58387 ; perimeter
G1 X133.475 Y120.110 E11.64153 ; perimeter
G1 X132.972 Y118.403 E11.71634 ; perimeter
G1 X132.314 Y116.440 E11.80345 ; perimeter
G1 X131.723 Y114.847 E11.87487 ; perimeter
G1 X131.167 Y113.466 E11.93749 ; perimeter
G1 X130.018 Y110.851 E12.05759 ; perimeter
G1 X129.077 Y108.868 E12.14990 ; perimeter
G1 X127.727 Y106.211 E12.27523 ; perimeter
G1 X124.315 Y99.818 E12.57996 ; perimeter
G1 X123.143 Y97.542 E12.68761 ; perimeter
G1 X122.282 Y95.754 E12.77108 ; perimeter
G1 X121.444 Y93.778 E12.86137 ; perimeter
G1 X120.672 Y91.972 F7800.000 ; move to first perimeter point
G1 X121.317 Y92.611 F540.000 E12.89955 ; perimeter
G1 X121.846 Y93.187 E12.93245 ; perimeter
G1 X122.981 Y94.559 E13.00734 ; perimeter
G1 X124.366 Y96.367 E13.10312 ; perimeter
G1 X125.898 Y98.499 E13.21353 ; perimeter
G1 X127.769 Y101.238 E13.35301 ; perimeter
G1 X129.312 Y103.620 E13.47237 ; perimeter
G1 X130.426 Y105.430 E13.56175 ; perimeter
G1 X131.879 Y108.116 E13.69018 ; perimeter
G1 X132.930 Y110.269 E13.79091 ; perimeter
G1 X133.685 Y111.954 E13.86855 ; perimeter
G1 X134.504 Y113.957 E13.95957 ; perimeter
G1 X135.114 Y115.605 E14.03345 ; perimeter
G1 X135.757 Y117.559 E14.11998 ; perimeter
G1 X136.317 Y119.540 E14.20652 ; perimeter
G1 X136.778 Y121.503 E14.29133 ; perimeter
G1 X137.048 Y122.887 E14.35064 ; perimeter
G1 X137.343 Y124.759 E14.43032 ; perimeter
G1 X137.552 Y126.378 E14.49896 ; perimeter
G1 X137.642 Y127.251 E14.53587 ; perimeter
G1 X137.959 Y130.861 E14.68827 ; perimeter
G1 X138.199 Y134.500 E14.84163 ; perimeter
G1 X138.534 Y135.710 E14.89444 ; perimeter
G1 X138.760 Y136.866 E14.94397 ; perimeter
G1 X138.904 Y138.072 E14.99504 ; perimeter
G1 X138.963 Y139.297 E15.04665 ; perimeter
G1 X138.938 Y140.611 E15.10192 ; perimeter
G1 X138.824 Y141.955 E15.15862 ; perimeter
G1 X138.621 Y143.316 E15.21650 ; perimeter
G1 X138.470 Y144.078 E15.24917 ; perimeter
G1 X138.116 Y145.520 E15.31160 ; perimeter
G1 X137.709 Y146.851 E15.37013 ; perimeter
G1 X137.009 Y148.948 E15.46312 ; perimeter
G1 X136.576 Y150.367 E15.52547 ; perimeter
G1 X136.240 Y151.742 E15.58500 ; perimeter
G1 X136.032 Y152.815 E15.63097 ; perimeter
G1 X135.738 Y154.647 E15.70902 ; perimeter
G1 X135.542 Y156.241 E15.77653 ; perimeter
G1 X135.425 Y157.916 E15.84716 ; perimeter
G1 X135.417 Y159.667 E15.92080 ; perimeter
G1 X135.517 Y162.466 E16.03857 ; perimeter
G1 X135.585 Y163.118 E16.06613 ; perimeter
G1 X135.571 Y163.214 E16.07021 ; perimeter
G1 X135.488 Y163.389 E16.07836 ; perimeter
G1 X135.374 Y163.771 E16.09514 ; perimeter
G1 X135.336 Y164.066 E16.10765 ; perimeter
G1 X135.336 Y164.236 E16.11476 ; perimeter
G1 X134.903 Y165.432 E16.16827 ; perimeter
G1 X133.672 Y165.905 E16.22374 ; perimeter
G1 X133.137 Y165.958 E16.24636 ; perimeter
G1 X132.854 Y166.043 E16.25878 ; perimeter
G1 X132.652 Y166.137 E16.26815 ; perimeter
G1 X132.546 Y166.153 E16.27264 ; perimeter
G1 X131.898 Y166.085 E16.30003 ; perimeter
G1 X130.165 Y166.018 E16.37300 ; perimeter
G1 X128.591 Y165.977 E16.43920 ; perimeter
G1 X127.090 Y166.004 E16.50232 ; perimeter
G1 X126.611 Y166.031 E16.52250 ; perimeter
G1 X124.875 Y166.199 E16.59585 ; perimeter
G1 X122.890 Y166.490 E16.68023 ; perimeter
G1 X121.161 Y166.811 E16.75416 ; perimeter
G1 X119.817 Y167.139 E16.81236 ; perimeter
G1 X118.381 Y167.577 E16.87548 ; perimeter
G1 X115.426 Y168.549 E17.00630 ; perimeter
G1 X114.015 Y168.925 E17.06772 ; perimeter
G1 X112.879 Y169.165 E17.11653 ; perimeter
G1 X111.573 Y169.369 E17.17211 ; perimeter
G1 X110.262 Y169.494 E17.22752 ; perimeter
G1 X109.444 Y169.529 E17.26196 ; perimeter
G1 X108.272 Y169.520 E17.31125 ; perimeter
G1 X107.125 Y169.437 E17.35959 ; perimeter
G1 X106.004 Y169.279 E17.40719 ; perimeter
G1 X104.938 Y169.053 E17.45303 ; perimeter
G1 X103.934 Y168.768 E17.49693 ; perimeter
G1 X99.578 Y168.474 E17.68052 ; perimeter
G1 X96.355 Y168.182 E17.81660 ; perimeter
G1 X94.144 Y167.908 E17.91030 ; perimeter
G1 X92.320 Y167.616 E17.98799 ; perimeter
G1 X90.200 Y167.185 E18.07896 ; perimeter
G1 X88.359 Y166.722 E18.15881 ; perimeter
G1 X86.661 Y166.223 E18.23322 ; perimeter
G1 X85.036 Y165.683 E18.30523 ; perimeter
G1 X82.761 Y164.824 E18.40748 ; perimeter
G1 X81.448 Y164.280 E18.46725 ; perimeter
G1 X79.703 Y163.500 E18.54764 ; perimeter
G1 X77.627 Y162.492 E18.64470 ; perimeter
G1 X74.862 Y160.995 E18.77693 ; perimeter
G1 X73.052 Y159.881 E18.86629 ; perimeter
G1 X70.669 Y158.337 E18.98572 ; perimeter
G1 X69.490 Y157.541 E19.04556 ; perimeter
G1 X66.660 Y155.559 E19.19081 ; perimeter
G1 X64.646 Y154.064 E19.29631 ; perimeter
G1 X62.885 Y152.641 E19.39152 ; perimeter
G1 X62.531 Y152.337 E19.41116 ; perimeter
G1 X61.756 Y151.602 E19.45604 ; perimeter
G1 X61.403 Y151.241 E19.47730 ; perimeter
G1 X61.464 Y151.129 E19.48261 ; perimeter
G1 X62.147 Y151.265 E19.51191 ; perimeter
G1 X62.760 Y151.432 E19.53861 ; perimeter
G1 X63.315 Y151.621 E19.56328 ; perimeter
G1 X64.082 Y151.911 E19.59778 ; perimeter
G1 X65.372 Y152.472 E19.65692 ; perimeter
G1 X67.168 Y153.338 E19.74077 ; perimeter
G1 X68.486 Y154.009 E19.80294 ; perimeter
G1 X75.827 Y157.917 E20.15269 ; perimeter
G1 X78.728 Y159.381 E20.28934 ; perimeter
G1 X80.349 Y160.154 E20.36486 ; perimeter
G1 X82.300 Y161.019 E20.45463 ; perimeter
G1 X84.432 Y161.899 E20.55162 ; perimeter
G1 X85.698 Y162.369 E20.60840 ; perimeter
G1 X87.615 Y163.027 E20.69365 ; perimeter
G1 X89.632 Y163.630 E20.78219 ; perimeter
G1 X90.969 Y163.981 E20.84030 ; perimeter
G1 X93.360 Y164.500 E20.94321 ; perimeter
G1 X95.445 Y164.843 E21.03207 ; perimeter
G1 X96.951 Y165.022 E21.09585 ; perimeter
G1 X97.533 Y165.089 E21.12048 ; perimeter
G1 X100.256 Y165.295 E21.23532 ; perimeter
G1 X134.727 Y130.824 E23.28540 ; perimeter
G1 X134.590 Y128.883 E23.36723 ; perimeter
G1 X134.354 Y126.615 E23.46315 ; perimeter
G1 X134.131 Y125.089 E23.52801 ; perimeter
G1 X133.775 Y123.159 E23.61051 ; perimeter
G1 X133.413 Y121.536 E23.68046 ; perimeter
G1 X133.069 Y120.225 E23.73746 ; perimeter
G1 X132.569 Y118.528 E23.81186 ; perimeter
G1 X131.917 Y116.581 E23.89819 ; perimeter
G1 X131.330 Y114.999 E23.96917 ; perimeter
G1 X130.779 Y113.629 E24.03125 ; perimeter
G1 X129.636 Y111.028 E24.15073 ; perimeter
G1 X128.699 Y109.055 E24.24259 ; perimeter
G1 X127.354 Y106.407 E24.36750 ; perimeter
G1 X126.681 Y105.127 E24.42830 ; perimeter
G1 X123.942 Y100.014 E24.67224 ; perimeter
G1 X122.767 Y97.733 E24.78013 ; perimeter
G1 X121.899 Y95.932 E24.86421 ; perimeter
G1 X121.198 Y94.283 E24.93958 ; perimeter
G1 X120.880 Y93.383 E24.97970 ; perimeter
G1 X120.654 Y92.527 E25.01693 ; perimeter
G1 X120.562 Y92.030 E25.03819 ; perimeter
G1 X120.616 Y92.001 E25.04075 ; perimeter
G1 X120.891 Y91.635 F7800.000 ; move to first perimeter point
G1 X121.170 Y91.873 F378.000 E25.05616 ; perimeter
G1 X121.620 Y92.317 E25.08273 ; perimeter
