; generated by Slic3r 0.9.10b on 2014-01-27 at 03:35:05

; layer_height = 0.4
; perimeters = 5
; top_solid_layers = 3
; bottom_solid_layers = 3
; fill_density = 0.8
; perimeter_speed = 30
; infill_speed = 60
; travel_speed = 130
; nozzle_diameter = 0.5
; filament_diameter = 1.71
; extrusion_multiplier = 1.1
; perimeters extrusion width = 0.53mm
; infill extrusion width = 0.53mm
; solid infill extrusion width = 0.53mm
; top infill extrusion width = 0.53mm
; first layer extrusion width = 0.80mm

G21 ; set units to millimeters
M107
M104 S190 ; set temperature
G28 ; home all axes
G1 Z5 F5000 ; lift nozzle
M109 S190 ; wait for temperature to be reached
G90 ; use absolute coordinates
G92 E0
M82 ; use absolute distances for extrusion
G1 F1800.000 E-1.00000
G92 E0
G1 Z0.600 F7800.000
G1 X103.720 Y20.290
G1 F1800.000 E1.00000
G1 X104.740 Y19.450 F540.000 E1.18623
G1 X105.900 Y18.830 E1.37160
G1 X107.170 Y18.440 E1.55884
G1 X108.480 Y18.310 E1.74437
G1 X109.790 Y18.440 E1.92991
G1 X111.060 Y18.830 E2.11715
G1 X112.220 Y19.450 E2.30252
G1 X113.240 Y20.290 E2.48875
G1 X179.710 Y86.750 E15.73618
G1 X180.550 Y87.770 E15.92241
G1 X181.170 Y88.930 E16.10778
G1 X181.560 Y90.200 E16.29502
G1 X181.690 Y91.510 E16.48056
G1 X181.560 Y92.820 E16.66609
G1 X181.170 Y94.090 E16.85333
G1 X180.550 Y95.250 E17.03870
G1 X179.710 Y96.270 E17.22493
G1 X96.270 Y179.710 E33.85573
G1 X95.250 Y180.550 E34.04196
G1 X94.090 Y181.170 E34.22733
G1 X92.820 Y181.560 E34.41457
G1 X91.510 Y181.690 E34.60010
G1 X90.200 Y181.560 E34.78564
G1 X88.930 Y181.170 E34.97287
G1 X87.770 Y180.550 E35.15825
G1 X86.750 Y179.710 E35.34448
G1 X20.290 Y113.240 E48.59191
G1 X19.450 Y112.220 E48.77814
G1 X18.830 Y111.060 E48.96351
G1 X18.440 Y109.790 E49.15075
G1 X18.310 Y108.480 E49.33628
G1 X18.440 Y107.170 E49.52182
G1 X18.830 Y105.900 E49.70906
G1 X19.450 Y104.740 E49.89443
G1 X20.290 Y103.720 E50.08066
G1 X103.642 Y20.368 E66.69391
G1 F1800.000 E65.69391
G92 E0
G1 X108.485 Y29.728 F7800.000
G1 F1800.000 E1.00000
G1 X170.272 Y91.515 F540.000 E13.31496
G1 X91.515 Y170.272 E29.01240
G1 X29.728 Y108.485 E41.32735
G1 X108.407 Y29.806 E57.00924
G1 X108.485 Y28.688 F7800.000
G1 X171.312 Y91.515 F540.000 E69.53155
G1 X91.515 Y171.312 E85.43634
G1 X28.688 Y108.485 E97.95865
G1 X108.407 Y28.766 E113.84788
G1 X108.485 Y27.647 F7800.000
G1 X172.353 Y91.515 F540.000 E126.57755
G1 X91.515 Y172.353 E142.68969
G1 X27.647 Y108.485 E155.41935
G1 X108.407 Y27.726 E171.51593
G1 X108.485 Y26.607 F7800.000
G1 X173.393 Y91.515 F540.000 E184.45295
G1 X91.515 Y173.393 E200.77244
G1 X26.607 Y108.485 E213.70945
G1 X108.407 Y26.685 E230.01339
G1 X108.985 Y26.067 F7800.000
G1 X174.433 Y91.515 F378.000 E243.05809
G1 X91.515 Y174.433 E259.58493
G1 X25.567 Y108.485 E272.72929
G1 X108.485 Y25.567 E289.25614
G1 X108.907 Y25.989 E289.34025
G1 X108.795 Y26.777 F7800.000
G1 F1800.000 E288.34025
G92 E0
G1 X169.322 Y91.710 F7800.000
G1 F1800.000 E1.00000
G1 X108.290 Y30.678 F1080.000 E13.18158
G1 X107.769 Y31.199 E13.28555
G1 X168.801 Y92.231 E25.46713
G1 X168.280 Y92.752 E25.57109
G1 X107.248 Y31.720 E37.75267
G1 X106.727 Y32.240 E37.85663
G1 X167.760 Y93.273 E50.03822
G1 X167.239 Y93.794 E50.14218
G1 X106.206 Y32.761 E62.32376
G1 X105.685 Y33.282 E62.42772
G1 X166.718 Y94.315 E74.60931
G1 X166.197 Y94.836 E74.71327
G1 X105.164 Y33.803 E86.89485
G1 X104.644 Y34.324 E86.99881
G1 X165.676 Y95.356 E99.18040
G1 X165.155 Y95.877 E99.28436
G1 X104.123 Y34.845 E111.46594
G1 X103.602 Y35.366 E111.56990
G1 X164.634 Y96.398 E123.75148
G1 X164.113 Y96.919 E123.85545
G1 X103.081 Y35.887 E136.03703
G1 X102.560 Y36.407 E136.14099
G1 X163.593 Y97.440 E148.32257
G1 X163.072 Y97.961 E148.42654
G1 X102.039 Y36.928 E160.60812
G1 X101.518 Y37.449 E160.71208
G1 X162.551 Y98.482 E172.89366
G1 X162.030 Y99.003 E172.99763
G1 X100.997 Y37.970 E185.17921
G1 X100.476 Y38.491 E185.28317
G1 X161.509 Y99.524 E197.46475
G1 X160.988 Y100.044 E197.56872
G1 X99.956 Y39.012 E209.75030
G1 X99.435 Y39.533 E209.85426
G1 X160.467 Y100.565 E222.03584
G1 X159.946 Y101.086 E222.13981
G1 X98.914 Y40.054 E234.32139
G1 X98.393 Y40.575 E234.42535
G1 X159.425 Y101.607 E246.60693
G1 X158.905 Y102.128 E246.71090
G1 X97.872 Y41.095 E258.89248
G1 X97.351 Y41.616 E258.99644
G1 X158.384 Y102.649 E271.17802
G1 X157.863 Y103.170 E271.28199
G1 X96.830 Y42.137 E283.46357
G1 X96.309 Y42.658 E283.56753
G1 X157.342 Y103.691 E295.74911
G1 X156.821 Y104.212 E295.85308
G1 X95.788 Y43.179 E308.03466
G1 X95.268 Y43.700 E308.13862
G1 X156.300 Y104.732 E320.32020
G1 X155.779 Y105.253 E320.42417
G1 X94.747 Y44.221 E332.60575
G1 X94.226 Y44.742 E332.70971
G1 X155.258 Y105.774 E344.89129
G1 X154.737 Y106.295 E344.99526
G1 X93.705 Y45.263 E357.17684
G1 X93.184 Y45.783 E357.28080
G1 X154.217 Y106.816 E369.46238
G1 X153.696 Y107.337 E369.56635
G1 X92.663 Y46.304 E381.74793
G1 X92.142 Y46.825 E381.85189
G1 X153.175 Y107.858 E394.03347
G1 X152.654 Y108.379 E394.13744
G1 X91.621 Y47.346 E406.31902
G1 X91.101 Y47.867 E406.42298
G1 X152.133 Y108.899 E418.60456
G1 X151.612 Y109.420 E418.70852
G1 X90.580 Y48.388 E430.89011
G1 X90.059 Y48.909 E430.99407
G1 X151.091 Y109.941 E443.17565
G1 X150.570 Y110.462 E443.27961
G1 X89.538 Y49.430 E455.46119
G1 X89.017 Y49.950 E455.56516
G1 X150.050 Y110.983 E467.74674
G1 X149.529 Y111.504 E467.85070
G1 X88.496 Y50.471 E480.03228
G1 X87.975 Y50.992 E480.13625
G1 X149.008 Y112.025 E492.31783
G1 X148.487 Y112.546 E492.42179
G1 X87.454 Y51.513 E504.60337
G1 X86.933 Y52.034 E504.70734
G1 X147.966 Y113.067 E516.88892
G1 X147.445 Y113.587 E516.99288
G1 X86.413 Y52.555 E529.17446
G1 X85.892 Y53.076 E529.27843
G1 X146.924 Y114.108 E541.46001
G1 X146.403 Y114.629 E541.56397
G1 X85.371 Y53.597 E553.74555
G1 X84.850 Y54.118 E553.84952
G1 X145.882 Y115.150 E566.03110
G1 X145.362 Y115.671 E566.13506
G1 X84.329 Y54.638 E578.31664
G1 X83.808 Y55.159 E578.42061
G1 X144.841 Y116.192 E590.60219
G1 X144.320 Y116.713 E590.70615
G1 X83.287 Y55.680 E602.88773
G1 X82.766 Y56.201 E602.99169
G1 X143.799 Y117.234 E615.17327
G1 X143.278 Y117.755 E615.27724
G1 X82.245 Y56.722 E627.45882
G1 X81.725 Y57.243 E627.56278
G1 X142.757 Y118.275 E639.74436
G1 X142.236 Y118.796 E639.84833
G1 X81.204 Y57.764 E652.02991
G1 X80.683 Y58.285 E652.13387
G1 X141.715 Y119.317 E664.31545
G1 X141.194 Y119.838 E664.41942
G1 X80.162 Y58.806 E676.60100
G1 X79.641 Y59.326 E676.70496
G1 X140.674 Y120.359 E688.88654
G1 X140.153 Y120.880 E688.99051
G1 X79.120 Y59.847 E701.17209
G1 X78.599 Y60.368 E701.27605
G1 X139.632 Y121.401 E713.45763
G1 X139.111 Y121.922 E713.56160
G1 X78.078 Y60.889 E725.74318
G1 X77.558 Y61.410 E725.84714
G1 X138.590 Y122.442 E738.02872
G1 X138.069 Y122.963 E738.13268
G1 X77.037 Y61.931 E750.31426
G1 X76.516 Y62.452 E750.41823
G1 X137.548 Y123.484 E762.59981
G1 X137.027 Y124.005 E762.70377
G1 X75.995 Y62.973 E774.88535
G1 X75.474 Y63.493 E774.98932
G1 X136.506 Y124.526 E787.17090
G1 X135.986 Y125.047 E787.27486
G1 X74.953 Y64.014 E799.45644
G1 X74.432 Y64.535 E799.56041
G1 X135.465 Y125.568 E811.74199
G1 X134.944 Y126.089 E811.84595
G1 X73.911 Y65.056 E824.02753
G1 X73.390 Y65.577 E824.13150
G1 X134.423 Y126.610 E836.31308
G1 X133.902 Y127.130 E836.41704
G1 X72.870 Y66.098 E848.59862
G1 X72.349 Y66.619 E848.70259
G1 X133.381 Y127.651 E860.88417
G1 X132.860 Y128.172 E860.98813
G1 X71.828 Y67.140 E873.16971
G1 X71.307 Y67.661 E873.27367
G1 X132.339 Y128.693 E885.45525
G1 X131.819 Y129.214 E885.55922
G1 X70.786 Y68.181 E897.74080
G1 X70.265 Y68.702 E897.84476
G1 X131.298 Y129.735 E910.02634
G1 X130.777 Y130.256 E910.13031
G1 X69.744 Y69.223 E922.31189
G1 X69.223 Y69.744 E922.41585
G1 X130.256 Y130.777 E934.59743
G1 X129.735 Y131.298 E934.70140
G1 X68.702 Y70.265 E946.88298
G1 X68.182 Y70.786 E946.98694
G1 X129.214 Y131.818 E959.16852
G1 X128.693 Y132.339 E959.27249
G1 X67.661 Y71.307 E971.45407
G1 X67.140 Y71.828 E971.55803
G1 X128.172 Y132.860 E983.73961
G1 X127.651 Y133.381 E983.84357
G1 X66.619 Y72.349 E996.02515
G1 X66.098 Y72.869 E996.12912
G1 X127.131 Y133.902 E1008.31070
G1 X126.610 Y134.423 E1008.41466
G1 X65.577 Y73.390 E1020.59624
G1 X65.056 Y73.911 E1020.70021
G1 X126.089 Y134.944 E1032.88179
G1 X125.568 Y135.465 E1032.98575
G1 X64.535 Y74.432 E1045.16733
G1 X64.015 Y74.953 E1045.27130
G1 X125.047 Y135.985 E1057.45288
G1 X124.526 Y136.506 E1057.55684
G1 X63.494 Y75.474 E1069.73842
G1 X62.973 Y75.995 E1069.84239
G1 X124.005 Y137.027 E1082.02397
G1 X123.484 Y137.548 E1082.12793
G1 X62.452 Y76.516 E1094.30951
G1 X61.931 Y77.036 E1094.41347
G1 X122.963 Y138.069 E1106.59505
G1 X122.443 Y138.590 E1106.69902
G1 X61.410 Y77.557 E1118.88060
G1 X60.889 Y78.078 E1118.98456
G1 X121.922 Y139.111 E1131.16614
G1 X121.401 Y139.632 E1131.27011
G1 X60.368 Y78.599 E1143.45169
G1 X59.847 Y79.120 E1143.55565
G1 X120.880 Y140.153 E1155.73723
G1 X120.359 Y140.673 E1155.84120
G1 X59.327 Y79.641 E1168.02278
G1 X58.806 Y80.162 E1168.12674
G1 X119.838 Y141.194 E1180.30832
G1 X119.317 Y141.715 E1180.41228
G1 X58.285 Y80.683 E1192.59386
G1 X57.764 Y81.204 E1192.69783
G1 X118.796 Y142.236 E1204.87941
G1 X118.276 Y142.757 E1204.98337
G1 X57.243 Y81.724 E1217.16495
G1 X56.722 Y82.245 E1217.26892
G1 X117.755 Y143.278 E1229.45050
G1 X117.234 Y143.799 E1229.55446
G1 X56.201 Y82.766 E1241.73604
G1 X55.680 Y83.287 E1241.84001
G1 X116.713 Y144.320 E1254.02159
G1 X116.192 Y144.841 E1254.12555
G1 X55.159 Y83.808 E1266.30713
G1 X54.639 Y84.329 E1266.41109
G1 X115.671 Y145.361 E1278.59267
G1 X115.150 Y145.882 E1278.69664
G1 X54.118 Y84.850 E1290.87822
G1 X53.597 Y85.371 E1290.98218
G1 X114.629 Y146.403 E1303.16376
G1 X114.108 Y146.924 E1303.26773
G1 X53.076 Y85.892 E1315.44931
G1 X52.555 Y86.412 E1315.55327
G1 X113.588 Y147.445 E1327.73485
G1 X113.067 Y147.966 E1327.83882
G1 X52.034 Y86.933 E1340.02040
G1 X51.513 Y87.454 E1340.12436
G1 X112.546 Y148.487 E1352.30594
G1 X112.025 Y149.008 E1352.40990
G1 X50.992 Y87.975 E1364.59148
G1 X50.472 Y88.496 E1364.69545
G1 X111.504 Y149.528 E1376.87703
G1 X110.983 Y150.049 E1376.98099
G1 X49.951 Y89.017 E1389.16257
G1 X49.430 Y89.538 E1389.26654
G1 X110.462 Y150.570 E1401.44812
G1 X109.941 Y151.091 E1401.55208
G1 X48.909 Y90.059 E1413.73366
G1 X48.388 Y90.580 E1413.83762
G1 X109.420 Y151.612 E1426.01920
G1 X108.900 Y152.133 E1426.12317
G1 X47.867 Y91.100 E1438.30475
G1 X47.346 Y91.621 E1438.40871
G1 X108.379 Y152.654 E1450.59029
G1 X107.858 Y153.175 E1450.69426
G1 X46.825 Y92.142 E1462.87584
G1 X46.304 Y92.663 E1462.97980
G1 X107.337 Y153.696 E1475.16138
G1 X106.816 Y154.216 E1475.26535
G1 X45.784 Y93.184 E1487.44693
G1 X45.263 Y93.705 E1487.55089
G1 X106.295 Y154.737 E1499.73247
G1 X105.774 Y155.258 E1499.83643
G1 X44.742 Y94.226 E1512.01801
G1 X44.221 Y94.747 E1512.12198
G1 X105.253 Y155.779 E1524.30356
G1 X104.733 Y156.300 E1524.40752
G1 X43.700 Y95.267 E1536.58910
G1 X43.179 Y95.788 E1536.69307
G1 X104.212 Y156.821 E1548.87465
G1 X103.691 Y157.342 E1548.97861
G1 X42.658 Y96.309 E1561.16019
G1 X42.137 Y96.830 E1561.26415
G1 X103.170 Y157.863 E1573.44573
G1 X102.649 Y158.384 E1573.54970
G1 X41.616 Y97.351 E1585.73128
G1 X41.096 Y97.872 E1585.83524
G1 X102.128 Y158.904 E1598.01682
G1 X101.607 Y159.425 E1598.12079
G1 X40.575 Y98.393 E1610.30237
G1 X40.054 Y98.914 E1610.40633
G1 X101.086 Y159.946 E1622.58791
G1 X100.565 Y160.467 E1622.69187
G1 X39.533 Y99.435 E1634.87345
G1 X39.012 Y99.955 E1634.97742
G1 X100.045 Y160.988 E1647.15900
G1 X99.524 Y161.509 E1647.26296
G1 X38.491 Y100.476 E1659.44454
G1 X37.970 Y100.997 E1659.54851
G1 X99.003 Y162.030 E1671.73009
G1 X98.482 Y162.551 E1671.83405
G1 X37.449 Y101.518 E1684.01563
G1 X36.928 Y102.039 E1684.11960
G1 X97.961 Y163.071 E1696.30118
G1 X97.440 Y163.592 E1696.40514
G1 X36.408 Y102.560 E1708.58672
G1 X35.887 Y103.081 E1708.69068
G1 X96.919 Y164.113 E1720.87226
G1 X96.398 Y164.634 E1720.97623
G1 X35.366 Y103.602 E1733.15781
G1 X34.845 Y104.123 E1733.26177
G1 X95.877 Y165.155 E1745.44335
G1 X95.357 Y165.676 E1745.54732
G1 X34.324 Y104.643 E1757.72890
G1 X33.803 Y105.164 E1757.83286
G1 X94.836 Y166.197 E1770.01444
G1 X94.315 Y166.718 E1770.11840
G1 X33.282 Y105.685 E1782.29998
G1 X32.761 Y106.206 E1782.40395
G1 X93.794 Y167.239 E1794.58553
G1 X93.273 Y167.759 E1794.68949
G1 X32.241 Y106.727 E1806.87107
G1 X31.720 Y107.248 E1806.97504
G1 X92.752 Y168.280 E1819.15662
G1 X92.231 Y168.801 E1819.26058
G1 X31.199 Y107.769 E1831.44216
G1 X30.678 Y108.290 E1831.54612
G1 X91.710 Y169.322 E1843.72770
M104 S185 ; set temperature
G1 F1800.000 E1842.72770
G92 E0
G1 Z1.000 F7800.000
G1 X93.202 Y169.959
G1 F1800.000 E1.00000
G1 X91.515 Y171.646 F1800.000 E1.23761
G1 X28.354 Y108.485 E10.13031
G1 X108.485 Y28.354 E21.41236
G1 X171.646 Y91.515 E30.30506
G1 X93.257 Y169.904 E41.34174
G1 X93.623 Y170.273 F7800.000
G1 X91.515 Y172.381 F1800.000 E41.63855
G1 X27.619 Y108.485 E50.63472
G1 X108.485 Y27.619 E62.02024
G1 X172.381 Y91.515 E71.01640
G1 X93.678 Y170.218 E82.09735
G1 X93.990 Y170.641 F7800.000
G1 X91.515 Y173.116 F1800.000 E82.44589
G1 X26.884 Y108.485 E91.54552
G1 X108.485 Y26.884 E103.03451
G1 X173.116 Y91.515 E112.13414
G1 X94.045 Y170.585 E123.26682
G1 F1800.000 E122.26682
G92 E0
G1 X91.515 Y173.851 F7800.000
G1 F1800.000 E1.00000
G1 X26.149 Y108.485 F1800.000 E10.20310
G1 X108.485 Y26.149 E21.79555
G1 X173.851 Y91.515 E30.99864
G1 X91.570 Y173.796 E42.58333
G1 X91.934 Y174.167 F7800.000
G1 X91.515 Y174.586 F1260.000 E42.64234
G1 X25.414 Y108.485 E51.94890
G1 X108.485 Y25.414 E63.64481
G1 X174.586 Y91.515 E72.95137
G1 X91.989 Y174.112 E84.58053
G1 X91.432 Y174.032 F7800.000
G1 F1800.000 E83.58053
G92 E0
G1 X170.846 Y91.247 F7800.000
G1 F1800.000 E1.00000
G1 X91.247 Y170.846 F3600.000 E12.22594
G1 X90.879 Y170.478 E12.27785
G1 X170.478 Y90.879 E23.50378
G1 X170.110 Y90.511 E23.55569
G1 X90.511 Y170.110 E34.78163
G1 X90.143 Y169.742 E34.83354
G1 X169.742 Y90.143 E46.05947
G1 X169.374 Y89.775 E46.11138
G1 X89.775 Y169.374 E57.33732
G1 X89.407 Y169.006 E57.38923
G1 X169.006 Y89.407 E68.61516
G1 X168.638 Y89.039 E68.66707
G1 X89.039 Y168.638 E79.89301
G1 X88.671 Y168.270 E79.94492
G1 X168.270 Y88.671 E91.17085
G1 X167.902 Y88.303 E91.22276
G1 X88.303 Y167.902 E102.44870
G1 X87.934 Y167.534 E102.50061
G1 X167.534 Y87.934 E113.72654
G1 X167.165 Y87.566 E113.77845
G1 X87.566 Y167.165 E125.00439
G1 X87.198 Y166.797 E125.05630
G1 X166.797 Y87.198 E136.28224
G1 X166.429 Y86.830 E136.33414
G1 X86.830 Y166.429 E147.56008
G1 X86.462 Y166.061 E147.61199
G1 X166.061 Y86.462 E158.83793
G1 X165.693 Y86.094 E158.88983
G1 X86.094 Y165.693 E170.11577
G1 X85.726 Y165.325 E170.16768
G1 X165.325 Y85.726 E181.39362
G1 X164.957 Y85.358 E181.44552
G1 X85.358 Y164.957 E192.67146
G1 X84.990 Y164.589 E192.72337
G1 X164.589 Y84.990 E203.94931
G1 X164.221 Y84.622 E204.00121
G1 X84.622 Y164.221 E215.22715
G1 X84.254 Y163.853 E215.27906
G1 X163.853 Y84.254 E226.50500
G1 X163.485 Y83.886 E226.55690
G1 X83.886 Y163.485 E237.78284
G1 X83.518 Y163.117 E237.83475
G1 X163.117 Y83.518 E249.06069
G1 X162.749 Y83.150 E249.11260
G1 X83.150 Y162.749 E260.33853
G1 X82.782 Y162.381 E260.39044
G1 X162.381 Y82.782 E271.61638
G1 X162.013 Y82.414 E271.66829
G1 X82.414 Y162.013 E282.89422
G1 X82.046 Y161.645 E282.94613
G1 X161.645 Y82.046 E294.17207
G1 X161.277 Y81.677 E294.22398
G1 X81.678 Y161.277 E305.44991
G1 X81.309 Y160.908 E305.50182
G1 X160.908 Y81.309 E316.72776
G1 X160.540 Y80.941 E316.77967
G1 X80.941 Y160.540 E328.00561
G1 X80.573 Y160.172 E328.05751
G1 X160.172 Y80.573 E339.28345
G1 X159.804 Y80.205 E339.33536
G1 X80.205 Y159.804 E350.56130
G1 X79.837 Y159.436 E350.61320
G1 X159.436 Y79.837 E361.83914
G1 X159.068 Y79.469 E361.89105
G1 X79.469 Y159.068 E373.11699
G1 X79.101 Y158.700 E373.16889
G1 X158.700 Y79.101 E384.39483
G1 X158.332 Y78.733 E384.44674
G1 X78.733 Y158.332 E395.67268
G1 X78.365 Y157.964 E395.72459
G1 X157.964 Y78.365 E406.95052
G1 X157.596 Y77.997 E407.00243
G1 X77.997 Y157.596 E418.22837
G1 X77.629 Y157.228 E418.28028
G1 X157.228 Y77.629 E429.50621
G1 X156.860 Y77.261 E429.55812
G1 X77.261 Y156.860 E440.78406
G1 X76.893 Y156.492 E440.83597
G1 X156.492 Y76.893 E452.06190
G1 X156.124 Y76.525 E452.11381
G1 X76.525 Y156.124 E463.33975
