; generated by Slic3r 0.9.10b on 2014-01-26 at 00:47:58

; layer_height = 0.4
; perimeters = 5
; top_solid_layers = 3
; bottom_solid_layers = 3
; fill_density = 0.4
; perimeter_speed = 30
; infill_speed = 60
; travel_speed = 130
; nozzle_diameter = 0.5
; filament_diameter = 1.75
; extrusion_multiplier = 1.5
; perimeters extrusion width = 0.53mm
; infill extrusion width = 0.53mm
; solid infill extrusion width = 0.53mm
; top infill extrusion width = 0.53mm
; first layer extrusion width = 0.80mm

G21 ; set units to millimeters
M107
M104 S200 ; set temperature
G28 ; home all axes
G1 Z5 F5000 ; lift nozzle
M109 S200 ; wait for temperature to be reached
G90 ; use absolute coordinates
G92 E0
M82 ; use absolute distances for extrusion
G1 F1800.000 E-1.00000
G92 E0
G1 Z0.470 F7800.000
G1 X103.720 Y20.290
G1 F1800.000 E1.00000
G1 X104.740 Y19.450 F540.000 E1.24247
G1 X105.900 Y18.830 E1.48383
G1 X107.170 Y18.440 E1.72762
G1 X108.480 Y18.310 E1.96918
G1 X109.790 Y18.440 E2.21075
G1 X111.060 Y18.830 E2.45454
G1 X112.220 Y19.450 E2.69590
G1 X113.240 Y20.290 E2.93837
G1 X179.710 Y86.750 E20.18667
G1 X180.550 Y87.770 E20.42915
G1 X181.170 Y88.930 E20.67050
G1 X181.560 Y90.200 E20.91429
G1 X181.690 Y91.510 E21.15586
G1 X181.560 Y92.820 E21.39742
G1 X181.170 Y94.090 E21.64121
G1 X180.550 Y95.250 E21.88257
G1 X179.710 Y96.270 E22.12504
G1 X96.270 Y179.710 E43.77852
G1 X95.250 Y180.550 E44.02100
G1 X94.090 Y181.170 E44.26235
G1 X92.820 Y181.560 E44.50614
G1 X91.510 Y181.690 E44.74771
G1 X90.200 Y181.560 E44.98927
G1 X88.930 Y181.170 E45.23306
G1 X87.770 Y180.550 E45.47442
G1 X86.750 Y179.710 E45.71689
G1 X20.290 Y113.240 E62.96520
G1 X19.450 Y112.220 E63.20767
G1 X18.830 Y111.060 E63.44903
G1 X18.440 Y109.790 E63.69281
G1 X18.310 Y108.480 E63.93438
G1 X18.440 Y107.170 E64.17595
G1 X18.830 Y105.900 E64.41974
G1 X19.450 Y104.740 E64.66109
G1 X20.290 Y103.720 E64.90356
G1 X103.642 Y20.368 E86.53420
G1 F1800.000 E85.53420
G92 E0
G1 X72.423 Y87.540 F7800.000
G1 F1800.000 E1.00000
G1 X79.933 Y95.050 F540.000 E2.94888
G1 X66.766 Y108.217 E6.36578
G1 X59.256 Y100.707 E8.31466
G1 X72.345 Y87.618 E11.71132
G1 X72.423 Y88.581 F7800.000
G1 X78.892 Y95.050 F540.000 E13.39023
G1 X66.766 Y107.177 E16.53715
G1 X60.296 Y100.707 E18.21606
G1 X72.345 Y88.659 E21.34274
G1 X72.423 Y89.621 F7800.000
G1 X77.852 Y95.050 F540.000 E22.75168
G1 X66.766 Y106.136 E25.62862
G1 X61.337 Y100.707 E27.03756
G1 X72.345 Y89.699 E29.89426
G1 X72.423 Y90.661 F7800.000
G1 X76.812 Y95.050 F540.000 E31.03323
G1 X66.766 Y105.096 E33.64020
G1 X62.377 Y100.707 E34.77917
G1 X72.345 Y90.739 E37.36589
G1 X72.423 Y91.702 F7800.000
G1 X75.771 Y95.050 F540.000 E38.23488
G1 X66.766 Y104.056 E40.57188
G1 X63.417 Y100.707 E41.44087
G1 X72.345 Y91.780 E43.75763
G1 X72.613 Y92.412 F7800.000
G1 F1800.000 E42.75763
G92 E0
G1 X106.861 Y86.214 F7800.000
G1 F1800.000 E1.00000
G1 X64.084 Y128.991 F540.000 E12.10118
G1 X95.050 Y159.958 E20.13727
G1 X148.790 Y106.218 E34.08335
G1 X153.179 Y110.607 E35.22231
G1 X93.636 Y170.150 E50.67435
G1 X53.892 Y130.406 E60.98837
G1 X106.364 Y77.933 E74.60540
G1 X110.753 Y82.322 E75.74437
G1 X106.939 Y86.136 E76.73400
G1 X106.341 Y85.694 F7800.000
G1 X63.044 Y128.991 F378.000 E87.97017
G1 X95.050 Y160.998 E96.27623
G1 X148.790 Y107.258 E110.22231
G1 X152.139 Y110.607 E111.09130
G1 X93.636 Y169.110 E126.27337
G1 X54.932 Y130.406 E136.31741
G1 X106.364 Y78.974 E149.66447
G1 X109.713 Y82.322 E150.53346
G1 X106.419 Y85.616 E151.38811
G1 X105.631 Y85.503 F7800.000
G1 F1800.000 E150.38811
G92 E0
G1 X108.422 Y87.774 F7800.000
G1 F1800.000 E1.00000
G1 X113.874 Y82.322 F540.000 E2.41485
G1 X106.364 Y74.812 E4.36373
G1 X51.210 Y129.967 E18.67681
G1 X29.728 Y108.485 E24.25146
G1 X108.485 Y29.728 E44.68970
G1 X170.272 Y91.515 E60.72391
G1 X153.740 Y108.046 E65.01406
G1 X148.790 Y103.097 E66.29857
G1 X95.050 Y156.837 E80.24465
G1 X67.205 Y128.991 E87.47081
G1 X108.344 Y87.852 E98.14679
G1 X107.902 Y87.254 F7800.000
G1 X112.834 Y82.322 F540.000 E99.42665
G1 X106.364 Y75.853 E101.10556
G1 X51.811 Y130.406 E115.26254
G1 X92.116 Y170.711 E125.72210
G1 X91.515 Y171.312 E125.87820
G1 X28.688 Y108.485 E142.18238
G1 X108.485 Y28.688 E162.89059
G1 X171.312 Y91.515 E179.19478
G1 X153.740 Y109.087 E183.75490
G1 X148.790 Y104.137 E185.03941
G1 X95.050 Y157.877 E198.98549
G1 X66.164 Y128.991 E206.48163
G1 X107.824 Y87.332 E217.29259
G1 X107.382 Y86.734 F7800.000
G1 X111.793 Y82.322 F540.000 E218.43746
G1 X106.364 Y76.893 E219.84640
G1 X52.851 Y130.406 E233.73340
G1 X93.157 Y170.711 E244.19296
G1 X91.515 Y172.353 E244.61904
G1 X27.647 Y108.485 E261.19320
G1 X108.485 Y27.647 E282.17138
G1 X172.353 Y91.515 E298.74554
G1 X153.740 Y110.127 E303.57564
G1 X148.790 Y105.177 E304.86014
G1 X95.050 Y158.917 E318.80622
G1 X65.124 Y128.991 E326.57234
G1 X107.303 Y86.812 E337.51828
G1 F1800.000 E336.51828
G92 E0
G1 X108.485 Y26.607 F7800.000
G1 F1800.000 E1.00000
G1 X173.393 Y91.515 F540.000 E17.84413
G1 X91.515 Y173.393 E39.09229
G1 X26.607 Y108.485 E55.93643
G1 X108.407 Y26.685 E77.16434
G1 X108.485 Y25.567 F7800.000
G1 X174.433 Y91.515 F378.000 E94.27845
G1 X91.515 Y174.433 E115.79658
G1 X25.567 Y108.485 E132.91069
G1 X108.407 Y25.645 E154.40857
G1 X108.676 Y26.277 F7800.000
G1 F1800.000 E153.40857
G92 E0
G1 X108.290 Y30.678 F7800.000
G1 F1800.000 E1.00000
G1 X169.322 Y91.710 F1080.000 E16.86055
G1 X168.801 Y92.231 E16.99592
G1 X107.769 Y31.199 E32.85647
G1 X107.248 Y31.720 E32.99183
G1 X168.280 Y92.752 E48.85238
G1 X167.760 Y93.273 E48.98775
G1 X106.727 Y32.240 E64.84830
G1 X106.206 Y32.761 E64.98366
G1 X167.239 Y93.794 E80.84421
G1 X166.718 Y94.315 E80.97958
G1 X105.685 Y33.282 E96.84013
G1 X105.164 Y33.803 E96.97549
G1 X166.197 Y94.836 E112.83604
G1 X165.676 Y95.356 E112.97141
G1 X104.644 Y34.324 E128.83196
G1 X104.123 Y34.845 E128.96732
G1 X165.155 Y95.877 E144.82787
G1 X164.634 Y96.398 E144.96324
G1 X103.602 Y35.366 E160.82379
G1 X103.081 Y35.887 E160.95915
G1 X164.113 Y96.919 E176.81970
G1 X163.593 Y97.440 E176.95507
G1 X102.560 Y36.407 E192.81562
G1 X102.039 Y36.928 E192.95098
G1 X163.072 Y97.961 E208.81153
G1 X162.551 Y98.482 E208.94690
G1 X101.518 Y37.449 E224.80745
G1 X100.997 Y37.970 E224.94281
G1 X162.030 Y99.003 E240.80337
G1 X161.509 Y99.524 E240.93873
G1 X100.476 Y38.491 E256.79928
G1 X99.956 Y39.012 E256.93464
G1 X160.988 Y100.044 E272.79520
G1 X160.467 Y100.565 E272.93056
G1 X99.435 Y39.533 E288.79111
G1 X98.914 Y40.054 E288.92647
G1 X159.946 Y101.086 E304.78703
G1 X159.425 Y101.607 E304.92239
G1 X98.393 Y40.575 E320.78294
G1 X97.872 Y41.095 E320.91830
G1 X158.905 Y102.128 E336.77886
G1 X158.384 Y102.649 E336.91422
G1 X97.351 Y41.616 E352.77477
G1 X96.830 Y42.137 E352.91013
G1 X157.863 Y103.170 E368.77069
G1 X157.342 Y103.691 E368.90605
G1 X96.309 Y42.658 E384.76660
G1 X95.788 Y43.179 E384.90196
G1 X156.821 Y104.212 E400.76252
G1 X156.300 Y104.732 E400.89788
G1 X95.268 Y43.700 E416.75843
G1 X94.747 Y44.221 E416.89379
G1 X155.779 Y105.253 E432.75435
G1 X155.258 Y105.774 E432.88971
G1 X94.226 Y44.742 E448.75026
G1 X93.705 Y45.263 E448.88563
G1 X154.737 Y106.295 E464.74618
G1 X154.217 Y106.816 E464.88154
G1 X93.184 Y45.783 E480.74209
G1 X92.663 Y46.304 E480.87746
G1 X148.746 Y102.387 E495.45172
G1 X148.225 Y102.908 E495.58708
G1 X92.142 Y46.825 E510.16134
G1 X91.621 Y47.346 E510.29670
G1 X147.704 Y103.429 E524.87096
G1 X147.183 Y103.950 E525.00632
G1 X91.101 Y47.867 E539.58058
G1 X90.580 Y48.388 E539.71594
G1 X146.662 Y104.471 E554.29020
G1 X146.142 Y104.991 E554.42557
G1 X90.059 Y48.909 E568.99983
G1 X89.538 Y49.430 E569.13519
G1 X145.621 Y105.512 E583.70945
G1 X145.100 Y106.033 E583.84481
G1 X89.017 Y49.950 E598.41907
G1 X88.496 Y50.471 E598.55443
G1 X144.579 Y106.554 E613.12869
G1 X144.058 Y107.075 E613.26405
G1 X87.975 Y50.992 E627.83831
G1 X87.454 Y51.513 E627.97368
G1 X143.537 Y107.596 E642.54794
G1 X143.016 Y108.117 E642.68330
G1 X86.933 Y52.034 E657.25756
G1 X86.413 Y52.555 E657.39292
G1 X142.495 Y108.638 E671.96718
G1 X141.974 Y109.159 E672.10254
G1 X85.892 Y53.076 E686.67680
G1 X85.371 Y53.597 E686.81217
G1 X106.098 Y74.324 E692.19861
G1 X105.577 Y74.845 E692.33398
G1 X84.850 Y54.118 E697.72043
G1 X84.329 Y54.638 E697.85579
G1 X105.056 Y75.366 E703.24224
G1 X104.536 Y75.887 E703.37760
G1 X83.808 Y55.159 E708.76405
G1 X83.287 Y55.680 E708.89941
G1 X104.015 Y76.408 E714.28586
G1 X103.494 Y76.929 E714.42122
G1 X82.766 Y56.201 E719.80767
G1 X82.245 Y56.722 E719.94304
G1 X102.973 Y77.449 E725.32949
G1 X102.452 Y77.970 E725.46485
G1 X81.725 Y57.243 E730.85130
G1 X81.204 Y57.764 E730.98666
G1 X101.931 Y78.491 E736.37311
G1 X101.410 Y79.012 E736.50847
G1 X80.683 Y58.285 E741.89492
G1 X80.162 Y58.806 E742.03028
G1 X100.889 Y79.533 E747.41673
G1 X100.368 Y80.054 E747.55210
G1 X79.641 Y59.326 E752.93854
G1 X79.120 Y59.847 E753.07391
G1 X99.848 Y80.575 E758.46036
G1 X99.327 Y81.096 E758.59572
G1 X78.599 Y60.368 E763.98217
G1 X78.078 Y60.889 E764.11753
G1 X98.806 Y81.617 E769.50398
G1 X98.285 Y82.137 E769.63934
G1 X77.558 Y61.410 E775.02579
G1 X77.037 Y61.931 E775.16115
G1 X97.764 Y82.658 E780.54760
G1 X97.243 Y83.179 E780.68297
G1 X76.516 Y62.452 E786.06942
G1 X75.995 Y62.973 E786.20478
G1 X96.722 Y83.700 E791.59123
G1 X96.201 Y84.221 E791.72659
G1 X75.474 Y63.493 E797.11304
G1 X74.953 Y64.014 E797.24840
G1 X95.681 Y84.742 E802.63485
G1 X95.160 Y85.263 E802.77021
G1 X74.432 Y64.535 E808.15666
G1 X73.911 Y65.056 E808.29203
G1 X94.639 Y85.784 E813.67848
G1 X94.118 Y86.304 E813.81384
G1 X73.390 Y65.577 E819.20029
G1 X72.870 Y66.098 E819.33565
G1 X93.597 Y86.825 E824.72210
G1 X93.076 Y87.346 E824.85746
G1 X72.349 Y66.619 E830.24391
G1 X71.828 Y67.140 E830.37927
G1 X92.555 Y87.867 E835.76572
G1 X92.034 Y88.388 E835.90109
G1 X71.307 Y67.661 E841.28754
G1 X70.786 Y68.181 E841.42290
G1 X91.513 Y88.909 E846.80935
G1 X90.993 Y89.430 E846.94471
G1 X70.265 Y68.702 E852.33116
G1 X69.744 Y69.223 E852.46652
G1 X90.472 Y89.951 E857.85297
G1 X89.951 Y90.472 E857.98833
G1 X69.223 Y69.744 E863.37478
G1 X68.702 Y70.265 E863.51015
G1 X89.430 Y90.992 E868.89660
G1 X88.909 Y91.513 E869.03196
G1 X68.182 Y70.786 E874.41841
G1 X67.661 Y71.307 E874.55377
G1 X88.388 Y92.034 E879.94022
G1 X87.867 Y92.555 E880.07558
G1 X67.140 Y71.828 E885.46203
G1 X66.619 Y72.349 E885.59739
G1 X87.346 Y93.076 E890.98384
G1 X86.825 Y93.597 E891.11921
G1 X66.098 Y72.869 E896.50566
G1 X65.577 Y73.390 E896.64102
G1 X86.305 Y94.118 E902.02747
G1 X85.784 Y94.639 E902.16283
G1 X65.056 Y73.911 E907.54928
G1 X64.535 Y74.432 E907.68464
G1 X85.263 Y95.160 E913.07109
G1 X84.742 Y95.680 E913.20645
G1 X64.015 Y74.953 E918.59290
G1 X63.494 Y75.474 E918.72827
G1 X84.221 Y96.201 E924.11472
G1 X83.700 Y96.722 E924.25008
G1 X62.973 Y75.995 E929.63653
G1 X62.452 Y76.516 E929.77189
G1 X83.179 Y97.243 E935.15834
G1 X80.316 Y95.421 E935.78200
G1 X82.658 Y97.764 E936.39079
G1 X82.138 Y98.285 E936.52615
G1 X79.795 Y95.942 E937.13494
G1 X79.274 Y96.463 E937.27031
G1 X81.617 Y98.806 E937.87910
G1 X81.096 Y99.327 E938.01446
G1 X78.753 Y96.984 E938.62325
G1 X78.232 Y97.505 E938.75861
G1 X80.575 Y99.847 E939.36740
G1 X80.054 Y100.368 E939.50277
G1 X77.711 Y98.026 E940.11156
G1 X77.190 Y98.547 E940.24692
G1 X79.533 Y100.889 E940.85571
G1 X79.012 Y101.410 E940.99107
G1 X76.670 Y99.067 E941.59986
G1 X76.149 Y99.588 E941.73522
G1 X78.491 Y101.931 E942.34401
G1 X77.970 Y102.452 E942.47938
G1 X75.628 Y100.109 E943.08817
G1 X75.107 Y100.630 E943.22353
G1 X77.450 Y102.973 E943.83232
G1 X76.929 Y103.494 E943.96768
G1 X74.586 Y101.151 E944.57647
G1 X74.065 Y101.672 E944.71184
G1 X76.408 Y104.015 E945.32063
G1 X75.887 Y104.535 E945.45599
G1 X73.544 Y102.193 E946.06478
G1 X73.023 Y102.714 E946.20014
G1 X75.366 Y105.056 E946.80893
G1 X74.845 Y105.577 E946.94429
G1 X72.502 Y103.235 E947.55308
G1 X71.982 Y103.755 E947.68844
G1 X74.324 Y106.098 E948.29723
G1 X73.803 Y106.619 E948.43260
G1 X71.461 Y104.276 E949.04139
G1 X70.940 Y104.797 E949.17675
G1 X73.282 Y107.140 E949.78554
G1 X72.762 Y107.661 E949.92090
G1 X70.419 Y105.318 E950.52969
G1 X69.898 Y105.839 E950.66505
G1 X72.241 Y108.182 E951.27384
G1 X71.720 Y108.703 E951.40920
G1 X69.377 Y106.360 E952.01799
G1 X68.856 Y106.881 E952.15335
G1 X71.199 Y109.223 E952.76214
G1 X70.678 Y109.744 E952.89751
G1 X68.335 Y107.402 E953.50629
G1 X67.815 Y107.923 E953.64166
G1 X70.157 Y110.265 E954.25044
G1 X69.636 Y110.786 E954.38581
G1 X67.294 Y108.443 E954.99460
G1 X66.773 Y108.964 E955.12996
G1 X69.115 Y111.307 E955.73875
G1 X68.595 Y111.828 E955.87411
G1 X47.867 Y91.100 E961.26056
G1 X47.346 Y91.621 E961.39592
G1 X68.074 Y112.349 E966.78237
G1 X67.553 Y112.870 E966.91773
G1 X46.825 Y92.142 E972.30418
G1 X46.304 Y92.663 E972.43955
G1 X67.032 Y113.390 E977.82599
G1 X66.511 Y113.911 E977.96136
G1 X45.784 Y93.184 E983.34781
G1 X45.263 Y93.705 E983.48317
G1 X65.990 Y114.432 E988.86962
G1 X65.469 Y114.953 E989.00498
G1 X44.742 Y94.226 E994.39143
G1 X44.221 Y94.747 E994.52679
G1 X64.948 Y115.474 E999.91324
G1 X64.427 Y115.995 E1000.04861
G1 X43.700 Y95.267 E1005.43506
G1 X43.179 Y95.788 E1005.57042
G1 X63.907 Y116.516 E1010.95687
G1 X63.386 Y117.037 E1011.09223
G1 X42.658 Y96.309 E1016.47868
G1 X42.137 Y96.830 E1016.61404
G1 X62.865 Y117.558 E1022.00049
G1 X62.344 Y118.078 E1022.13586
G1 X41.616 Y97.351 E1027.52230
G1 X41.096 Y97.872 E1027.65767
G1 X61.823 Y118.599 E1033.04412
G1 X61.302 Y119.120 E1033.17948
G1 X40.575 Y98.393 E1038.56593
G1 X40.054 Y98.914 E1038.70129
G1 X60.781 Y119.641 E1044.08774
G1 X60.260 Y120.162 E1044.22310
G1 X39.533 Y99.435 E1049.60955
G1 X39.012 Y99.955 E1049.74492
G1 X59.739 Y120.683 E1055.13137
G1 X59.219 Y121.204 E1055.26673
G1 X38.491 Y100.476 E1060.65318
G1 X37.970 Y100.997 E1060.78854
G1 X58.698 Y121.725 E1066.17499
G1 X58.177 Y122.246 E1066.31035
G1 X37.449 Y101.518 E1071.69680
G1 X36.928 Y102.039 E1071.83216
G1 X57.656 Y122.766 E1077.21861
G1 X57.135 Y123.287 E1077.35398
G1 X36.408 Y102.560 E1082.74043
G1 X35.887 Y103.081 E1082.87579
G1 X56.614 Y123.808 E1088.26224
G1 X56.093 Y124.329 E1088.39760
G1 X35.366 Y103.602 E1093.78405
G1 X34.845 Y104.123 E1093.91941
G1 X55.572 Y124.850 E1099.30586
G1 X55.052 Y125.371 E1099.44123
G1 X34.324 Y104.643 E1104.82768
G1 X33.803 Y105.164 E1104.96304
G1 X54.531 Y125.892 E1110.34949
G1 X54.010 Y126.413 E1110.48485
G1 X33.282 Y105.685 E1115.87130
G1 X32.761 Y106.206 E1116.00666
G1 X53.489 Y126.933 E1121.39311
G1 X52.968 Y127.454 E1121.52847
G1 X32.241 Y106.727 E1126.91492
G1 X31.720 Y107.248 E1127.05029
G1 X52.447 Y127.975 E1132.43674
G1 X51.926 Y128.496 E1132.57210
G1 X31.199 Y107.769 E1137.95855
G1 X30.678 Y108.290 E1138.09391
G1 X51.405 Y129.017 E1143.48036
G1 F1800.000 E1142.48036
G92 E0
G1 X68.003 Y128.947 F7800.000
G1 F1800.000 E1.00000
G1 X95.095 Y156.038 F1080.000 E8.04026
G1 X95.616 Y155.517 E8.17562
G1 X68.524 Y128.426 E15.21587
G1 X69.045 Y127.905 E15.35124
G1 X96.137 Y154.996 E22.39149
G1 X96.657 Y154.476 E22.52685
G1 X69.566 Y127.384 E29.56711
G1 X70.087 Y126.863 E29.70247
G1 X97.178 Y153.955 E36.74273
G1 X97.699 Y153.434 E36.87809
G1 X70.608 Y126.342 E43.91835
G1 X71.129 Y125.822 E44.05371
G1 X98.220 Y152.913 E51.09396
G1 X98.741 Y152.392 E51.22933
G1 X71.650 Y125.301 E58.26958
G1 X72.170 Y124.780 E58.40494
G1 X99.262 Y151.871 E65.44520
G1 X99.783 Y151.350 E65.58056
G1 X72.691 Y124.259 E72.62082
G1 X73.212 Y123.738 E72.75618
G1 X100.304 Y150.829 E79.79644
G1 X100.825 Y150.308 E79.93180
G1 X73.733 Y123.217 E86.97206
G1 X74.254 Y122.696 E87.10742
G1 X101.345 Y149.788 E94.14767
G1 X101.866 Y149.267 E94.28304
G1 X74.775 Y122.175 E101.32329
G1 X75.296 Y121.654 E101.45865
G1 X102.387 Y148.746 E108.49891
G1 X102.908 Y148.225 E108.63427
G1 X75.817 Y121.134 E115.67453
G1 X76.338 Y120.613 E115.80989
G1 X103.429 Y147.704 E122.85015
G1 X103.950 Y147.183 E122.98551
G1 X76.858 Y120.092 E130.02576
G1 X77.379 Y119.571 E130.16113
G1 X104.471 Y146.662 E137.20138
G1 X104.992 Y146.141 E137.33675
G1 X77.900 Y119.050 E144.37700
G1 X78.421 Y118.529 E144.51236
G1 X105.513 Y145.621 E151.55262
G1 X106.033 Y145.100 E151.68798
G1 X78.942 Y118.008 E158.72824
G1 X79.463 Y117.487 E158.86360
G1 X106.554 Y144.579 E165.90386
G1 X107.075 Y144.058 E166.03922
