; generated by Slic3r 0.9.10b on 2014-03-14 at 02:21:14

; layer_height = 0.4
; perimeters = 2
; top_solid_layers = 3
; bottom_solid_layers = 3
; fill_density = 0.2
; perimeter_speed = 30
; infill_speed = 60
; travel_speed = 130
; nozzle_diameter = 0.4
; filament_diameter = 1.75
; extrusion_multiplier = 1.07
; perimeters extrusion width = 0.42mm
; infill extrusion width = 0.42mm
; solid infill extrusion width = 0.42mm
; top infill extrusion width = 0.42mm
; first layer extrusion width = 0.70mm

G21 ; set units to millimeters
M107 ; disable fan
M190 S60 ; wait for bed temperature to be reached
M104 S175 ; set temperature
G28 ; home all axes
G1 Z5 F5000 ; lift nozzle
M109 S175 ; wait for temperature to be reached
G90 ; use absolute coordinates
G92 E0 ; reset extrusion distance
M82 ; use absolute distances for extrusion
G1 F1800.000 E-1.00000 ; retract
G92 E0 ; reset extrusion distance
G1 Z-0.150 F7800.000 ; move to next layer (0)
G1 X37.970 Y70.080 ; move to first skirt point
G1 F1800.000 E1.00000 ; compensate retraction
G1 X38.770 Y69.670 F540.000 E1.08896 ; skirt
G1 X43.740 Y67.460 E1.62726 ; skirt
G1 X44.570 Y67.140 E1.71529 ; skirt
G1 X45.440 Y66.910 E1.80435 ; skirt
G1 X50.760 Y65.780 E2.34259 ; skirt
G1 X52.090 Y65.610 E2.47529 ; skirt
G1 X55.250 Y65.460 E2.78837 ; skirt
G1 X95.250 Y65.460 E6.74698 ; skirt
G1 X96.610 Y65.570 E6.88201 ; skirt
G1 X97.940 Y65.890 E7.01739 ; skirt
G1 X173.440 Y90.890 E14.88825 ; skirt
G1 X174.830 Y91.500 E15.03847 ; skirt
G1 X176.100 Y92.340 E15.18916 ; skirt
G1 X177.200 Y93.400 E15.34034 ; skirt
G1 X178.090 Y94.640 E15.49140 ; skirt
G1 X178.750 Y96.010 E15.64189 ; skirt
G1 X179.160 Y97.480 E15.79293 ; skirt
G1 X179.290 Y99.000 E15.94390 ; skirt
G1 X179.290 Y101.210 E16.16262 ; skirt
G1 X178.790 Y121.210 E18.14254 ; skirt
G1 X178.600 Y122.780 E18.29905 ; skirt
G1 X178.140 Y124.290 E18.45527 ; skirt
G1 X177.400 Y125.680 E18.61111 ; skirt
G1 X176.410 Y126.910 E18.76737 ; skirt
G1 X175.220 Y127.950 E18.92377 ; skirt
G1 X173.860 Y128.740 E19.07943 ; skirt
G1 X172.380 Y129.270 E19.23500 ; skirt
G1 X170.820 Y129.520 E19.39136 ; skirt
G1 X95.820 Y134.520 E26.83023 ; skirt
G1 X95.250 Y134.540 E26.88668 ; skirt
G1 X54.780 Y134.530 E30.89181 ; skirt
G1 X52.060 Y134.380 E31.16140 ; skirt
G1 X50.760 Y134.210 E31.29115 ; skirt
G1 X45.440 Y133.080 E31.82939 ; skirt
G1 X44.570 Y132.850 E31.91845 ; skirt
G1 X43.740 Y132.530 E32.00648 ; skirt
G1 X38.770 Y130.320 E32.54478 ; skirt
G1 X37.970 Y129.910 E32.63374 ; skirt
G1 X37.220 Y129.420 E32.72240 ; skirt
G1 X32.830 Y126.230 E33.25945 ; skirt
G1 X32.130 Y125.670 E33.34817 ; skirt
G1 X31.500 Y125.040 E33.43634 ; skirt
G1 X27.860 Y121.000 E33.97451 ; skirt
G1 X27.300 Y120.300 E34.06322 ; skirt
G1 X26.810 Y119.550 E34.15188 ; skirt
G1 X24.090 Y114.840 E34.69015 ; skirt
G1 X23.690 Y114.050 E34.77779 ; skirt
G1 X23.370 Y113.210 E34.86675 ; skirt
G1 X21.690 Y108.040 E35.40473 ; skirt
G1 X21.450 Y107.170 E35.49405 ; skirt
G1 X21.310 Y106.280 E35.58321 ; skirt
G1 X20.750 Y100.870 E36.12147 ; skirt
G1 X20.710 Y99.990 E36.20865 ; skirt
G1 X20.750 Y99.110 E36.29583 ; skirt
G1 X21.310 Y93.710 E36.83311 ; skirt
G1 X21.450 Y92.820 E36.92227 ; skirt
G1 X21.690 Y91.950 E37.01159 ; skirt
G1 X23.370 Y86.780 E37.54958 ; skirt
G1 X23.690 Y85.940 E37.63854 ; skirt
G1 X24.090 Y85.150 E37.72617 ; skirt
G1 X26.810 Y80.440 E38.26444 ; skirt
G1 X27.300 Y79.690 E38.35310 ; skirt
G1 X27.860 Y78.990 E38.44182 ; skirt
G1 X31.500 Y74.950 E38.97998 ; skirt
G1 X32.130 Y74.320 E39.06816 ; skirt
G1 X32.830 Y73.760 E39.15687 ; skirt
G1 X37.220 Y70.570 E39.69392 ; skirt
G1 X37.890 Y70.132 E39.77315 ; skirt
G1 X38.290 Y70.630 F7800.000 ; move to first skirt point
G1 X39.030 Y70.260 F540.000 E39.85502 ; skirt
G1 X44.000 Y68.050 E40.39332 ; skirt
G1 X44.770 Y67.750 E40.47510 ; skirt
G1 X45.570 Y67.540 E40.55695 ; skirt
G1 X50.890 Y66.410 E41.09520 ; skirt
G1 X52.120 Y66.240 E41.21808 ; skirt
G1 X55.250 Y66.090 E41.52820 ; skirt
G1 X95.250 Y66.090 E45.48681 ; skirt
G1 X96.510 Y66.190 E45.61190 ; skirt
G1 X97.740 Y66.490 E45.73719 ; skirt
G1 X173.240 Y91.490 E53.60805 ; skirt
G1 X174.530 Y92.060 E53.74762 ; skirt
G1 X175.700 Y92.840 E53.88678 ; skirt
G1 X176.720 Y93.820 E54.02677 ; skirt
G1 X177.550 Y94.960 E54.16632 ; skirt
G1 X178.160 Y96.230 E54.30576 ; skirt
G1 X178.530 Y97.590 E54.44524 ; skirt
G1 X178.660 Y99.000 E54.58537 ; skirt
G1 X178.660 Y101.000 E54.78330 ; skirt
G1 X178.150 Y121.200 E56.78304 ; skirt
G1 X177.980 Y122.650 E56.92752 ; skirt
G1 X177.550 Y124.040 E57.07152 ; skirt
G1 X176.870 Y125.330 E57.21583 ; skirt
G1 X175.960 Y126.470 E57.36019 ; skirt
G1 X174.850 Y127.430 E57.50543 ; skirt
G1 X173.590 Y128.170 E57.65004 ; skirt
G1 X172.220 Y128.660 E57.79403 ; skirt
G1 X170.780 Y128.890 E57.93835 ; skirt
G1 X95.780 Y133.890 E65.37722 ; skirt
G1 X95.250 Y133.910 E65.42971 ; skirt
G1 X55.250 Y133.910 E69.38833 ; skirt
G1 X52.090 Y133.740 E69.70151 ; skirt
G1 X50.890 Y133.580 E69.82132 ; skirt
G1 X45.570 Y132.450 E70.35956 ; skirt
G1 X44.770 Y132.240 E70.44141 ; skirt
G1 X44.000 Y131.940 E70.52320 ; skirt
G1 X39.030 Y129.730 E71.06149 ; skirt
G1 X38.290 Y129.360 E71.14337 ; skirt
G1 X37.590 Y128.910 E71.22572 ; skirt
G1 X33.200 Y125.720 E71.76277 ; skirt
G1 X32.560 Y125.200 E71.84438 ; skirt
G1 X31.980 Y124.610 E71.92626 ; skirt
G1 X28.340 Y120.570 E72.46443 ; skirt
G1 X27.810 Y119.930 E72.54666 ; skirt
G1 X27.360 Y119.230 E72.62902 ; skirt
G1 X24.640 Y114.520 E73.16729 ; skirt
G1 X24.270 Y113.790 E73.24828 ; skirt
G1 X23.970 Y113.010 E73.33099 ; skirt
G1 X22.290 Y107.840 E73.86897 ; skirt
G1 X22.070 Y107.040 E73.95109 ; skirt
G1 X21.950 Y106.210 E74.03408 ; skirt
G1 X21.390 Y100.800 E74.57234 ; skirt
G1 X21.340 Y99.990 E74.65266 ; skirt
G1 X21.390 Y99.170 E74.73396 ; skirt
G1 X21.950 Y93.770 E75.27124 ; skirt
G1 X22.070 Y92.950 E75.35326 ; skirt
G1 X22.290 Y92.150 E75.43537 ; skirt
G1 X23.970 Y86.980 E75.97335 ; skirt
G1 X24.270 Y86.200 E76.05606 ; skirt
G1 X24.640 Y85.470 E76.13705 ; skirt
G1 X27.360 Y80.760 E76.67532 ; skirt
G1 X27.810 Y80.060 E76.75768 ; skirt
G1 X28.340 Y79.420 E76.83992 ; skirt
G1 X31.980 Y75.380 E77.37808 ; skirt
G1 X32.560 Y74.790 E77.45996 ; skirt
G1 X33.200 Y74.270 E77.54157 ; skirt
G1 X37.590 Y71.080 E78.07862 ; skirt
G1 X38.210 Y70.682 E78.15154 ; skirt
G1 X38.610 Y71.180 F7800.000 ; move to first skirt point
G1 X39.290 Y70.840 F540.000 E78.22678 ; skirt
G1 X44.260 Y68.630 E78.76507 ; skirt
G1 X44.970 Y68.350 E78.84060 ; skirt
G1 X45.700 Y68.160 E78.91525 ; skirt
G1 X51.020 Y67.030 E79.45350 ; skirt
G1 X52.160 Y66.880 E79.56729 ; skirt
G1 X55.250 Y66.730 E79.87345 ; skirt
G1 X95.250 Y66.730 E83.83206 ; skirt
G1 X96.410 Y66.820 E83.94721 ; skirt
G1 X97.540 Y67.100 E84.06242 ; skirt
G1 X173.040 Y92.100 E91.93328 ; skirt
G1 X174.410 Y92.720 E92.08210 ; skirt
G1 X175.640 Y93.610 E92.23235 ; skirt
G1 X176.640 Y94.740 E92.38168 ; skirt
G1 X177.400 Y96.050 E92.53156 ; skirt
G1 X177.860 Y97.490 E92.68117 ; skirt
G1 X178.020 Y99.000 E92.83144 ; skirt
G1 X178.020 Y101.180 E93.04719 ; skirt
G1 X177.520 Y121.180 E95.02711 ; skirt
G1 X177.360 Y122.520 E95.16067 ; skirt
G1 X176.960 Y123.800 E95.29338 ; skirt
G1 X176.330 Y124.980 E95.42576 ; skirt
G1 X175.500 Y126.030 E95.55822 ; skirt
G1 X174.480 Y126.910 E95.69154 ; skirt
G1 X173.320 Y127.590 E95.82461 ; skirt
G1 X172.060 Y128.040 E95.95702 ; skirt
G1 X170.730 Y128.260 E96.09044 ; skirt
G1 X95.730 Y133.260 E103.52931 ; skirt
G1 X54.850 Y133.260 E107.57501 ; skirt
G1 X52.130 Y133.110 E107.84461 ; skirt
G1 X51.020 Y132.960 E107.95546 ; skirt
G1 X45.700 Y131.830 E108.49370 ; skirt
G1 X44.970 Y131.640 E108.56835 ; skirt
G1 X44.260 Y131.360 E108.64388 ; skirt
G1 X39.290 Y129.150 E109.18218 ; skirt
G1 X38.610 Y128.810 E109.25742 ; skirt
G1 X37.970 Y128.390 E109.33317 ; skirt
G1 X33.580 Y125.200 E109.87022 ; skirt
G1 X32.990 Y124.720 E109.94549 ; skirt
G1 X32.450 Y124.190 E110.02037 ; skirt
G1 X28.810 Y120.150 E110.55854 ; skirt
G1 X28.330 Y119.560 E110.63381 ; skirt
G1 X27.910 Y118.920 E110.70957 ; skirt
G1 X25.190 Y114.210 E111.24784 ; skirt
G1 X24.850 Y113.530 E111.32308 ; skirt
G1 X24.570 Y112.820 E111.39862 ; skirt
G1 X22.890 Y107.650 E111.93660 ; skirt
G1 X22.700 Y106.910 E112.01221 ; skirt
G1 X22.580 Y106.150 E112.08836 ; skirt
G1 X22.020 Y100.740 E112.62662 ; skirt
G1 X21.980 Y99.990 E112.70095 ; skirt
G1 X22.020 Y99.240 E112.77528 ; skirt
G1 X22.580 Y93.840 E113.31256 ; skirt
G1 X22.700 Y93.080 E113.38870 ; skirt
G1 X22.890 Y92.340 E113.46431 ; skirt
G1 X24.570 Y87.170 E114.00230 ; skirt
G1 X24.850 Y86.460 E114.07783 ; skirt
G1 X25.190 Y85.780 E114.15307 ; skirt
G1 X27.910 Y81.070 E114.69134 ; skirt
G1 X28.330 Y80.430 E114.76710 ; skirt
G1 X28.810 Y79.840 E114.84237 ; skirt
G1 X32.450 Y75.800 E115.38054 ; skirt
G1 X32.990 Y75.270 E115.45542 ; skirt
G1 X33.580 Y74.790 E115.53069 ; skirt
G1 X37.970 Y71.600 E116.06774 ; skirt
G1 X38.530 Y71.232 E116.13406 ; skirt
G1 X38.920 Y71.730 F7800.000 ; move to first skirt point
G1 X39.540 Y71.420 F540.000 E116.20266 ; skirt
G1 X44.510 Y69.210 E116.74096 ; skirt
G1 X45.160 Y68.960 E116.80988 ; skirt
G1 X45.830 Y68.780 E116.87854 ; skirt
G1 X51.150 Y67.650 E117.41678 ; skirt
G1 X52.190 Y67.510 E117.52063 ; skirt
G1 X55.250 Y67.360 E117.82383 ; skirt
G1 X95.250 Y67.360 E121.78244 ; skirt
G1 X96.310 Y67.450 E121.88772 ; skirt
G1 X97.340 Y67.700 E121.99261 ; skirt
G1 X172.840 Y92.700 E129.86347 ; skirt
G1 X174.090 Y93.270 E129.99943 ; skirt
G1 X175.210 Y94.090 E130.13680 ; skirt
G1 X176.130 Y95.110 E130.27274 ; skirt
G1 X176.820 Y96.310 E130.40973 ; skirt
G1 X177.240 Y97.630 E130.54682 ; skirt
G1 X177.390 Y99.000 E130.68321 ; skirt
G1 X177.390 Y101.000 E130.88114 ; skirt
G1 X176.880 Y121.170 E132.87791 ; skirt
G1 X176.700 Y122.550 E133.01564 ; skirt
G1 X176.230 Y123.870 E133.15431 ; skirt
G1 X175.500 Y125.060 E133.29247 ; skirt
G1 X174.530 Y126.070 E133.43106 ; skirt
G1 X173.370 Y126.860 E133.56995 ; skirt
G1 X172.070 Y127.380 E133.70852 ; skirt
G1 X170.690 Y127.620 E133.84714 ; skirt
G1 X95.690 Y132.620 E141.28602 ; skirt
G1 X95.250 Y132.640 E141.32961 ; skirt
G1 X54.880 Y132.630 E145.32484 ; skirt
G1 X52.160 Y132.480 E145.59443 ; skirt
G1 X51.150 Y132.340 E145.69534 ; skirt
G1 X45.830 Y131.210 E146.23358 ; skirt
G1 X45.160 Y131.030 E146.30224 ; skirt
G1 X44.510 Y130.780 E146.37116 ; skirt
G1 X39.540 Y128.570 E146.90945 ; skirt
G1 X38.920 Y128.260 E146.97806 ; skirt
G1 X38.340 Y127.880 E147.04668 ; skirt
G1 X33.950 Y124.690 E147.58372 ; skirt
G1 X33.410 Y124.250 E147.65266 ; skirt
G1 X32.920 Y123.760 E147.72124 ; skirt
G1 X29.280 Y119.720 E148.25941 ; skirt
G1 X28.840 Y119.180 E148.32834 ; skirt
G1 X28.460 Y118.600 E148.39697 ; skirt
G1 X25.740 Y113.890 E148.93524 ; skirt
G1 X25.430 Y113.270 E149.00384 ; skirt
G1 X25.180 Y112.620 E149.07276 ; skirt
G1 X23.500 Y107.450 E149.61074 ; skirt
G1 X23.320 Y106.770 E149.68036 ; skirt
G1 X23.210 Y106.080 E149.74951 ; skirt
G1 X22.650 Y100.670 E150.28777 ; skirt
G1 X22.610 Y99.990 E150.35518 ; skirt
G1 X22.650 Y99.310 E150.42260 ; skirt
G1 X23.210 Y93.910 E150.95987 ; skirt
G1 X23.320 Y93.210 E151.03000 ; skirt
G1 X23.500 Y92.540 E151.09866 ; skirt
G1 X25.180 Y87.370 E151.63664 ; skirt
G1 X25.430 Y86.720 E151.70557 ; skirt
G1 X25.740 Y86.100 E151.77417 ; skirt
G1 X28.460 Y81.390 E152.31244 ; skirt
G1 X28.840 Y80.810 E152.38106 ; skirt
G1 X29.280 Y80.270 E152.44999 ; skirt
G1 X32.920 Y76.230 E152.98816 ; skirt
G1 X33.410 Y75.740 E153.05674 ; skirt
G1 X33.950 Y75.300 E153.12568 ; skirt
G1 X38.340 Y72.110 E153.66272 ; skirt
G1 X38.840 Y71.782 E153.72191 ; skirt
G1 F1800.000 E152.72191 ; retract
G92 E0 ; reset extrusion distance
G1 X46.771 Y85.313 F7800.000 ; move to first perimeter point
G1 F1800.000 E1.00000 ; compensate retraction
G1 X50.009 Y83.871 F540.000 E1.35086 ; perimeter
G1 X53.477 Y83.134 E1.70173 ; perimeter
G1 X57.023 Y83.134 E2.05260 ; perimeter
G1 X60.491 Y83.871 E2.40346 ; perimeter
G1 X63.729 Y85.313 E2.75433 ; perimeter
G1 X66.598 Y87.397 E3.10519 ; perimeter
G1 X68.970 Y90.032 E3.45606 ; perimeter
G1 X70.742 Y93.102 E3.80692 ; perimeter
G1 X71.838 Y96.474 E4.15778 ; perimeter
G1 X72.209 Y100.000 E4.50865 ; perimeter
G1 X71.838 Y103.526 E4.85951 ; perimeter
G1 X70.742 Y106.898 E5.21038 ; perimeter
G1 X68.970 Y109.968 E5.56124 ; perimeter
G1 X66.598 Y112.603 E5.91211 ; perimeter
G1 X63.729 Y114.687 E6.26297 ; perimeter
G1 X60.491 Y116.129 E6.61384 ; perimeter
G1 X57.023 Y116.866 E6.96470 ; perimeter
G1 X53.477 Y116.866 E7.31557 ; perimeter
G1 X50.009 Y116.129 E7.66643 ; perimeter
G1 X46.771 Y114.687 E8.01730 ; perimeter
G1 X43.902 Y112.603 E8.36816 ; perimeter
G1 X41.530 Y109.968 E8.71903 ; perimeter
G1 X39.758 Y106.898 E9.06989 ; perimeter
G1 X38.662 Y103.526 E9.42076 ; perimeter
G1 X38.291 Y100.000 E9.77162 ; perimeter
G1 X38.662 Y96.474 E10.12249 ; perimeter
G1 X39.758 Y93.102 E10.47335 ; perimeter
G1 X41.530 Y90.032 E10.82422 ; perimeter
G1 X43.902 Y87.397 E11.17508 ; perimeter
G1 X46.694 Y85.369 E11.51651 ; perimeter
G1 X47.090 Y85.867 F7800.000 ; move to first perimeter point
G1 X50.207 Y84.479 F378.000 E11.85415 ; perimeter
G1 X53.544 Y83.770 E12.19179 ; perimeter
G1 X56.956 Y83.770 E12.52944 ; perimeter
G1 X60.293 Y84.479 E12.86708 ; perimeter
G1 X63.410 Y85.867 E13.20472 ; perimeter
G1 X66.170 Y87.872 E13.54236 ; perimeter
G1 X68.453 Y90.408 E13.88001 ; perimeter
G1 X70.159 Y93.362 E14.21764 ; perimeter
G1 X71.213 Y96.607 E14.55529 ; perimeter
G1 X71.570 Y100.000 E14.89293 ; perimeter
G1 X71.213 Y103.393 E15.23057 ; perimeter
G1 X70.159 Y106.638 E15.56822 ; perimeter
G1 X68.453 Y109.592 E15.90585 ; perimeter
G1 X66.170 Y112.128 E16.24350 ; perimeter
G1 X63.410 Y114.133 E16.58114 ; perimeter
G1 X60.293 Y115.521 E16.91878 ; perimeter
G1 X56.956 Y116.230 E17.25642 ; perimeter
G1 X53.544 Y116.230 E17.59407 ; perimeter
G1 X50.207 Y115.521 E17.93171 ; perimeter
G1 X47.090 Y114.133 E18.26935 ; perimeter
G1 X44.330 Y112.128 E18.60699 ; perimeter
G1 X42.047 Y109.592 E18.94463 ; perimeter
G1 X40.341 Y106.638 E19.28227 ; perimeter
G1 X39.287 Y103.393 E19.61992 ; perimeter
G1 X38.930 Y100.000 E19.95756 ; perimeter
G1 X39.287 Y96.607 E20.29520 ; perimeter
G1 X40.341 Y93.362 E20.63284 ; perimeter
G1 X42.047 Y90.408 E20.97048 ; perimeter
G1 X44.330 Y87.872 E21.30812 ; perimeter
G1 X47.013 Y85.923 E21.63633 ; perimeter
G1 X47.629 Y86.204 F7800.000 ; move inwards before travel
G1 F1800.000 E20.63633 ; retract
G92 E0 ; reset extrusion distance
G1 X94.932 Y100.682 F7800.000 ; move to first perimeter point
G1 F1800.000 E1.00000 ; compensate retraction
G1 X168.568 Y100.682 F378.000 E8.28737 ; perimeter
G1 X168.568 Y119.318 E10.13165 ; perimeter
G1 X94.932 Y119.318 E17.41903 ; perimeter
G1 X94.932 Y100.778 E19.25387 ; perimeter
G1 X95.483 Y101.000 F7800.000 ; move inwards before travel
G1 F1800.000 E18.25387 ; retract
G92 E0 ; reset extrusion distance
G1 X87.976 Y109.153 F7800.000 ; move to first perimeter point
G1 F1800.000 E1.00000 ; compensate retraction
G1 X89.478 Y110.483 F378.000 E1.19850 ; perimeter
G1 X90.617 Y112.133 E1.39700 ; perimeter
G1 X91.321 Y113.989 E1.59338 ; perimeter
G1 X91.570 Y116.000 E1.79390 ; perimeter
G1 X91.328 Y117.991 E1.99244 ; perimeter
G1 X90.825 Y119.318 E2.13286 ; perimeter
G1 X90.568 Y119.318 E2.15834 ; perimeter
G1 X90.568 Y119.939 E2.21977 ; perimeter
G1 X89.462 Y121.532 E2.41171 ; perimeter
G1 X87.976 Y122.847 E2.60809 ; perimeter
G1 X86.200 Y123.779 E2.80658 ; perimeter
G1 X84.253 Y124.260 E3.00508 ; perimeter
G1 X82.247 Y124.260 E3.20359 ; perimeter
G1 X80.300 Y123.779 E3.40208 ; perimeter
G1 X78.524 Y122.847 E3.60058 ; perimeter
G1 X77.022 Y121.517 E3.79909 ; perimeter
G1 X75.883 Y119.867 E3.99759 ; perimeter
G1 X75.172 Y117.991 E4.19609 ; perimeter
G1 X74.930 Y116.000 E4.39459 ; perimeter
G1 X75.172 Y114.009 E4.59309 ; perimeter
G1 X75.883 Y112.133 E4.79159 ; perimeter
G1 X77.022 Y110.483 E4.99009 ; perimeter
G1 X78.524 Y109.153 E5.18860 ; perimeter
G1 X80.300 Y108.221 E5.38710 ; perimeter
G1 X82.247 Y107.741 E5.58560 ; perimeter
G1 X84.253 Y107.741 E5.78410 ; perimeter
G1 X86.200 Y108.221 E5.98259 ; perimeter
G1 X87.892 Y109.108 E6.17166 ; perimeter
