; generated by Slic3r 0.9.10b on 2014-04-06 at 23:46:55

; layer_height = 0.4
; perimeters = 3
; top_solid_layers = 3
; bottom_solid_layers = 3
; fill_density = 0.4
; perimeter_speed = 30
; infill_speed = 60
; travel_speed = 130
; nozzle_diameter = 0.5
; filament_diameter = 3
; extrusion_multiplier = 1
; perimeters extrusion width = 0.53mm
; infill extrusion width = 0.53mm
; solid infill extrusion width = 0.53mm
; top infill extrusion width = 0.53mm
; first layer extrusion width = 0.70mm

G21 ; set units to millimeters
M107
M104 S200 ; set temperature
G28 ; home all axes
G1 Z5 F5000 ; lift nozzle

M109 S200 ; wait for temperature to be reached
G90 ; use absolute coordinates
G92 E0
M82 ; use absolute distances for extrusion
G1 F1800.000 E-1.00000
G92 E0
G1 Z0.350 F7800.000
G1 X73.780 Y86.166
G1 F1800.000 E1.00000
G1 X74.320 Y85.726 F540.000 E1.02266
G1 X76.340 Y84.256 E1.10394
G1 X76.930 Y83.876 E1.12678
G1 X77.550 Y83.556 E1.14948
G1 X79.840 Y82.536 E1.23104
G1 X80.490 Y82.286 E1.25370
G1 X81.160 Y82.106 E1.27627
G1 X83.600 Y81.586 E1.35744
G1 X84.290 Y81.476 E1.38017
G1 X84.990 Y81.436 E1.40298
G1 X87.500 Y81.436 E1.48465
G1 X88.110 Y81.466 E1.50452
G1 X117.650 Y84.176 E2.46964
G1 X120.080 Y84.556 E2.54966
G1 X120.800 Y84.716 E2.57366
G1 X121.490 Y84.946 E2.59732
G1 X123.330 Y85.686 E2.66185
G1 X123.980 Y85.986 E2.68514
G1 X124.590 Y86.356 E2.70835
G1 X126.240 Y87.476 E2.77323
G1 X126.810 Y87.906 E2.79647
G1 X127.320 Y88.396 E2.81948
G1 X128.690 Y89.836 E2.88414
G1 X129.170 Y90.406 E2.90839
G1 X129.590 Y91.016 E2.93248
G1 X130.610 Y92.726 E2.99726
G1 X130.930 Y93.346 E3.01996
G1 X131.190 Y93.986 E3.04244
G1 X131.830 Y95.866 E3.10705
G1 X132.030 Y96.586 E3.13136
G1 X132.150 Y97.316 E3.15543
G1 X132.360 Y99.296 E3.22022
G1 X132.400 Y99.996 E3.24303
G1 X132.360 Y100.696 E3.26584
G1 X132.150 Y102.676 E3.33062
G1 X132.030 Y103.406 E3.35469
G1 X131.830 Y104.126 E3.37900
G1 X131.190 Y106.006 E3.44361
G1 X130.930 Y106.646 E3.46609
G1 X130.610 Y107.266 E3.48879
G1 X129.590 Y108.976 E3.55357
G1 X129.170 Y109.586 E3.57767
G1 X128.690 Y110.156 E3.60191
G1 X127.320 Y111.596 E3.66658
G1 X126.810 Y112.086 E3.68959
G1 X126.240 Y112.516 E3.71282
G1 X124.590 Y113.636 E3.77770
G1 X123.970 Y114.006 E3.80119
G1 X123.300 Y114.316 E3.82521
G1 X121.460 Y115.046 E3.88962
G1 X120.800 Y115.266 E3.91225
G1 X120.110 Y115.426 E3.93529
G1 X118.140 Y115.756 E4.00028
G1 X117.650 Y115.816 E4.01634
G1 X88.110 Y118.526 E4.98147
G1 X87.500 Y118.556 E5.00134
G1 X84.990 Y118.556 E5.08300
G1 X84.290 Y118.516 E5.10582
G1 X83.600 Y118.406 E5.12855
G1 X81.160 Y117.886 E5.20972
G1 X80.490 Y117.706 E5.23229
G1 X79.840 Y117.456 E5.25495
G1 X77.550 Y116.436 E5.33651
G1 X76.930 Y116.116 E5.35921
G1 X76.340 Y115.736 E5.38204
G1 X74.320 Y114.266 E5.46332
G1 X73.780 Y113.826 E5.48599
G1 X73.290 Y113.336 E5.50853
G1 X71.620 Y111.476 E5.58986
G1 X71.190 Y110.946 E5.61207
G1 X70.820 Y110.376 E5.63417
G1 X69.560 Y108.216 E5.71553
G1 X69.230 Y107.586 E5.73867
G1 X68.980 Y106.916 E5.76194
G1 X68.210 Y104.536 E5.84332
G1 X68.030 Y103.866 E5.86590
G1 X67.920 Y103.176 E5.88863
G1 X67.660 Y100.686 E5.97008
G1 X67.620 Y99.996 E5.99257
G1 X67.660 Y99.306 E6.01506
G1 X67.920 Y96.816 E6.09651
G1 X68.030 Y96.126 E6.11924
G1 X68.210 Y95.456 E6.14181
G1 X68.980 Y93.076 E6.22320
G1 X69.230 Y92.406 E6.24647
G1 X69.560 Y91.776 E6.26960
G1 X70.820 Y89.616 E6.35096
G1 X71.190 Y89.046 E6.37307
G1 X71.620 Y88.516 E6.39528
G1 X73.290 Y86.656 E6.47661
G1 X73.710 Y86.235 E6.49595
G1 F1800.000 E5.49595
G92 E0
G1 X79.349 Y92.336 F7800.000
G1 F1800.000 E1.00000
G1 X81.093 Y91.068 F540.000 E1.07015
G1 X83.063 Y90.191 E1.14030
G1 X85.172 Y89.743 E1.21044
G1 X87.328 Y89.743 E1.28059
G1 X89.437 Y90.191 E1.35074
G1 X91.407 Y91.068 E1.42089
G1 X93.151 Y92.336 E1.49103
G1 X94.594 Y93.938 E1.56118
G1 X95.672 Y95.805 E1.63133
G1 X96.338 Y97.856 E1.70148
G1 X96.563 Y100.000 E1.77163
G1 X96.338 Y102.144 E1.84177
G1 X95.672 Y104.195 E1.91192
G1 X94.594 Y106.062 E1.98207
G1 X93.151 Y107.664 E2.05222
G1 X91.407 Y108.932 E2.12236
G1 X89.437 Y109.809 E2.19251
G1 X87.328 Y110.257 E2.26266
G1 X85.172 Y110.257 E2.33281
G1 X83.063 Y109.809 E2.40296
G1 X81.093 Y108.932 E2.47310
G1 X79.349 Y107.664 E2.54325
G1 X77.906 Y106.062 E2.61340
G1 X76.828 Y104.195 E2.68355
G1 X76.162 Y102.144 E2.75370
G1 X75.937 Y100.000 E2.82384
G1 X76.162 Y97.856 E2.89399
G1 X76.828 Y95.805 E2.96414
G1 X77.906 Y93.938 E3.03429
G1 X79.283 Y92.409 E3.10123
G1 X78.907 Y91.845 F7800.000
G1 X80.763 Y90.496 F540.000 E3.17587
G1 X82.859 Y89.563 E3.25051
G1 X85.103 Y89.086 E3.32515
G1 X87.397 Y89.086 E3.39979
G1 X89.641 Y89.563 E3.47444
G1 X91.737 Y90.496 E3.54908
G1 X93.593 Y91.845 E3.62372
G1 X95.128 Y93.550 E3.69836
G1 X96.275 Y95.536 E3.77300
G1 X96.984 Y97.718 E3.84764
G1 X97.224 Y100.000 E3.92229
G1 X96.984 Y102.282 E3.99693
G1 X96.275 Y104.464 E4.07157
G1 X95.128 Y106.450 E4.14621
G1 X93.593 Y108.155 E4.22085
G1 X91.737 Y109.504 E4.29549
G1 X89.641 Y110.437 E4.37014
G1 X87.397 Y110.914 E4.44478
G1 X85.103 Y110.914 E4.51942
G1 X82.859 Y110.437 E4.59406
G1 X80.763 Y109.504 E4.66870
G1 X78.907 Y108.155 E4.74335
G1 X77.372 Y106.450 E4.81799
G1 X76.225 Y104.464 E4.89263
G1 X75.516 Y102.282 E4.96727
G1 X75.276 Y100.000 E5.04191
G1 X75.516 Y97.718 E5.11655
G1 X76.225 Y95.536 E5.19120
G1 X77.372 Y93.550 E5.26584
G1 X78.841 Y91.918 E5.33727
G1 X78.465 Y91.354 F7800.000
G1 X80.433 Y89.924 F378.000 E5.41641
G1 X82.655 Y88.935 E5.49554
G1 X85.034 Y88.429 E5.57468
G1 X87.466 Y88.429 E5.65381
G1 X89.845 Y88.935 E5.73295
G1 X92.067 Y89.924 E5.81209
G1 X94.035 Y91.354 E5.89122
G1 X95.663 Y93.161 E5.97036
G1 X96.879 Y95.268 E6.04949
G1 X97.630 Y97.581 E6.12863
G1 X97.885 Y100.000 E6.20776
G1 X97.630 Y102.419 E6.28690
G1 X96.879 Y104.732 E6.36603
G1 X95.663 Y106.839 E6.44517
G1 X94.035 Y108.646 E6.52430
G1 X92.067 Y110.076 E6.60344
G1 X89.845 Y111.065 E6.68258
G1 X87.466 Y111.571 E6.76171
G1 X85.034 Y111.571 E6.84085
G1 X82.655 Y111.065 E6.91998
G1 X80.433 Y110.076 E6.99912
G1 X78.465 Y108.646 E7.07825
G1 X76.837 Y106.839 E7.15739
G1 X75.621 Y104.732 E7.23652
G1 X74.870 Y102.419 E7.31566
G1 X74.615 Y100.000 E7.39480
G1 X74.870 Y97.581 E7.47393
G1 X75.621 Y95.268 E7.55307
G1 X76.837 Y93.161 E7.63220
G1 X78.399 Y91.427 E7.70813
G1 X79.082 Y91.578 F7800.000
G1 F1800.000 E6.70813
G92 E0
G1 X109.397 Y97.590 F7800.000
G1 F1800.000 E1.00000
G1 X110.083 Y96.109 F540.000 E1.05310
G1 X111.070 Y94.810 E1.10620
G1 X112.314 Y93.753 E1.15930
G1 X113.756 Y92.988 E1.21240
G1 X115.329 Y92.552 E1.26550
G1 X116.959 Y92.463 E1.31860
G1 X118.569 Y92.727 E1.37170
G1 X120.085 Y93.332 E1.42480
G1 X121.436 Y94.247 E1.47790
G1 X122.559 Y95.432 E1.53100
G1 X123.400 Y96.831 E1.58410
G1 X123.921 Y98.377 E1.63720
G1 X124.098 Y100.000 E1.69030
G1 X123.921 Y101.623 E1.74340
G1 X123.400 Y103.169 E1.79650
G1 X122.559 Y104.568 E1.84960
G1 X121.436 Y105.753 E1.90270
G1 X120.085 Y106.668 E1.95580
G1 X118.569 Y107.273 E2.00890
G1 X116.959 Y107.537 E2.06200
G1 X115.329 Y107.448 E2.11511
G1 X113.756 Y107.012 E2.16821
G1 X112.314 Y106.247 E2.22130
G1 X111.070 Y105.190 E2.27441
G1 X110.083 Y103.891 E2.32751
G1 X109.397 Y102.410 E2.38061
G1 X109.047 Y100.816 E2.43371
G1 X109.047 Y99.184 E2.48681
G1 X109.376 Y97.686 E2.53670
G1 X108.771 Y97.379 F7800.000
G1 X109.516 Y95.768 F540.000 E2.59445
G1 X110.591 Y94.355 E2.65220
G1 X111.943 Y93.206 E2.70995
G1 X113.512 Y92.374 E2.76770
G1 X115.222 Y91.900 E2.82545
G1 X116.994 Y91.803 E2.88320
G1 X118.746 Y92.091 E2.94095
G1 X120.395 Y92.748 E2.99870
G1 X121.864 Y93.744 E3.05645
G1 X123.085 Y95.032 E3.11420
G1 X124.000 Y96.553 E3.17195
G1 X124.567 Y98.235 E3.22970
G1 X124.759 Y100.000 E3.28745
G1 X124.567 Y101.765 E3.34520
G1 X124.000 Y103.447 E3.40295
G1 X123.085 Y104.968 E3.46070
G1 X121.864 Y106.256 E3.51845
G1 X120.395 Y107.252 E3.57620
G1 X118.746 Y107.909 E3.63395
G1 X116.994 Y108.197 E3.69170
G1 X115.222 Y108.100 E3.74945
G1 X113.512 Y107.626 E3.80721
G1 X111.943 Y106.794 E3.86495
G1 X110.591 Y105.645 E3.92271
G1 X109.516 Y104.232 E3.98046
G1 X108.771 Y102.621 E4.03821
G1 X108.390 Y100.887 E4.09596
G1 X108.390 Y99.113 E4.15371
G1 X108.750 Y97.475 E4.20825
G1 X108.140 Y97.190 F7800.000
G1 X108.950 Y95.427 F378.000 E4.27136
G1 X110.111 Y93.900 E4.33376
G1 X111.573 Y92.659 E4.39616
G1 X113.267 Y91.760 E4.45856
G1 X115.115 Y91.247 E4.52096
G1 X117.030 Y91.143 E4.58336
G1 X118.923 Y91.454 E4.64576
G1 X120.705 Y92.164 E4.70816
G1 X122.274 Y93.227 E4.76984
G1 X123.611 Y94.632 E4.83295
G1 X124.600 Y96.276 E4.89534
G1 X125.212 Y98.093 E4.95774
G1 X125.420 Y100.000 E5.02014
G1 X125.212 Y101.907 E5.08255
G1 X124.600 Y103.724 E5.14495
G1 X123.611 Y105.368 E5.20734
G1 X122.274 Y106.773 E5.27045
G1 X120.705 Y107.836 E5.33213
G1 X118.923 Y108.546 E5.39453
G1 X117.030 Y108.857 E5.45693
G1 X115.115 Y108.753 E5.51933
G1 X113.267 Y108.240 E5.58173
G1 X111.573 Y107.341 E5.64413
G1 X110.111 Y106.100 E5.70653
G1 X108.950 Y104.573 E5.76893
G1 X108.145 Y102.832 E5.83133
G1 X107.732 Y100.959 E5.89373
G1 X107.732 Y99.041 E5.95613
G1 X108.119 Y97.286 E6.01460
G1 X108.788 Y97.082 F7800.000
G1 F1800.000 E5.01460
G92 E0
G1 X93.065 Y92.953 F7800.000
G1 F1800.000 E1.00000
G1 X92.735 Y92.623 F1080.000 E1.01528
G1 X90.255 Y91.077 E1.11096
G1 X95.261 Y96.083 E1.34273
G1 X95.711 Y97.468 E1.39040
G1 X88.782 Y90.539 E1.71119
G1 X87.595 Y90.287 E1.75093
G1 X95.941 Y98.633 E2.13730
G1 X96.050 Y99.678 E2.17169
G1 X86.592 Y90.219 E2.60956
G1 X85.657 Y90.219 E2.64017
G1 X96.023 Y100.585 E3.12004
G1 X95.934 Y101.431 E3.14789
G1 X84.810 Y90.307 E3.66287
G1 X84.039 Y90.471 E3.68868
G1 X95.806 Y102.238 E4.23346
G1 X95.577 Y102.944 E4.25775
G1 X83.268 Y90.635 E4.82761
G1 X82.612 Y90.914 E4.85095
G1 X95.348 Y103.650 E5.44057
G1 X95.062 Y104.299 E5.46379
G1 X81.965 Y91.202 E6.07011
G1 X81.320 Y91.492 E6.09325
G1 X94.719 Y104.891 E6.71357
G1 X94.377 Y105.484 E6.73597
G1 X80.779 Y91.886 E7.36552
G1 X80.237 Y92.279 E7.38743
G1 X93.985 Y106.027 E8.02387
G1 X93.542 Y106.518 E8.04554
G1 X79.696 Y92.673 E8.68654
G1 X79.248 Y93.160 E8.70820
G1 X93.099 Y107.010 E9.34942
G1 X92.617 Y107.464 E9.37108
G1 X78.805 Y93.652 E10.01050
G1 X78.362 Y94.144 E10.03217
G1 X92.075 Y107.857 E10.66703
G1 X91.534 Y108.250 E10.68894
G1 X78.004 Y94.721 E11.31529
G1 X77.662 Y95.314 E11.33770
G1 X90.958 Y108.610 E11.95324
G1 X90.311 Y108.898 E11.97642
G1 X77.320 Y95.907 E12.57786
G1 X77.073 Y96.594 E12.60179
G1 X89.664 Y109.186 E13.18472
G1 X88.965 Y109.422 E13.20887
G1 X76.843 Y97.300 E13.77005
G1 X76.624 Y98.016 E13.79456
G1 X88.194 Y109.586 E14.33019
G1 X87.423 Y109.750 E14.35600
G1 X76.535 Y98.862 E14.86005
G1 X76.446 Y99.708 E14.88790
G1 X86.519 Y109.781 E15.35422
G1 X85.584 Y109.781 E15.38482
G1 X76.488 Y100.684 E15.80595
G1 X76.597 Y101.729 E15.84034
G1 X84.494 Y109.626 E16.20593
G1 X83.307 Y109.373 E16.24567
G1 X76.945 Y103.011 E16.54021
G1 X77.631 Y104.633 E16.59786
G1 X81.662 Y108.663 E16.78446
G1 F1800.000 E15.78446
G92 E0
G1 X109.853 Y102.260 F7800.000
G1 F1800.000 E1.00000
G1 X114.246 Y106.653 F1080.000 E1.20212
G1 X115.509 Y106.981 F7800.000
G1 X109.588 Y101.060 F1080.000 E1.47453
G1 X109.523 Y100.060 F7800.000
G1 X116.497 Y107.035 F1080.000 E1.79543
G1 X117.382 Y106.985 F7800.000
G1 X109.543 Y99.145 F1080.000 E2.15613
G1 X109.711 Y98.379 F7800.000
G1 X118.185 Y106.853 F1080.000 E2.54603
G1 X118.897 Y106.629 F7800.000
G1 X109.902 Y97.634 F1080.000 E2.95991
G1 X110.198 Y96.995 F7800.000
G1 X119.565 Y106.363 F1080.000 E3.39094
G1 X120.172 Y106.034 F7800.000
G1 X110.493 Y96.356 F1080.000 E3.83627
G1 X110.897 Y95.825 F7800.000
G1 X120.729 Y105.657 F1080.000 E4.28866
G1 X121.257 Y105.249 F7800.000
G1 X111.301 Y95.293 F1080.000 E4.74675
G1 X111.777 Y94.834 F7800.000
G1 X121.712 Y104.769 F1080.000 E5.20387
G1 X122.166 Y104.289 F7800.000
G1 X112.282 Y94.405 F1080.000 E5.65866
G1 X112.831 Y94.018 F7800.000
G1 X122.520 Y103.708 F1080.000 E6.10449
G1 X122.871 Y103.124 F7800.000
G1 X113.442 Y93.694 F1080.000 E6.53837
G1 X114.076 Y93.394 F7800.000
G1 X123.138 Y102.456 F1080.000 E6.95531
G1 X123.374 Y101.756 F7800.000
G1 X114.808 Y93.191 F1080.000 E7.34942
G1 X115.568 Y93.016 F7800.000
G1 X123.514 Y100.962 F1080.000 E7.71503
G1 X123.606 Y100.118 F7800.000
G1 X116.455 Y92.968 F1080.000 E8.04404
G1 X117.449 Y93.026 F7800.000
G1 X123.520 Y99.098 F1080.000 E8.32341
G1 X123.258 Y97.901 F7800.000
G1 X118.616 Y93.259 F1080.000 E8.53700
G1 X120.439 Y94.147 F7800.000
G1 X122.423 Y96.131 F1080.000 E8.62830
G1 X112.085 Y105.428 F7800.000
G1 X111.100 Y104.442 F1080.000 E8.67364
M106 S249
G1 F1800.000 E7.67364
G92 E0
G1 Z0.750 F7800.000
G1 X96.603 Y102.200
G1 F1800.000 E1.00000
G1 X95.919 Y104.305 F1800.000 E1.06506
G1 X94.812 Y106.221 E1.13013
G1 X93.332 Y107.865 E1.19519
G1 X91.542 Y109.166 E1.26025
G1 X89.521 Y110.066 E1.32531
G1 X87.356 Y110.526 E1.39038
G1 X85.144 Y110.526 E1.45544
G1 X82.979 Y110.066 E1.52050
G1 X80.958 Y109.166 E1.58556
G1 X79.168 Y107.865 E1.65063
G1 X77.688 Y106.221 E1.71569
G1 X76.581 Y104.305 E1.78075
G1 X75.897 Y102.200 E1.84581
G1 X75.666 Y100.000 E1.91088
G1 X75.897 Y97.800 E1.97594
G1 X76.581 Y95.695 E2.04100
G1 X77.688 Y93.779 E2.10606
G1 X79.168 Y92.135 E2.17113
G1 X80.958 Y90.834 E2.23619
G1 X82.979 Y89.934 E2.30125
G1 X85.144 Y89.474 E2.36631
G1 X87.356 Y89.474 E2.43137
G1 X89.521 Y89.934 E2.49644
G1 X91.542 Y90.834 E2.56150
G1 X93.332 Y92.135 E2.62656
G1 X94.812 Y93.779 E2.69162
G1 X95.919 Y95.695 E2.75669
G1 X96.602 Y97.800 E2.82175
G1 X96.834 Y100.000 E2.88681
G1 X96.611 Y102.123 E2.94958
G1 X97.114 Y102.309 F7800.000
G1 X96.396 Y104.517 F1800.000 E3.01786
G1 X95.235 Y106.528 E3.08613
G1 X93.682 Y108.254 E3.15441
G1 X91.803 Y109.618 E3.22268
G1 X89.682 Y110.563 E3.29096
G1 X87.411 Y111.045 E3.35923
G1 X85.089 Y111.045 E3.42750
G1 X82.818 Y110.563 E3.49578
G1 X80.697 Y109.618 E3.56405
G1 X78.818 Y108.254 E3.63233
G1 X77.265 Y106.528 E3.70060
G1 X76.104 Y104.517 E3.76888
G1 X75.386 Y102.309 E3.83715
G1 X75.144 Y100.000 E3.90543
G1 X75.386 Y97.691 E3.97370
G1 X76.104 Y95.483 E4.04197
G1 X77.265 Y93.472 E4.11025
G1 X78.818 Y91.746 E4.17852
G1 X80.697 Y90.382 E4.24680
G1 X82.818 Y89.437 E4.31507
G1 X85.089 Y88.955 E4.38335
G1 X87.411 Y88.955 E4.45162
G1 X89.682 Y89.437 E4.51990
G1 X91.803 Y90.382 E4.58817
G1 X93.682 Y91.746 E4.65644
G1 X95.235 Y93.472 E4.72472
G1 X96.396 Y95.483 E4.79299
G1 X97.114 Y97.691 E4.86127
G1 X97.356 Y100.000 E4.92954
G1 X97.122 Y102.232 E4.99552
G1 X97.627 Y102.399 F7800.000
G1 X96.873 Y104.730 F1260.000 E5.06755
G1 X95.658 Y106.835 E5.13903
G1 X94.031 Y108.642 E5.21052
G1 X92.064 Y110.071 E5.28201
G1 X89.843 Y111.060 E5.35349
G1 X87.466 Y111.565 E5.42498
G1 X85.034 Y111.565 E5.49647
G1 X82.657 Y111.060 E5.56795
G1 X80.436 Y110.071 E5.63944
G1 X78.469 Y108.642 E5.71093
G1 X76.842 Y106.835 E5.78241
G1 X75.627 Y104.730 E5.85390
G1 X74.875 Y102.418 E5.92539
G1 X74.621 Y100.000 E5.99687
G1 X74.875 Y97.582 E6.06836
G1 X75.627 Y95.270 E6.13985
G1 X76.842 Y93.165 E6.21133
G1 X78.469 Y91.358 E6.28282
G1 X80.436 Y89.929 E6.35430
G1 X82.657 Y88.940 E6.42579
G1 X85.034 Y88.435 E6.49728
G1 X87.466 Y88.435 E6.56876
G1 X89.843 Y88.940 E6.64025
G1 X92.064 Y89.929 E6.71174
G1 X94.031 Y91.358 E6.78322
G1 X95.658 Y93.165 E6.85471
G1 X96.873 Y95.270 E6.92620
G1 X97.625 Y97.582 E6.99768
G1 X97.879 Y100.000 E7.06917
G1 X97.635 Y102.322 E7.13781
G1 X97.127 Y102.543 F7800.000
G1 F1800.000 E6.13781
G92 E0
G1 X108.703 Y100.853 F7800.000
G1 F1800.000 E1.00000
G1 X108.703 Y99.147 F1800.000 E1.05019
G1 X109.070 Y97.480 E1.10038
G1 X109.787 Y95.931 E1.15057
G1 X110.819 Y94.572 E1.20076
G1 X112.120 Y93.467 E1.25095
G1 X113.592 Y92.687 E1.29993
G1 X115.273 Y92.211 E1.35130
G1 X116.977 Y92.118 E1.40149
G1 X118.662 Y92.394 E1.45168
G1 X120.247 Y93.026 E1.50187
G1 X121.660 Y93.984 E1.55206
G1 X122.834 Y95.223 E1.60225
G1 X123.714 Y96.686 E1.65244
G1 X124.259 Y98.303 E1.70263
G1 X124.443 Y100.000 E1.75282
G1 X124.259 Y101.697 E1.80301
G1 X123.714 Y103.314 E1.85320
G1 X122.834 Y104.777 E1.90339
G1 X121.660 Y106.016 E1.95358
G1 X120.247 Y106.974 E2.00377
G1 X118.662 Y107.606 E2.05395
G1 X116.977 Y107.882 E2.10414
G1 X115.273 Y107.789 E2.15434
G1 X113.628 Y107.333 E2.20453
